; generated by Slic3r 1.37.2.1-prusa3d on 2018-05-24 at 22:02:23

; 

; external perimeters extrusion width = 0.45mm
; perimeters extrusion width = 0.45mm
; infill extrusion width = 0.45mm
; solid infill extrusion width = 0.45mm
; top infill extrusion width = 0.40mm
; first layer extrusion width = 0.42mm

M107 ; disable fan
M115 U3.1.1-RC5 ; tell printer latest fw version
M83  ; extruder relative mode
M104 S215 ; set extruder temp
M140 S60 ; set bed temp
M190 S60 ; wait for bed temp
M109 S215 ; wait for extruder temp
G28 W ; home all without mesh bed level
G80 ; mesh bed leveling
G1 Y-3.0 F1000.0 ; go outside print area
G92 E0.0
G1 X60.0 E9.0  F1000.0 ; intro line
G1 X100.0 E12.5  F1000.0 ; intro line
G92 E0.0
M221 S95
M900 K30
G21 ; set units to millimeters
G90 ; use absolute coordinates
M83 ; use relative distances for extrusion
;BEFORE_LAYER_CHANGE
;0.2


G1 E-0.80000 F2100.00000 ; retract
G1 Z0.600 F12000.000 ; lift Z
;AFTER_LAYER_CHANGE
;0.2
G1 X109.127 Y92.180 F12000.000 ; move to first skirt point
G1 Z0.200 F12000.000 ; restore layer Z
G1 E0.80000 F2100.00000 ; unretract
M204 S1000 ; adjust acceleration
G1 F1800
G1 X110.513 Y90.632 E0.06516 ; skirt
G1 X112.046 Y89.235 E0.06504 ; skirt
G1 X113.717 Y87.999 E0.06516 ; skirt
G1 X115.505 Y86.940 E0.06516 ; skirt
G1 X117.356 Y86.082 E0.06397 ; skirt
G1 X118.734 Y85.582 E0.04598 ; skirt
G1 X120.742 Y85.045 E0.06516 ; skirt
G1 X122.759 Y84.719 E0.06406 ; skirt
G1 X124.852 Y84.596 E0.06575 ; skirt
G1 X126.906 Y84.684 E0.06444 ; skirt
G1 X128.959 Y84.983 E0.06504 ; skirt
G1 X130.974 Y85.489 E0.06516 ; skirt
G1 X132.896 Y86.185 E0.06408 ; skirt
G1 X134.796 Y87.100 E0.06611 ; skirt
G1 X136.537 Y88.169 E0.06408 ; skirt
G1 X137.716 Y89.041 E0.04598 ; skirt
G1 X139.273 Y90.417 E0.06516 ; skirt
G1 X140.658 Y91.915 E0.06394 ; skirt
G1 X141.908 Y93.575 E0.06516 ; skirt
G1 X142.982 Y95.354 E0.06516 ; skirt
G1 X143.870 Y97.233 E0.06516 ; skirt
G1 X144.561 Y99.189 E0.06504 ; skirt
G1 X145.051 Y101.208 E0.06516 ; skirt
G1 X145.332 Y103.267 E0.06516 ; skirt
G1 X145.404 Y105.306 E0.06397 ; skirt
G1 X145.323 Y106.826 E0.04774 ; skirt
G1 X145.043 Y108.829 E0.06339 ; skirt
G1 X144.560 Y110.814 E0.06407 ; skirt
G1 X143.856 Y112.802 E0.06611 ; skirt
G1 X142.981 Y114.649 E0.06408 ; skirt
G1 X141.906 Y116.427 E0.06516 ; skirt
G1 X140.656 Y118.088 E0.06516 ; skirt
G1 X139.246 Y119.609 E0.06504 ; skirt
G1 X137.687 Y120.983 E0.06516 ; skirt
G1 X136.024 Y122.171 E0.06408 ; skirt
G1 X134.224 Y123.202 E0.06504 ; skirt
G1 X132.893 Y123.817 E0.04598 ; skirt
G1 X130.975 Y124.511 E0.06394 ; skirt
G1 X128.959 Y125.017 E0.06516 ; skirt
G1 X126.907 Y125.316 E0.06504 ; skirt
G1 X124.849 Y125.404 E0.06456 ; skirt
G1 X122.756 Y125.281 E0.06576 ; skirt
G1 X120.742 Y124.955 E0.06396 ; skirt
G1 X119.320 Y124.598 E0.04598 ; skirt
G1 X117.356 Y123.918 E0.06515 ; skirt
G1 X115.506 Y123.061 E0.06395 ; skirt
G1 X113.718 Y122.001 E0.06516 ; skirt
G1 X112.050 Y120.768 E0.06504 ; skirt
G1 X110.513 Y119.369 E0.06516 ; skirt
G1 X109.127 Y117.820 E0.06516 ; skirt
G1 X107.924 Y116.168 E0.06408 ; skirt
G1 X106.879 Y114.376 E0.06504 ; skirt
G1 X106.252 Y113.051 E0.04598 ; skirt
G1 X105.542 Y111.139 E0.06394 ; skirt
G1 X105.018 Y109.128 E0.06516 ; skirt
G1 X104.702 Y107.074 E0.06516 ; skirt
G1 X104.596 Y104.998 E0.06516 ; skirt
G1 X104.702 Y102.927 E0.06504 ; skirt
G1 X105.018 Y100.873 E0.06516 ; skirt
G1 X105.542 Y98.862 E0.06516 ; skirt
G1 X106.252 Y96.949 E0.06397 ; skirt
G1 X106.879 Y95.624 E0.04598 ; skirt
G1 X107.924 Y93.833 E0.06502 ; skirt
G1 X109.091 Y92.229 E0.06220 ; skirt
G1 F9600
G1 X110.513 Y90.632 E-0.44427 ; wipe and retract
G1 F9600
G1 X111.636 Y89.609 E-0.31573 ; wipe and retract
G1 E-0.04000 F2100.00000 ; retract
G1 Z0.800 F12000.000 ; lift Z
G1 X111.427 Y94.050 F12000.000 ; move to first perimeter point
G1 Z0.200 F12000.000 ; restore layer Z
G1 E0.80000 F2100.00000 ; unretract
G1 F1800
G1 X112.210 Y93.144 E0.03755 ; perimeter
G1 X112.616 Y92.720 E0.01841 ; perimeter
G1 X113.052 Y92.297 E0.01905 ; perimeter
G1 X113.934 Y91.521 E0.03682 ; perimeter
G1 X114.390 Y91.159 E0.01826 ; perimeter
G1 X115.362 Y90.465 E0.03744 ; perimeter
G1 X115.870 Y90.141 E0.01890 ; perimeter
G1 X116.886 Y89.563 E0.03666 ; perimeter
G1 X117.957 Y89.045 E0.03730 ; perimeter
G1 X118.498 Y88.817 E0.01842 ; perimeter
G1 X119.047 Y88.607 E0.01842 ; perimeter
G1 X120.183 Y88.238 E0.03745 ; perimeter
G1 X120.745 Y88.087 E0.01826 ; perimeter
G1 X121.913 Y87.835 E0.03745 ; perimeter
G1 X122.488 Y87.742 E0.01826 ; perimeter
G1 X123.670 Y87.611 E0.03729 ; perimeter
G1 X124.873 Y87.560 E0.03777 ; perimeter
G1 X126.042 Y87.591 E0.03666 ; perimeter
G1 X126.623 Y87.635 E0.01826 ; perimeter
G1 X127.808 Y87.787 E0.03745 ; perimeter
G1 X128.385 Y87.891 E0.01841 ; perimeter
G1 X128.979 Y88.020 E0.01905 ; perimeter
G1 X130.108 Y88.324 E0.03666 ; perimeter
G1 X131.233 Y88.711 E0.03730 ; perimeter
G1 X131.778 Y88.930 E0.01842 ; perimeter
G1 X132.315 Y89.167 E0.01842 ; perimeter
G1 X133.377 Y89.703 E0.03729 ; perimeter
G1 X134.401 Y90.309 E0.03729 ; perimeter
G1 X134.890 Y90.634 E0.01842 ; perimeter
G1 X135.368 Y90.975 E0.01842 ; perimeter
G1 X136.303 Y91.717 E0.03744 ; perimeter
G1 X136.755 Y92.116 E0.01890 ; perimeter
G1 X137.592 Y92.932 E0.03666 ; perimeter
G1 X138.386 Y93.819 E0.03730 ; perimeter
G1 X138.752 Y94.272 E0.01826 ; perimeter
G1 X139.454 Y95.238 E0.03745 ; perimeter
G1 X139.772 Y95.726 E0.01826 ; perimeter
G1 X140.372 Y96.759 E0.03745 ; perimeter
G1 X140.641 Y97.281 E0.01842 ; perimeter
G1 X140.892 Y97.812 E0.01842 ; perimeter
G1 X141.346 Y98.916 E0.03745 ; perimeter
G1 X141.540 Y99.465 E0.01826 ; perimeter
G1 X141.880 Y100.610 E0.03745 ; perimeter
G1 X142.017 Y101.176 E0.01826 ; perimeter
G1 X142.238 Y102.345 E0.03729 ; perimeter
G1 X142.379 Y103.526 E0.03729 ; perimeter
G1 X142.419 Y104.107 E0.01826 ; perimeter
G1 X142.439 Y105.296 E0.03729 ; perimeter
G1 X142.379 Y106.484 E0.03729 ; perimeter
G1 X142.319 Y107.068 E0.01841 ; perimeter
G1 X142.236 Y107.670 E0.01905 ; perimeter
G1 X142.018 Y108.823 E0.03681 ; perimeter
G1 X141.875 Y109.409 E0.01890 ; perimeter
G1 X141.540 Y110.535 E0.03682 ; perimeter
G1 X141.346 Y111.084 E0.01826 ; perimeter
G1 X140.894 Y112.183 E0.03729 ; perimeter
G1 X140.359 Y113.263 E0.03777 ; perimeter
G1 X139.772 Y114.274 E0.03666 ; perimeter
G1 X139.451 Y114.766 E0.01842 ; perimeter
G1 X139.114 Y115.247 E0.01842 ; perimeter
G1 X138.379 Y116.189 E0.03745 ; perimeter
G1 X137.998 Y116.630 E0.01826 ; perimeter
G1 X137.175 Y117.488 E0.03729 ; perimeter
G1 X136.296 Y118.289 E0.03729 ; perimeter
G1 X135.842 Y118.662 E0.01842 ; perimeter
G1 X135.376 Y119.019 E0.01842 ; perimeter
G1 X134.392 Y119.696 E0.03745 ; perimeter
G1 X133.896 Y120.002 E0.01826 ; perimeter
G1 X132.849 Y120.575 E0.03745 ; perimeter
G1 X132.324 Y120.829 E0.01826 ; perimeter
G1 X131.224 Y121.293 E0.03744 ; perimeter
G1 X130.657 Y121.498 E0.01890 ; perimeter
G1 X129.539 Y121.840 E0.03666 ; perimeter
G1 X128.366 Y122.112 E0.03778 ; perimeter
G1 X127.212 Y122.300 E0.03666 ; perimeter
G1 X126.633 Y122.364 E0.01826 ; perimeter
G1 X125.441 Y122.435 E0.03745 ; perimeter
G1 X124.858 Y122.440 E0.01826 ; perimeter
G1 X123.665 Y122.389 E0.03745 ; perimeter
G1 X123.080 Y122.334 E0.01842 ; perimeter
G1 X122.498 Y122.260 E0.01842 ; perimeter
G1 X121.322 Y122.048 E0.03745 ; perimeter
G1 X120.755 Y121.916 E0.01826 ; perimeter
G1 X119.607 Y121.585 E0.03745 ; perimeter
G1 X119.056 Y121.396 E0.01826 ; perimeter
G1 X117.948 Y120.951 E0.03745 ; perimeter
G1 X117.420 Y120.706 E0.01826 ; perimeter
G1 X116.367 Y120.153 E0.03729 ; perimeter
G1 X115.358 Y119.532 E0.03714 ; perimeter
G1 X114.390 Y118.841 E0.03729 ; perimeter
G1 X113.930 Y118.476 E0.01842 ; perimeter
G1 X113.483 Y118.095 E0.01842 ; perimeter
G1 X112.613 Y117.276 E0.03745 ; perimeter
G1 X112.210 Y116.856 E0.01826 ; perimeter
G1 X111.429 Y115.953 E0.03744 ; perimeter
G1 X111.059 Y115.477 E0.01890 ; perimeter
G1 X110.388 Y114.519 E0.03666 ; perimeter
G1 X109.773 Y113.501 E0.03730 ; perimeter
G1 X109.498 Y112.988 E0.01826 ; perimeter
G1 X108.987 Y111.908 E0.03745 ; perimeter
G1 X108.766 Y111.370 E0.01826 ; perimeter
G1 X108.368 Y110.244 E0.03745 ; perimeter
G1 X108.202 Y109.685 E0.01826 ; perimeter
G1 X107.921 Y108.525 E0.03745 ; perimeter
G1 X107.812 Y107.952 E0.01826 ; perimeter
G1 X107.651 Y106.769 E0.03745 ; perimeter
G1 X107.601 Y106.189 E0.01826 ; perimeter
G1 X107.561 Y104.995 E0.03744 ; perimeter
G1 X107.572 Y104.393 E0.01890 ; perimeter
G1 X107.652 Y103.221 E0.03682 ; perimeter
G1 X107.721 Y102.643 E0.01826 ; perimeter
G1 X107.922 Y101.471 E0.03729 ; perimeter
G1 X108.202 Y100.315 E0.03729 ; perimeter
G1 X108.368 Y99.756 E0.01826 ; perimeter
G1 X108.766 Y98.630 E0.03745 ; perimeter
G1 X108.987 Y98.092 E0.01826 ; perimeter
G1 X109.498 Y97.012 E0.03744 ; perimeter
G1 X109.783 Y96.481 E0.01890 ; perimeter
G1 X110.388 Y95.481 E0.03666 ; perimeter
G1 X111.071 Y94.507 E0.03730 ; perimeter
G1 X111.390 Y94.097 E0.01628 ; perimeter
G1 X111.093 Y93.865 F12000.000 ; move to first perimeter point
G1 F1800
G1 X111.931 Y92.890 E0.04033 ; perimeter
G1 X112.349 Y92.455 E0.01891 ; perimeter
G1 X112.796 Y92.020 E0.01956 ; perimeter
G1 X113.692 Y91.232 E0.03742 ; perimeter
G1 X114.163 Y90.858 E0.01886 ; perimeter
G1 X115.151 Y90.153 E0.03805 ; perimeter
G1 X115.675 Y89.818 E0.01950 ; perimeter
G1 X116.711 Y89.229 E0.03736 ; perimeter
G1 X117.802 Y88.702 E0.03800 ; perimeter
G1 X118.358 Y88.467 E0.01892 ; perimeter
G1 X118.921 Y88.252 E0.01892 ; perimeter
G1 X120.076 Y87.877 E0.03805 ; perimeter
G1 X120.656 Y87.720 E0.01886 ; perimeter
G1 X121.843 Y87.464 E0.03805 ; perimeter
G1 X122.437 Y87.368 E0.01886 ; perimeter
G1 X123.641 Y87.234 E0.03799 ; perimeter
G1 X124.870 Y87.183 E0.03858 ; perimeter
G1 X126.061 Y87.214 E0.03736 ; perimeter
G1 X126.661 Y87.260 E0.01886 ; perimeter
G1 X127.865 Y87.414 E0.03805 ; perimeter
G1 X128.459 Y87.521 E0.01891 ; perimeter
G1 X129.068 Y87.653 E0.01956 ; perimeter
G1 X130.219 Y87.963 E0.03736 ; perimeter
G1 X131.365 Y88.357 E0.03800 ; perimeter
G1 X131.925 Y88.582 E0.01892 ; perimeter
G1 X132.476 Y88.826 E0.01892 ; perimeter
G1 X133.558 Y89.372 E0.03800 ; perimeter
G1 X134.601 Y89.989 E0.03800 ; perimeter
G1 X135.104 Y90.323 E0.01892 ; perimeter
G1 X135.595 Y90.674 E0.01892 ; perimeter
G1 X136.545 Y91.428 E0.03805 ; perimeter
G1 X137.012 Y91.839 E0.01950 ; perimeter
G1 X137.865 Y92.671 E0.03736 ; perimeter
G1 X138.673 Y93.574 E0.03800 ; perimeter
G1 X139.051 Y94.042 E0.01886 ; perimeter
G1 X139.764 Y95.024 E0.03805 ; perimeter
G1 X140.093 Y95.528 E0.01886 ; perimeter
G1 X140.703 Y96.577 E0.03805 ; perimeter
G1 X140.979 Y97.114 E0.01892 ; perimeter
G1 X141.237 Y97.659 E0.01892 ; perimeter
G1 X141.699 Y98.781 E0.03805 ; perimeter
G1 X141.899 Y99.349 E0.01886 ; perimeter
G1 X142.245 Y100.512 E0.03805 ; perimeter
G1 X142.386 Y101.097 E0.01886 ; perimeter
G1 X142.611 Y102.287 E0.03800 ; perimeter
G1 X142.755 Y103.491 E0.03800 ; perimeter
G1 X142.796 Y104.091 E0.01886 ; perimeter
G1 X142.816 Y105.303 E0.03800 ; perimeter
G1 X142.755 Y106.513 E0.03800 ; perimeter
G1 X142.693 Y107.113 E0.01891 ; perimeter
G1 X142.608 Y107.731 E0.01956 ; perimeter
G1 X142.386 Y108.903 E0.03741 ; perimeter
G1 X142.239 Y109.507 E0.01950 ; perimeter
G1 X141.899 Y110.651 E0.03742 ; perimeter
G1 X141.699 Y111.219 E0.01886 ; perimeter
G1 X141.237 Y112.339 E0.03799 ; perimeter
G1 X140.692 Y113.442 E0.03858 ; perimeter
G1 X140.093 Y114.472 E0.03736 ; perimeter
G1 X139.763 Y114.977 E0.01892 ; perimeter
G1 X139.417 Y115.472 E0.01892 ; perimeter
G1 X138.671 Y116.429 E0.03805 ; perimeter
G1 X138.277 Y116.884 E0.01886 ; perimeter
G1 X137.439 Y117.758 E0.03800 ; perimeter
G1 X136.543 Y118.574 E0.03800 ; perimeter
G1 X136.077 Y118.957 E0.01892 ; perimeter
G1 X135.598 Y119.324 E0.01892 ; perimeter
G1 X134.598 Y120.012 E0.03805 ; perimeter
G1 X134.086 Y120.328 E0.01886 ; perimeter
G1 X133.021 Y120.911 E0.03805 ; perimeter
G1 X132.480 Y121.172 E0.01886 ; perimeter
G1 X131.361 Y121.644 E0.03805 ; perimeter
G1 X130.777 Y121.855 E0.01950 ; perimeter
G1 X129.637 Y122.204 E0.03736 ; perimeter
G1 X128.439 Y122.483 E0.03858 ; perimeter
G1 X127.263 Y122.674 E0.03736 ; perimeter
G1 X126.665 Y122.740 E0.01886 ; perimeter
G1 X125.453 Y122.812 E0.03805 ; perimeter
G1 X124.852 Y122.817 E0.01886 ; perimeter
G1 X123.639 Y122.766 E0.03805 ; perimeter
G1 X123.039 Y122.709 E0.01892 ; perimeter
G1 X122.440 Y122.633 E0.01892 ; perimeter
G1 X121.246 Y122.417 E0.03805 ; perimeter
G1 X120.660 Y122.281 E0.01886 ; perimeter
G1 X119.494 Y121.945 E0.03805 ; perimeter
G1 X118.925 Y121.750 E0.01886 ; perimeter
G1 X117.799 Y121.297 E0.03805 ; perimeter
G1 X117.253 Y121.045 E0.01886 ; perimeter
G1 X116.180 Y120.481 E0.03800 ; perimeter
G1 X115.150 Y119.846 E0.03794 ; perimeter
G1 X114.163 Y119.142 E0.03800 ; perimeter
G1 X113.691 Y118.767 E0.01892 ; perimeter
G1 X113.231 Y118.376 E0.01892 ; perimeter
G1 X112.348 Y117.544 E0.03805 ; perimeter
G1 X111.931 Y117.110 E0.01886 ; perimeter
G1 X111.137 Y116.192 E0.03805 ; perimeter
G1 X110.756 Y115.701 E0.01950 ; perimeter
G1 X110.072 Y114.725 E0.03736 ; perimeter
G1 X109.445 Y113.688 E0.03800 ; perimeter
G1 X109.161 Y113.158 E0.01886 ; perimeter
G1 X108.642 Y112.061 E0.03805 ; perimeter
G1 X108.413 Y111.504 E0.01886 ; perimeter
G1 X108.009 Y110.360 E0.03805 ; perimeter
G1 X107.838 Y109.784 E0.01886 ; perimeter
G1 X107.552 Y108.604 E0.03805 ; perimeter
G1 X107.440 Y108.013 E0.01886 ; perimeter
G1 X107.276 Y106.811 E0.03805 ; perimeter
G1 X107.225 Y106.211 E0.01886 ; perimeter
G1 X107.184 Y104.998 E0.03805 ; perimeter
G1 X107.195 Y104.377 E0.01950 ; perimeter
G1 X107.276 Y103.186 E0.03742 ; perimeter
G1 X107.348 Y102.589 E0.01886 ; perimeter
G1 X107.552 Y101.394 E0.03800 ; perimeter
G1 X107.838 Y100.216 E0.03800 ; perimeter
G1 X108.009 Y99.640 E0.01886 ; perimeter
G1 X108.413 Y98.496 E0.03805 ; perimeter
G1 X108.642 Y97.939 E0.01886 ; perimeter
G1 X109.161 Y96.842 E0.03805 ; perimeter
G1 X109.456 Y96.294 E0.01950 ; perimeter
G1 X110.072 Y95.275 E0.03736 ; perimeter
G1 X110.767 Y94.282 E0.03800 ; perimeter
G1 X111.056 Y93.913 E0.01470 ; perimeter
G1 X111.488 Y93.929 F12000.000 ; move inwards before travel
G1 F9600
G1 X111.931 Y92.890 E-0.27975 ; wipe and retract
G1 F9600
G1 X112.349 Y92.455 E-0.12536 ; wipe and retract
G1 F9600
G1 X112.796 Y92.020 E-0.12961 ; wipe and retract
G1 F9600
G1 X113.610 Y91.304 E-0.22528 ; wipe and retract
G1 E-0.04000 F2100.00000 ; retract
G1 Z0.800 F12000.000 ; lift Z
G1 X109.001 Y111.644 F12000.000 ; move to first infill point
G1 Z0.200 F12000.000 ; restore layer Z
G1 E0.80000 F2100.00000 ; unretract
G1 F1800
G1 X118.038 Y120.680 E0.40508 ; infill
G1 X118.941 Y121.045 E0.03088 ; infill
G1 X108.956 Y111.060 E0.44758 ; infill
G1 X108.662 Y110.226 E0.02802 ; infill
G1 X119.775 Y121.339 E0.49814 ; infill
G1 X120.531 Y121.557 E0.02496 ; infill
G1 X108.440 Y109.465 E0.54202 ; infill
G1 X108.267 Y108.754 E0.02320 ; infill
G1 X121.256 Y121.742 E0.58220 ; infill
G1 X121.921 Y121.869 E0.02148 ; infill
G1 X108.123 Y108.070 E0.61852 ; infill
G1 X108.027 Y107.436 E0.02033 ; infill
G1 X122.576 Y121.984 E0.65212 ; infill
G1 X123.182 Y122.051 E0.01933 ; infill
G1 X107.942 Y106.811 E0.68313 ; infill
G1 X107.888 Y106.218 E0.01889 ; infill
G1 X123.781 Y122.111 E0.71241 ; infill
G1 X124.344 Y122.135 E0.01786 ; infill
G1 X107.866 Y105.657 E0.73861 ; infill
G1 X107.847 Y105.099 E0.01770 ; infill
G1 X124.905 Y122.157 E0.76459 ; infill
G1 X125.439 Y122.152 E0.01693 ; infill
G1 X107.851 Y104.564 E0.78835 ; infill
G1 X107.878 Y104.052 E0.01625 ; infill
G1 X125.948 Y122.122 E0.80995 ; infill
G1 X126.456 Y122.091 E0.01616 ; infill
G1 X107.913 Y103.548 E0.83121 ; infill
G1 X107.957 Y103.052 E0.01576 ; infill
G1 X126.949 Y122.044 E0.85131 ; infill
G1 X127.422 Y121.979 E0.01516 ; infill
G1 X108.019 Y102.576 E0.86975 ; infill
G1 X108.098 Y102.116 E0.01480 ; infill
G1 X127.886 Y121.904 E0.88700 ; infill
G1 X128.348 Y121.826 E0.01483 ; infill
G1 X108.177 Y101.656 E0.90415 ; infill
G1 X108.275 Y101.214 E0.01432 ; infill
G1 X128.785 Y121.725 E0.91937 ; infill
G1 X129.223 Y121.623 E0.01423 ; infill
