; generated by Slic3r 1.37.2.1-prusa3d on 2018-11-05 at 00:04:00

; 

; external perimeters extrusion width = 0.45mm
; perimeters extrusion width = 0.45mm
; infill extrusion width = 0.45mm
; solid infill extrusion width = 0.45mm
; top infill extrusion width = 0.40mm
; first layer extrusion width = 0.42mm

M107 ; disable fan
M115 U3.4.0 ; tell printer latest fw version
M83  ; extruder relative mode
M104 S215 ; set extruder temp
M140 S60 ; set bed temp
M190 S60 ; wait for bed temp
M109 S215 ; wait for extruder temp
G28 W ; home all without mesh bed level
G80 ; mesh bed leveling
G1 Y-3.0 F1000.0 ; go outside print area
G92 E0.0
G1 X60.0 E9.0  F1000.0 ; intro line
G1 X100.0 E12.5  F1000.0 ; intro line
G92 E0.0
M221 S95
M900 K30
G21 ; set units to millimeters
G90 ; use absolute coordinates
M83 ; use relative distances for extrusion
;BEFORE_LAYER_CHANGE
G92 E0.0
;0.2


G1 E-0.80000 F2100.00000 ; retract
G1 Z0.600 F10800.000 ; lift Z
;AFTER_LAYER_CHANGE
;0.2
G1 X20.209 Y18.483 F10800.000 ; move to first skirt point
G1 Z0.200 F10800.000 ; restore layer Z
G1 E0.80000 F2100.00000 ; unretract
M204 S1000 ; adjust acceleration
G1 F1200
G1 X20.606 Y17.769 E0.02562 ; skirt
G1 X20.986 Y17.367 E0.01733 ; skirt
G1 X21.438 Y17.050 E0.01733 ; skirt
G1 X21.944 Y16.828 E0.01733 ; skirt
G1 X22.484 Y16.713 E0.01733 ; skirt
G1 X30.292 Y16.696 E0.24480 ; skirt
G1 X41.132 Y16.786 E0.33990 ; skirt
G1 X42.062 Y17.017 E0.03006 ; skirt
G1 X42.860 Y17.556 E0.03018 ; skirt
G1 X43.211 Y17.972 E0.01707 ; skirt
G1 X43.476 Y18.452 E0.01720 ; skirt
G1 X43.639 Y18.972 E0.01707 ; skirt
G1 X43.697 Y19.517 E0.01720 ; skirt
G1 X43.687 Y27.259 E0.24273 ; skirt
G1 X43.449 Y28.175 E0.02968 ; skirt
G1 X42.918 Y28.953 E0.02955 ; skirt
G1 X42.125 Y29.521 E0.03056 ; skirt
G1 X41.185 Y29.777 E0.03056 ; skirt
G1 X33.438 Y29.787 E0.24288 ; skirt
G1 X22.598 Y29.698 E0.33990 ; skirt
G1 X21.668 Y29.466 E0.03006 ; skirt
G1 X20.871 Y28.927 E0.03018 ; skirt
G1 X20.524 Y28.518 E0.01681 ; skirt
G1 X20.264 Y28.054 E0.01669 ; skirt
G1 X20.099 Y27.548 E0.01669 ; skirt
G1 X20.034 Y27.015 E0.01681 ; skirt
G1 X20.039 Y19.282 E0.24247 ; skirt
G1 X20.196 Y18.542 E0.02373 ; skirt
G1 F8640
G1 X20.606 Y17.769 E-0.20193 ; wipe and retract
G1 F8640
G1 X20.986 Y17.367 E-0.12759 ; wipe and retract
G1 F8640
G1 X21.438 Y17.050 E-0.12759 ; wipe and retract
G1 F8640
G1 X21.944 Y16.828 E-0.12759 ; wipe and retract
G1 F8640
G1 X22.484 Y16.713 E-0.12759 ; wipe and retract
G1 F8640
G1 X22.691 Y16.712 E-0.04771 ; wipe and retract
G1 E-0.04000 F2100.00000 ; retract
G1 Z0.800 F10800.000 ; lift Z
G1 X21.647 Y17.365 F10800.000 ; move to first skirt point
G1 Z0.200 F10800.000 ; restore layer Z
G1 E0.80000 F2100.00000 ; unretract
G1 F1200
G1 X22.559 Y17.084 E0.02989 ; skirt
G1 X30.292 Y17.073 E0.24247 ; skirt
G1 X41.083 Y17.160 E0.33837 ; skirt
G1 X41.880 Y17.349 E0.02567 ; skirt
G1 X42.565 Y17.796 E0.02567 ; skirt
G1 X43.117 Y18.573 E0.02989 ; skirt
G1 X43.319 Y19.509 E0.03001 ; skirt
G1 X43.314 Y27.197 E0.24105 ; skirt
G1 X43.122 Y27.981 E0.02532 ; skirt
G1 X42.679 Y28.656 E0.02532 ; skirt
G1 X41.892 Y29.213 E0.03024 ; skirt
G1 X40.947 Y29.410 E0.03024 ; skirt
G1 X22.701 Y29.326 E0.57212 ; skirt
G1 X21.875 Y29.145 E0.02649 ; skirt
G1 X21.165 Y28.687 E0.02649 ; skirt
G1 X20.619 Y27.924 E0.02942 ; skirt
G1 X20.411 Y27.005 E0.02954 ; skirt
G1 X20.414 Y19.317 E0.24106 ; skirt
G1 X20.564 Y18.612 E0.02260 ; skirt
G1 X20.920 Y17.980 E0.02272 ; skirt
G1 X21.601 Y17.403 E0.02801 ; skirt
G1 F8640
G1 X22.559 Y17.084 E-0.23294 ; wipe and retract
G1 F8640
G1 X24.841 Y17.081 E-0.52706 ; wipe and retract
G1 E-0.04000 F2100.00000 ; retract
G1 Z0.800 F10800.000 ; lift Z
G1 X23.375 Y20.037 F10800.000 ; move to first perimeter point
G1 Z0.200 F10800.000 ; restore layer Z
G1 E0.80000 F2100.00000 ; unretract
G1 F1200
G1 X29.701 Y20.037 E0.19834 ; perimeter
G1 X29.701 Y26.363 E0.19834 ; perimeter
G1 X23.375 Y26.363 E0.19834 ; perimeter
G1 X23.375 Y20.097 E0.19646 ; perimeter
G1 X22.998 Y19.660 F10800.000 ; move to first perimeter point
G1 F1200
G1 X30.078 Y19.660 E0.22199 ; perimeter
G1 X30.078 Y26.740 E0.22199 ; perimeter
G1 X22.998 Y26.740 E0.22199 ; perimeter
G1 X22.998 Y19.720 E0.22011 ; perimeter
G1 X23.384 Y19.764 F10800.000 ; move inwards before travel
G1 F8640
G1 X26.289 Y19.692 E-0.76000 ; wipe and retract
G1 E-0.04000 F2100.00000 ; retract
G1 Z0.800 F10800.000 ; lift Z
G1 X23.488 Y25.487 F10800.000 ; move to first infill point
G1 Z0.200 F10800.000 ; restore layer Z
G1 E0.80000 F2100.00000 ; unretract
G1 F1200
G1 X24.081 Y26.080 E0.02632 ; infill
G1 X24.615 Y26.080 E0.01675 ; infill
G1 X23.658 Y25.123 E0.04247 ; infill
G1 X23.658 Y24.590 E0.01675 ; infill
G1 X25.148 Y26.080 E0.06615 ; infill
G1 X25.682 Y26.080 E0.01675 ; infill
G1 X23.658 Y24.056 E0.08984 ; infill
G1 X23.658 Y23.522 E0.01675 ; infill
G1 X26.216 Y26.080 E0.11352 ; infill
G1 X26.749 Y26.080 E0.01675 ; infill
G1 X23.658 Y22.988 E0.13720 ; infill
G1 X23.658 Y22.455 E0.01675 ; infill
G1 X27.283 Y26.080 E0.16088 ; infill
G1 X27.817 Y26.080 E0.01675 ; infill
G1 X23.658 Y21.921 E0.18457 ; infill
G1 X23.658 Y21.387 E0.01675 ; infill
G1 X28.350 Y26.080 E0.20825 ; infill
G1 X28.884 Y26.080 E0.01675 ; infill
G1 X23.658 Y20.854 E0.23193 ; infill
G1 X23.658 Y20.320 E0.01675 ; infill
G1 X29.418 Y26.080 E0.25561 ; infill
G1 X29.418 Y25.547 E0.01674 ; infill
G1 X24.191 Y20.320 E0.23194 ; infill
G1 X24.725 Y20.320 E0.01675 ; infill
G1 X29.418 Y25.013 E0.20825 ; infill
G1 X29.418 Y24.479 E0.01675 ; infill
G1 X25.259 Y20.320 E0.18457 ; infill
G1 X25.792 Y20.320 E0.01675 ; infill
G1 X29.418 Y23.946 E0.16089 ; infill
G1 X29.418 Y23.412 E0.01675 ; infill
G1 X26.326 Y20.320 E0.13721 ; infill
G1 X26.860 Y20.320 E0.01675 ; infill
G1 X29.418 Y22.878 E0.11352 ; infill
G1 X29.418 Y22.345 E0.01675 ; infill
G1 X27.393 Y20.320 E0.08984 ; infill
G1 X27.927 Y20.320 E0.01675 ; infill
G1 X29.418 Y21.811 E0.06616 ; infill
G1 X29.418 Y21.277 E0.01675 ; infill
G1 X28.461 Y20.320 E0.04248 ; infill
G1 X28.994 Y20.320 E0.01675 ; infill
G1 X29.588 Y20.913 E0.02632 ; infill
G1 F8640
G1 X28.994 Y20.320 E-0.19371 ; wipe and retract
G1 F8640
G1 X28.461 Y20.320 E-0.12323 ; wipe and retract
G1 F8640
G1 X29.418 Y21.277 E-0.31257 ; wipe and retract
G1 F8640
G1 X29.418 Y21.811 E-0.12323 ; wipe and retract
G1 F8640
G1 X29.396 Y21.789 E-0.00727 ; wipe and retract
G1 E-0.04000 F2100.00000 ; retract
G1 Z0.800 F10800.000 ; lift Z
G1 X34.030 Y20.120 F10800.000 ; move to first perimeter point
G1 Z0.200 F10800.000 ; restore layer Z
G1 E0.80000 F2100.00000 ; unretract
G1 F1200
G1 X40.355 Y20.120 E0.19834 ; perimeter
G1 X40.355 Y26.446 E0.19834 ; perimeter
G1 X34.030 Y26.446 E0.19834 ; perimeter
G1 X34.030 Y20.180 E0.19646 ; perimeter
G1 X33.653 Y19.743 F10800.000 ; move to first perimeter point
G1 F1200
G1 X40.733 Y19.743 E0.22199 ; perimeter
G1 X40.733 Y26.823 E0.22199 ; perimeter
G1 X33.653 Y26.823 E0.22199 ; perimeter
G1 X33.653 Y19.803 E0.22011 ; perimeter
G1 X34.039 Y19.847 F10800.000 ; move inwards before travel
G1 F8640
G1 X36.944 Y19.775 E-0.76000 ; wipe and retract
G1 E-0.04000 F2100.00000 ; retract
G1 Z0.800 F10800.000 ; lift Z
G1 X34.143 Y25.570 F10800.000 ; move to first infill point
G1 Z0.200 F10800.000 ; restore layer Z
G1 E0.80000 F2100.00000 ; unretract
G1 F1200
G1 X34.736 Y26.163 E0.02632 ; infill
G1 X35.269 Y26.163 E0.01675 ; infill
G1 X34.312 Y25.206 E0.04247 ; infill
G1 X34.312 Y24.673 E0.01675 ; infill
G1 X35.803 Y26.163 E0.06615 ; infill
G1 X36.337 Y26.163 E0.01675 ; infill
G1 X34.312 Y24.139 E0.08984 ; infill
G1 X34.312 Y23.605 E0.01675 ; infill
G1 X36.871 Y26.163 E0.11352 ; infill
G1 X37.404 Y26.163 E0.01675 ; infill
G1 X34.312 Y23.072 E0.13720 ; infill
G1 X34.312 Y22.538 E0.01675 ; infill
G1 X37.938 Y26.163 E0.16088 ; infill
G1 X38.472 Y26.163 E0.01675 ; infill
G1 X34.312 Y22.004 E0.18457 ; infill
G1 X34.312 Y21.471 E0.01675 ; infill
G1 X39.005 Y26.163 E0.20825 ; infill
G1 X39.539 Y26.163 E0.01675 ; infill
G1 X34.312 Y20.937 E0.23193 ; infill
G1 X34.312 Y20.403 E0.01675 ; infill
G1 X40.073 Y26.163 E0.25561 ; infill
G1 X40.073 Y25.630 E0.01674 ; infill
G1 X34.846 Y20.403 E0.23194 ; infill
G1 X35.380 Y20.403 E0.01675 ; infill
G1 X40.073 Y25.096 E0.20825 ; infill
G1 X40.073 Y24.562 E0.01675 ; infill
G1 X35.913 Y20.403 E0.18457 ; infill
G1 X36.447 Y20.403 E0.01675 ; infill
G1 X40.073 Y24.029 E0.16089 ; infill
G1 X40.073 Y23.495 E0.01675 ; infill
G1 X36.981 Y20.403 E0.13721 ; infill
G1 X37.514 Y20.403 E0.01675 ; infill
G1 X40.073 Y22.961 E0.11352 ; infill
G1 X40.073 Y22.428 E0.01675 ; infill
G1 X38.048 Y20.403 E0.08984 ; infill
G1 X38.582 Y20.403 E0.01675 ; infill
G1 X40.073 Y21.894 E0.06616 ; infill
G1 X40.073 Y21.360 E0.01675 ; infill
G1 X39.115 Y20.403 E0.04248 ; infill
G1 X39.649 Y20.403 E0.01675 ; infill
G1 X40.242 Y20.996 E0.02632 ; infill
M106 S255 ; enable fan
;BEFORE_LAYER_CHANGE
G92 E0.0
;0.35


G1 F8640
G1 X39.649 Y20.403 E-0.19371 ; wipe and retract
G1 F8640
G1 X39.115 Y20.403 E-0.12323 ; wipe and retract
G1 F8640
G1 X40.073 Y21.360 E-0.31257 ; wipe and retract
G1 F8640
G1 X40.073 Y21.894 E-0.12323 ; wipe and retract
G1 F8640
G1 X40.050 Y21.872 E-0.00727 ; wipe and retract
G1 E-0.04000 F2100.00000 ; retract
G1 Z0.800 F10800.000 ; lift Z
;AFTER_LAYER_CHANGE
;0.35
M104 S210 ; set temperature
G1 X42.062 Y17.017 F10800.000 ; move to first skirt point
G1 Z0.350 F10800.000 ; restore layer Z
G1 E0.80000 F2100.00000 ; unretract
G1 F900
G1 X42.860 Y17.556 E0.02328 ; skirt
G1 X43.211 Y17.972 E0.01317 ; skirt
G1 X43.476 Y18.452 E0.01327 ; skirt
G1 X43.639 Y18.972 E0.01317 ; skirt
G1 X43.697 Y19.517 E0.01327 ; skirt
G1 X43.687 Y27.259 E0.18722 ; skirt
G1 X43.449 Y28.175 E0.02289 ; skirt
G1 X42.918 Y28.953 E0.02279 ; skirt
G1 X42.125 Y29.521 E0.02357 ; skirt
G1 X41.185 Y29.777 E0.02357 ; skirt
G1 X33.438 Y29.787 E0.18735 ; skirt
G1 X22.598 Y29.698 E0.26218 ; skirt
G1 X21.668 Y29.466 E0.02318 ; skirt
G1 X20.871 Y28.927 E0.02328 ; skirt
G1 X20.524 Y28.518 E0.01297 ; skirt
G1 X20.264 Y28.054 E0.01287 ; skirt
G1 X20.099 Y27.548 E0.01287 ; skirt
G1 X20.034 Y27.015 E0.01297 ; skirt
G1 X20.039 Y19.282 E0.18703 ; skirt
G1 X20.209 Y18.483 E0.01976 ; skirt
G1 X20.606 Y17.769 E0.01976 ; skirt
G1 X20.986 Y17.367 E0.01336 ; skirt
G1 X21.438 Y17.050 E0.01336 ; skirt
G1 X21.944 Y16.828 E0.01336 ; skirt
G1 X22.484 Y16.713 E0.01336 ; skirt
G1 X30.292 Y16.696 E0.18883 ; skirt
G1 X41.132 Y16.786 E0.26218 ; skirt
G1 X42.004 Y17.003 E0.02173 ; skirt
G1 F8640
G1 X42.860 Y17.556 E-0.23533 ; wipe and retract
G1 F8640
G1 X43.211 Y17.972 E-0.12571 ; wipe and retract
G1 F8640
G1 X43.476 Y18.452 E-0.12665 ; wipe and retract
G1 F8640
G1 X43.639 Y18.972 E-0.12571 ; wipe and retract
G1 F8640
G1 X43.697 Y19.517 E-0.12665 ; wipe and retract
G1 F8640
G1 X43.697 Y19.604 E-0.01996 ; wipe and retract
G1 E-0.04000 F2100.00000 ; retract
G1 Z0.950 F10800.000 ; lift Z
G1 X29.645 Y20.093 F10800.000 ; move to first perimeter point
G1 Z0.350 F10800.000 ; restore layer Z
G1 E0.80000 F2100.00000 ; unretract
M204 S800 ; adjust acceleration
G1 F900
G1 X29.645 Y26.307 E0.16192 ; perimeter
G1 X23.431 Y26.307 E0.16192 ; perimeter
G1 X23.431 Y20.093 E0.16192 ; perimeter
G1 X29.585 Y20.093 E0.16036 ; perimeter
M204 S1000 ; adjust acceleration
G1 X30.063 Y19.675 F10800.000 ; move to first perimeter point
M204 S800 ; adjust acceleration
G1 F1500
G1 X30.063 Y26.725 E0.18369 ; perimeter
G1 X23.013 Y26.725 E0.18369 ; perimeter
G1 X23.013 Y19.675 E0.18369 ; perimeter
G1 X30.003 Y19.675 E0.18213 ; perimeter
M204 S1000 ; adjust acceleration
G1 X29.959 Y20.062 F10800.000 ; move inwards before travel
G1 F8640
G1 X30.031 Y22.966 E-0.76000 ; wipe and retract
G1 E-0.04000 F2100.00000 ; retract
G1 Z0.950 F10800.000 ; lift Z
G1 X23.556 Y21.077 F10800.000 ; move to first infill point
G1 Z0.350 F10800.000 ; restore layer Z
G1 E0.80000 F2100.00000 ; unretract
M204 S1250 ; adjust acceleration
G1 F1194
G1 X24.227 Y20.406 E0.02513 ; infill
G1 X24.827 Y20.406 E0.01590 ; infill
G1 X23.744 Y21.490 E0.04058 ; infill
G1 X23.744 Y22.090 E0.01590 ; infill
G1 X25.428 Y20.406 E0.06307 ; infill
G1 X26.029 Y20.406 E0.01590 ; infill
G1 X23.744 Y22.691 E0.08556 ; infill
G1 X23.744 Y23.291 E0.01590 ; infill
G1 X26.629 Y20.406 E0.10805 ; infill
G1 X27.230 Y20.406 E0.01590 ; infill
G1 X23.744 Y23.892 E0.13055 ; infill
G1 X23.744 Y24.493 E0.01590 ; infill
G1 X27.830 Y20.406 E0.15304 ; infill
G1 X28.431 Y20.406 E0.01590 ; infill
G1 X23.744 Y25.093 E0.17553 ; infill
G1 X23.744 Y25.694 E0.01590 ; infill
G1 X29.031 Y20.406 E0.19802 ; infill
G1 X29.332 Y20.406 E0.00795 ; infill
G1 X29.332 Y20.707 E0.00795 ; infill
G1 X24.044 Y25.994 E0.19803 ; infill
G1 X24.645 Y25.994 E0.01590 ; infill
G1 X29.332 Y21.307 E0.17553 ; infill
G1 X29.332 Y21.908 E0.01590 ; infill
G1 X25.245 Y25.994 E0.15304 ; infill
G1 X25.846 Y25.994 E0.01590 ; infill
G1 X29.332 Y22.508 E0.13055 ; infill
G1 X29.332 Y23.109 E0.01590 ; infill
G1 X26.446 Y25.994 E0.10806 ; infill
G1 X27.047 Y25.994 E0.01590 ; infill
G1 X29.332 Y23.709 E0.08557 ; infill
G1 X29.332 Y24.310 E0.01590 ; infill
G1 X27.647 Y25.994 E0.06308 ; infill
G1 X28.248 Y25.994 E0.01590 ; infill
G1 X29.332 Y24.910 E0.04058 ; infill
G1 X29.332 Y25.511 E0.01590 ; infill
G1 X28.661 Y26.182 E0.02513 ; infill
M204 S1000 ; adjust acceleration
G1 F8640
G1 X29.332 Y25.511 E-0.21914 ; wipe and retract
G1 F8640
G1 X29.332 Y24.910 E-0.13867 ; wipe and retract
G1 F8640
G1 X28.248 Y25.994 E-0.35386 ; wipe and retract
G1 F8640
G1 X28.039 Y25.994 E-0.04833 ; wipe and retract
G1 E-0.04000 F2100.00000 ; retract
G1 Z0.950 F10800.000 ; lift Z
G1 X34.085 Y26.390 F10800.000 ; move to first perimeter point
G1 Z0.350 F10800.000 ; restore layer Z
G1 E0.80000 F2100.00000 ; unretract
M204 S800 ; adjust acceleration
G1 F900
G1 X34.085 Y20.176 E0.16192 ; perimeter
G1 X40.300 Y20.176 E0.16192 ; perimeter
G1 X40.300 Y26.390 E0.16192 ; perimeter
G1 X34.145 Y26.390 E0.16036 ; perimeter
M204 S1000 ; adjust acceleration
G1 X33.668 Y26.808 F10800.000 ; move to first perimeter point
M204 S800 ; adjust acceleration
G1 F1500
G1 X33.668 Y19.758 E0.18369 ; perimeter
G1 X40.718 Y19.758 E0.18369 ; perimeter
G1 X40.718 Y26.808 E0.18369 ; perimeter
G1 X33.728 Y26.808 E0.18213 ; perimeter
M204 S1000 ; adjust acceleration
G1 X33.771 Y26.422 F10800.000 ; move inwards before travel
G1 F8640
G1 X33.700 Y23.517 E-0.76000 ; wipe and retract
G1 E-0.04000 F2100.00000 ; retract
G1 Z0.950 F10800.000 ; lift Z
G1 X39.315 Y26.265 F10800.000 ; move to first infill point
G1 Z0.350 F10800.000 ; restore layer Z
G1 E0.80000 F2100.00000 ; unretract
M204 S1250 ; adjust acceleration
G1 F1194
G1 X39.986 Y25.594 E0.02513 ; infill
G1 X39.986 Y24.994 E0.01590 ; infill
G1 X38.903 Y26.077 E0.04058 ; infill
G1 X38.302 Y26.077 E0.01590 ; infill
G1 X39.986 Y24.393 E0.06308 ; infill
G1 X39.986 Y23.792 E0.01590 ; infill
G1 X37.702 Y26.077 E0.08557 ; infill
G1 X37.101 Y26.077 E0.01590 ; infill
G1 X39.986 Y23.192 E0.10806 ; infill
G1 X39.986 Y22.591 E0.01590 ; infill
G1 X36.501 Y26.077 E0.13055 ; infill
G1 X35.900 Y26.077 E0.01590 ; infill
G1 X39.986 Y21.991 E0.15304 ; infill
G1 X39.986 Y21.390 E0.01590 ; infill
G1 X35.299 Y26.077 E0.17553 ; infill
G1 X34.699 Y26.077 E0.01590 ; infill
G1 X39.986 Y20.790 E0.19803 ; infill
G1 X39.986 Y20.489 E0.00795 ; infill
G1 X39.686 Y20.489 E0.00795 ; infill
G1 X34.399 Y25.777 E0.19802 ; infill
G1 X34.399 Y25.176 E0.01590 ; infill
G1 X39.086 Y20.489 E0.17553 ; infill
G1 X38.485 Y20.489 E0.01590 ; infill
G1 X34.399 Y24.576 E0.15304 ; infill
G1 X34.399 Y23.975 E0.01590 ; infill
G1 X37.884 Y20.489 E0.13055 ; infill
G1 X37.284 Y20.489 E0.01590 ; infill
G1 X34.399 Y23.375 E0.10805 ; infill
G1 X34.399 Y22.774 E0.01590 ; infill
G1 X36.683 Y20.489 E0.08556 ; infill
G1 X36.083 Y20.489 E0.01590 ; infill
G1 X34.399 Y22.174 E0.06307 ; infill
G1 X34.399 Y21.573 E0.01590 ; infill
G1 X35.482 Y20.489 E0.04058 ; infill
G1 X34.882 Y20.489 E0.01590 ; infill
G1 X34.211 Y21.160 E0.02513 ; infill
M204 S1000 ; adjust acceleration
;BEFORE_LAYER_CHANGE
G92 E0.0
;0.5


G1 F8640
G1 X34.882 Y20.489 E-0.21911 ; wipe and retract
G1 F8640
G1 X35.482 Y20.489 E-0.13867 ; wipe and retract
G1 F8640
