; generated by Slic3r 1.37.2.1-prusa3d on 2018-10-21 at 13:01:12

; 

; external perimeters extrusion width = 0.45mm
; perimeters extrusion width = 0.45mm
; infill extrusion width = 0.45mm
; solid infill extrusion width = 0.45mm
; top infill extrusion width = 0.40mm
; first layer extrusion width = 0.42mm

M107 ; disable fan
M115 U3.4.0 ; tell printer latest fw version
M83  ; extruder relative mode
M104 S215 ; set extruder temp
M140 S60 ; set bed temp
M190 S60 ; wait for bed temp
M109 S215 ; wait for extruder temp
G28 W ; home all without mesh bed level
G80 ; mesh bed leveling
G1 Y-3.0 F1000.0 ; go outside print area
G92 E0.0
G1 X60.0 E9.0  F1000.0 ; intro line
G1 X100.0 E12.5  F1000.0 ; intro line
G92 E0.0
M221 S95
M900 K30
G21 ; set units to millimeters
G90 ; use absolute coordinates
M83 ; use relative distances for extrusion
;BEFORE_LAYER_CHANGE
G92 E0.0
;0.2


G1 E-0.80000 F2100.00000 ; retract
G1 Z0.600 F10800.000 ; lift Z
;AFTER_LAYER_CHANGE
;0.2
G1 X44.473 Y33.389 F10800.000 ; move to first skirt point
G1 Z0.200 F10800.000 ; restore layer Z
G1 E0.80000 F2100.00000 ; unretract
M204 S1000 ; adjust acceleration
G1 F1200
G1 X45.276 Y33.247 E0.02555 ; skirt
G1 X202.288 Y33.247 E4.92301 ; skirt
G1 X203.183 Y33.423 E0.02860 ; skirt
G1 X203.948 Y33.927 E0.02872 ; skirt
G1 X204.465 Y34.678 E0.02860 ; skirt
G1 X204.661 Y35.573 E0.02872 ; skirt
G1 X205.999 Y101.778 E2.07621 ; skirt
G1 X205.999 Y165.818 E2.00794 ; skirt
G1 X205.937 Y166.327 E0.01609 ; skirt
G1 X205.768 Y166.812 E0.01609 ; skirt
G1 X205.498 Y167.248 E0.01609 ; skirt
G1 X205.140 Y167.617 E0.01609 ; skirt
G1 X204.433 Y168.022 E0.02555 ; skirt
G1 X203.631 Y168.165 E0.02555 ; skirt
G1 X42.619 Y168.165 E5.04843 ; skirt
G1 X42.105 Y168.108 E0.01621 ; skirt
G1 X41.612 Y167.939 E0.01633 ; skirt
G1 X41.168 Y167.667 E0.01633 ; skirt
G1 X40.793 Y167.306 E0.01633 ; skirt
G1 X40.391 Y166.606 E0.02532 ; skirt
G1 X40.245 Y165.808 E0.02543 ; skirt
G1 X40.246 Y101.734 E2.00898 ; skirt
G1 X42.910 Y35.502 E2.07835 ; skirt
G1 X42.986 Y35.017 E0.01538 ; skirt
G1 X43.159 Y34.558 E0.01538 ; skirt
G1 X43.423 Y34.145 E0.01538 ; skirt
G1 X43.766 Y33.794 E0.01538 ; skirt
G1 X44.421 Y33.419 E0.02367 ; skirt
G1 F8640
G1 X45.276 Y33.247 E-0.20126 ; wipe and retract
G1 F8640
G1 X47.696 Y33.247 E-0.55874 ; wipe and retract
G1 E-0.04000 F2100.00000 ; retract
G1 Z0.800 F10800.000 ; lift Z
G1 X43.209 Y102.375 F10800.000 ; move to first perimeter point
G1 Z0.200 F10800.000 ; restore layer Z
G1 E0.80000 F2100.00000 ; unretract
G1 F1200
G1 X203.035 Y102.375 E5.01123 ; perimeter
G1 X203.035 Y165.200 E1.96986 ; perimeter
G1 X43.209 Y165.200 E5.01123 ; perimeter
G1 X43.209 Y102.435 E1.96798 ; perimeter
G1 X42.832 Y101.998 F10800.000 ; move to first perimeter point
G1 F1200
G1 X203.412 Y101.998 E5.03487 ; perimeter
G1 X203.412 Y165.578 E1.99351 ; perimeter
G1 X42.832 Y165.578 E5.03487 ; perimeter
G1 X42.832 Y102.058 E1.99162 ; perimeter
G1 X43.229 Y102.048 F10800.000 ; move inwards before travel
G1 F8640
G1 X46.124 Y102.056 E-0.76000 ; wipe and retract
G1 E-0.04000 F2100.00000 ; retract
G1 Z0.800 F10800.000 ; lift Z
G1 X44.086 Y165.087 F10800.000 ; move to first infill point
G1 Z0.200 F10800.000 ; restore layer Z
G1 E0.80000 F2100.00000 ; unretract
G1 F1200
G1 X43.492 Y164.493 E0.02640 ; infill
G1 X43.492 Y163.959 E0.01679 ; infill
G1 X44.451 Y164.918 E0.04260 ; infill
G1 X44.985 Y164.918 E0.01679 ; infill
G1 X43.492 Y163.425 E0.06633 ; infill
G1 X43.492 Y162.890 E0.01679 ; infill
G1 X45.520 Y164.918 E0.09007 ; infill
G1 X46.054 Y164.918 E0.01679 ; infill
G1 X43.492 Y162.356 E0.11381 ; infill
G1 X43.492 Y161.822 E0.01679 ; infill
G1 X46.588 Y164.918 E0.13755 ; infill
G1 X47.123 Y164.918 E0.01679 ; infill
G1 X43.492 Y161.287 E0.16129 ; infill
G1 X43.492 Y160.753 E0.01679 ; infill
G1 X47.657 Y164.918 E0.18503 ; infill
G1 X48.191 Y164.918 E0.01679 ; infill
G1 X43.492 Y160.219 E0.20877 ; infill
G1 X43.492 Y159.684 E0.01679 ; infill
G1 X48.726 Y164.918 E0.23251 ; infill
G1 X49.260 Y164.918 E0.01679 ; infill
G1 X43.492 Y159.150 E0.25624 ; infill
G1 X43.492 Y158.616 E0.01679 ; infill
G1 X49.794 Y164.918 E0.27998 ; infill
G1 X50.328 Y164.918 E0.01679 ; infill
G1 X43.492 Y158.081 E0.30372 ; infill
G1 X43.492 Y157.547 E0.01679 ; infill
G1 X50.863 Y164.918 E0.32746 ; infill
G1 X51.397 Y164.918 E0.01679 ; infill
G1 X43.492 Y157.013 E0.35120 ; infill
G1 X43.492 Y156.479 E0.01679 ; infill
G1 X51.931 Y164.918 E0.37494 ; infill
G1 X52.466 Y164.918 E0.01679 ; infill
G1 X43.492 Y155.944 E0.39868 ; infill
G1 X43.492 Y155.410 E0.01679 ; infill
G1 X53.000 Y164.918 E0.42241 ; infill
G1 X53.534 Y164.918 E0.01679 ; infill
G1 X43.492 Y154.876 E0.44615 ; infill
G1 X43.492 Y154.341 E0.01679 ; infill
G1 X54.069 Y164.918 E0.46989 ; infill
G1 X54.603 Y164.918 E0.01679 ; infill
G1 X43.492 Y153.807 E0.49363 ; infill
G1 X43.492 Y153.273 E0.01679 ; infill
G1 X55.137 Y164.918 E0.51737 ; infill
G1 X55.672 Y164.918 E0.01679 ; infill
G1 X43.492 Y152.738 E0.54111 ; infill
G1 X43.492 Y152.204 E0.01679 ; infill
G1 X56.206 Y164.918 E0.56485 ; infill
G1 X56.740 Y164.918 E0.01679 ; infill
G1 X43.492 Y151.670 E0.58859 ; infill
G1 X43.492 Y151.135 E0.01679 ; infill
G1 X57.275 Y164.918 E0.61232 ; infill
G1 X57.809 Y164.918 E0.01679 ; infill
G1 X43.492 Y150.601 E0.63606 ; infill
G1 X43.492 Y150.067 E0.01679 ; infill
G1 X58.343 Y164.918 E0.65980 ; infill
G1 X58.878 Y164.918 E0.01679 ; infill
G1 X43.492 Y149.532 E0.68354 ; infill
G1 X43.492 Y148.998 E0.01679 ; infill
G1 X59.412 Y164.918 E0.70728 ; infill
G1 X59.946 Y164.918 E0.01679 ; infill
G1 X43.492 Y148.464 E0.73102 ; infill
G1 X43.492 Y147.930 E0.01679 ; infill
G1 X60.480 Y164.918 E0.75476 ; infill
G1 X61.015 Y164.918 E0.01679 ; infill
G1 X43.492 Y147.395 E0.77850 ; infill
G1 X43.492 Y146.861 E0.01679 ; infill
G1 X61.549 Y164.918 E0.80223 ; infill
G1 X62.083 Y164.918 E0.01679 ; infill
G1 X43.492 Y146.327 E0.82597 ; infill
G1 X43.492 Y145.792 E0.01679 ; infill
G1 X62.618 Y164.918 E0.84971 ; infill
G1 X63.152 Y164.918 E0.01679 ; infill
G1 X43.492 Y145.258 E0.87345 ; infill
G1 X43.492 Y144.724 E0.01679 ; infill
G1 X63.686 Y164.918 E0.89719 ; infill
G1 X64.221 Y164.918 E0.01679 ; infill
G1 X43.492 Y144.189 E0.92093 ; infill
G1 X43.492 Y143.655 E0.01679 ; infill
G1 X64.755 Y164.918 E0.94467 ; infill
G1 X65.289 Y164.918 E0.01679 ; infill
G1 X43.492 Y143.121 E0.96841 ; infill
G1 X43.492 Y142.586 E0.01679 ; infill
G1 X65.824 Y164.918 E0.99214 ; infill
G1 X66.358 Y164.918 E0.01679 ; infill
G1 X43.492 Y142.052 E1.01588 ; infill
G1 X43.492 Y141.518 E0.01679 ; infill
G1 X66.892 Y164.918 E1.03962 ; infill
G1 X67.427 Y164.918 E0.01679 ; infill
G1 X43.492 Y140.983 E1.06336 ; infill
G1 X43.492 Y140.449 E0.01679 ; infill
G1 X67.961 Y164.918 E1.08710 ; infill
G1 X68.495 Y164.918 E0.01679 ; infill
G1 X43.492 Y139.915 E1.11084 ; infill
G1 X43.492 Y139.380 E0.01679 ; infill
G1 X69.029 Y164.918 E1.13458 ; infill
G1 X69.564 Y164.918 E0.01679 ; infill
G1 X43.492 Y138.846 E1.15831 ; infill
G1 X43.492 Y138.312 E0.01679 ; infill
G1 X70.098 Y164.918 E1.18205 ; infill
G1 X70.632 Y164.918 E0.01679 ; infill
G1 X43.492 Y137.778 E1.20579 ; infill
G1 X43.492 Y137.243 E0.01679 ; infill
G1 X71.167 Y164.918 E1.22953 ; infill
G1 X71.701 Y164.918 E0.01679 ; infill
G1 X43.492 Y136.709 E1.25327 ; infill
G1 X43.492 Y136.175 E0.01679 ; infill
G1 X72.235 Y164.918 E1.27701 ; infill
G1 X72.770 Y164.918 E0.01679 ; infill
G1 X43.492 Y135.640 E1.30075 ; infill
G1 X43.492 Y135.106 E0.01679 ; infill
G1 X73.304 Y164.918 E1.32449 ; infill
G1 X73.838 Y164.918 E0.01679 ; infill
G1 X43.492 Y134.572 E1.34822 ; infill
G1 X43.492 Y134.037 E0.01679 ; infill
G1 X74.373 Y164.918 E1.37196 ; infill
G1 X74.907 Y164.918 E0.01679 ; infill
G1 X43.492 Y133.503 E1.39570 ; infill
G1 X43.492 Y132.969 E0.01679 ; infill
G1 X75.441 Y164.918 E1.41944 ; infill
G1 X75.976 Y164.918 E0.01679 ; infill
G1 X43.492 Y132.434 E1.44318 ; infill
G1 X43.492 Y131.900 E0.01679 ; infill
G1 X76.510 Y164.918 E1.46692 ; infill
G1 X77.044 Y164.918 E0.01679 ; infill
G1 X43.492 Y131.366 E1.49066 ; infill
G1 X43.492 Y130.831 E0.01679 ; infill
G1 X77.578 Y164.918 E1.51440 ; infill
G1 X78.113 Y164.918 E0.01679 ; infill
G1 X43.492 Y130.297 E1.53813 ; infill
G1 X43.492 Y129.763 E0.01679 ; infill
G1 X78.647 Y164.918 E1.56187 ; infill
G1 X79.181 Y164.918 E0.01679 ; infill
G1 X43.492 Y129.229 E1.58561 ; infill
G1 X43.492 Y128.694 E0.01679 ; infill
G1 X79.716 Y164.918 E1.60935 ; infill
G1 X80.250 Y164.918 E0.01679 ; infill
G1 X43.492 Y128.160 E1.63309 ; infill
G1 X43.492 Y127.626 E0.01679 ; infill
G1 X80.784 Y164.918 E1.65683 ; infill
G1 X81.319 Y164.918 E0.01679 ; infill
G1 X43.492 Y127.091 E1.68057 ; infill
G1 X43.492 Y126.557 E0.01679 ; infill
G1 X81.853 Y164.918 E1.70430 ; infill
G1 X82.387 Y164.918 E0.01679 ; infill
G1 X43.492 Y126.023 E1.72804 ; infill
G1 X43.492 Y125.488 E0.01679 ; infill
G1 X82.922 Y164.918 E1.75178 ; infill
G1 X83.456 Y164.918 E0.01679 ; infill
G1 X43.492 Y124.954 E1.77552 ; infill
G1 X43.492 Y124.420 E0.01679 ; infill
G1 X83.990 Y164.918 E1.79926 ; infill
G1 X84.525 Y164.918 E0.01679 ; infill
G1 X43.492 Y123.885 E1.82300 ; infill
G1 X43.492 Y123.351 E0.01679 ; infill
G1 X85.059 Y164.918 E1.84674 ; infill
G1 X85.593 Y164.918 E0.01679 ; infill
G1 X43.492 Y122.817 E1.87048 ; infill
G1 X43.492 Y122.282 E0.01679 ; infill
G1 X86.128 Y164.918 E1.89421 ; infill
G1 X86.662 Y164.918 E0.01679 ; infill
G1 X43.492 Y121.748 E1.91795 ; infill
G1 X43.492 Y121.214 E0.01679 ; infill
G1 X87.196 Y164.918 E1.94169 ; infill
G1 X87.730 Y164.918 E0.01679 ; infill
G1 X43.492 Y120.680 E1.96543 ; infill
G1 X43.492 Y120.145 E0.01679 ; infill
G1 X88.265 Y164.918 E1.98917 ; infill
G1 X88.799 Y164.918 E0.01679 ; infill
G1 X43.492 Y119.611 E2.01291 ; infill
G1 X43.492 Y119.077 E0.01679 ; infill
G1 X89.333 Y164.918 E2.03665 ; infill
G1 X89.868 Y164.918 E0.01679 ; infill
G1 X43.492 Y118.542 E2.06039 ; infill
G1 X43.492 Y118.008 E0.01679 ; infill
G1 X90.402 Y164.918 E2.08412 ; infill
G1 X90.936 Y164.918 E0.01679 ; infill
G1 X43.492 Y117.474 E2.10786 ; infill
G1 X43.492 Y116.939 E0.01679 ; infill
G1 X91.471 Y164.918 E2.13160 ; infill
G1 X92.005 Y164.918 E0.01679 ; infill
G1 X43.492 Y116.405 E2.15534 ; infill
G1 X43.492 Y115.871 E0.01679 ; infill
G1 X92.539 Y164.918 E2.17908 ; infill
G1 X93.074 Y164.918 E0.01679 ; infill
G1 X43.492 Y115.336 E2.20282 ; infill
G1 X43.492 Y114.802 E0.01679 ; infill
G1 X93.608 Y164.918 E2.22656 ; infill
G1 X94.142 Y164.918 E0.01679 ; infill
G1 X43.492 Y114.268 E2.25030 ; infill
G1 X43.492 Y113.733 E0.01679 ; infill
G1 X94.677 Y164.918 E2.27403 ; infill
G1 X95.211 Y164.918 E0.01679 ; infill
G1 X43.492 Y113.199 E2.29777 ; infill
G1 X43.492 Y112.665 E0.01679 ; infill
G1 X95.745 Y164.918 E2.32151 ; infill
G1 X96.279 Y164.918 E0.01679 ; infill
G1 X43.492 Y112.130 E2.34525 ; infill
G1 X43.492 Y111.596 E0.01679 ; infill
G1 X96.814 Y164.918 E2.36899 ; infill
G1 X97.348 Y164.918 E0.01679 ; infill
G1 X43.492 Y111.062 E2.39273 ; infill
G1 X43.492 Y110.528 E0.01679 ; infill
G1 X97.882 Y164.918 E2.41647 ; infill
G1 X98.417 Y164.918 E0.01679 ; infill
G1 X43.492 Y109.993 E2.44020 ; infill
G1 X43.492 Y109.459 E0.01679 ; infill
G1 X98.951 Y164.918 E2.46394 ; infill
G1 X99.485 Y164.918 E0.01679 ; infill
G1 X43.492 Y108.925 E2.48768 ; infill
G1 X43.492 Y108.390 E0.01679 ; infill
G1 X100.020 Y164.918 E2.51142 ; infill
G1 X100.554 Y164.918 E0.01679 ; infill
G1 X43.492 Y107.856 E2.53516 ; infill
G1 X43.492 Y107.322 E0.01679 ; infill
G1 X101.088 Y164.918 E2.55890 ; infill
G1 X101.623 Y164.918 E0.01679 ; infill
G1 X43.492 Y106.787 E2.58264 ; infill
G1 X43.492 Y106.253 E0.01679 ; infill
G1 X102.157 Y164.918 E2.60638 ; infill
G1 X102.691 Y164.918 E0.01679 ; infill
G1 X43.492 Y105.719 E2.63011 ; infill
G1 X43.492 Y105.184 E0.01679 ; infill
G1 X103.226 Y164.918 E2.65385 ; infill
G1 X103.760 Y164.918 E0.01679 ; infill
G1 X43.492 Y104.650 E2.67759 ; infill
G1 X43.492 Y104.116 E0.01679 ; infill
G1 X104.294 Y164.918 E2.70133 ; infill
G1 X104.828 Y164.918 E0.01679 ; infill
G1 X43.492 Y103.581 E2.72507 ; infill
G1 X43.492 Y103.047 E0.01679 ; infill
G1 X105.363 Y164.918 E2.74881 ; infill
G1 X105.897 Y164.918 E0.01679 ; infill
G1 X43.637 Y102.657 E2.76612 ; infill
G1 X44.171 Y102.657 E0.01679 ; infill
G1 X106.431 Y164.918 E2.76612 ; infill
G1 X106.966 Y164.918 E0.01679 ; infill
G1 X44.705 Y102.657 E2.76612 ; infill
G1 X45.240 Y102.657 E0.01679 ; infill
G1 X107.500 Y164.918 E2.76612 ; infill
G1 X108.034 Y164.918 E0.01679 ; infill
G1 X45.774 Y102.657 E2.76612 ; infill
G1 X46.308 Y102.657 E0.01679 ; infill
G1 X108.569 Y164.918 E2.76612 ; infill
G1 X109.103 Y164.918 E0.01679 ; infill
G1 X46.843 Y102.657 E2.76612 ; infill
G1 X47.377 Y102.657 E0.01679 ; infill
G1 X109.637 Y164.918 E2.76612 ; infill
G1 X110.172 Y164.918 E0.01679 ; infill
G1 X47.911 Y102.657 E2.76612 ; infill
G1 X48.446 Y102.657 E0.01679 ; infill
G1 X110.706 Y164.918 E2.76612 ; infill
G1 X111.240 Y164.918 E0.01679 ; infill
G1 X48.980 Y102.657 E2.76612 ; infill
G1 X49.514 Y102.657 E0.01679 ; infill
G1 X111.775 Y164.918 E2.76612 ; infill
G1 X112.309 Y164.918 E0.01679 ; infill
G1 X50.049 Y102.657 E2.76612 ; infill
G1 X50.583 Y102.657 E0.01679 ; infill
G1 X112.843 Y164.918 E2.76612 ; infill
G1 X113.378 Y164.918 E0.01679 ; infill
G1 X51.117 Y102.657 E2.76612 ; infill
G1 X51.652 Y102.657 E0.01679 ; infill
G1 X113.912 Y164.918 E2.76612 ; infill
G1 X114.446 Y164.918 E0.01679 ; infill
G1 X52.186 Y102.657 E2.76612 ; infill
G1 X52.720 Y102.657 E0.01679 ; infill
G1 X114.980 Y164.918 E2.76612 ; infill
G1 X115.515 Y164.918 E0.01679 ; infill
G1 X53.255 Y102.657 E2.76612 ; infill
G1 X53.789 Y102.657 E0.01679 ; infill
G1 X116.049 Y164.918 E2.76612 ; infill
G1 X116.583 Y164.918 E0.01679 ; infill
G1 X54.323 Y102.657 E2.76612 ; infill
G1 X54.857 Y102.657 E0.01679 ; infill
G1 X117.118 Y164.918 E2.76612 ; infill
G1 X117.652 Y164.918 E0.01679 ; infill
G1 X55.392 Y102.657 E2.76612 ; infill
G1 X55.926 Y102.657 E0.01679 ; infill
G1 X118.186 Y164.918 E2.76612 ; infill
G1 X118.721 Y164.918 E0.01679 ; infill
G1 X56.460 Y102.657 E2.76612 ; infill
G1 X56.995 Y102.657 E0.01679 ; infill
G1 X119.255 Y164.918 E2.76612 ; infill
G1 X119.789 Y164.918 E0.01679 ; infill
G1 X57.529 Y102.657 E2.76612 ; infill
G1 X58.063 Y102.657 E0.01679 ; infill
G1 X120.324 Y164.918 E2.76612 ; infill
G1 X120.858 Y164.918 E0.01679 ; infill
G1 X58.598 Y102.657 E2.76612 ; infill
G1 X59.132 Y102.657 E0.01679 ; infill
G1 X121.392 Y164.918 E2.76612 ; infill
G1 X121.927 Y164.918 E0.01679 ; infill
G1 X59.666 Y102.657 E2.76612 ; infill
G1 X60.201 Y102.657 E0.01679 ; infill
G1 X122.461 Y164.918 E2.76612 ; infill
G1 X122.995 Y164.918 E0.01679 ; infill
G1 X60.735 Y102.657 E2.76612 ; infill
G1 X61.269 Y102.657 E0.01679 ; infill
G1 X123.529 Y164.918 E2.76612 ; infill
G1 X124.064 Y164.918 E0.01679 ; infill
G1 X61.804 Y102.657 E2.76612 ; infill
G1 X62.338 Y102.657 E0.01679 ; infill
G1 X124.598 Y164.918 E2.76612 ; infill
G1 X125.132 Y164.918 E0.01679 ; infill
G1 X62.872 Y102.657 E2.76612 ; infill
G1 X63.406 Y102.657 E0.01679 ; infill
G1 X125.667 Y164.918 E2.76612 ; infill
G1 X126.201 Y164.918 E0.01679 ; infill
G1 X63.941 Y102.657 E2.76612 ; infill
G1 X64.475 Y102.657 E0.01679 ; infill
G1 X126.735 Y164.918 E2.76612 ; infill
G1 X127.270 Y164.918 E0.01679 ; infill
G1 X65.009 Y102.657 E2.76612 ; infill
G1 X65.544 Y102.657 E0.01679 ; infill
G1 X127.804 Y164.918 E2.76612 ; infill
G1 X128.338 Y164.918 E0.01679 ; infill
G1 X66.078 Y102.657 E2.76612 ; infill
G1 X66.612 Y102.657 E0.01679 ; infill
G1 X128.873 Y164.918 E2.76612 ; infill
G1 X129.407 Y164.918 E0.01679 ; infill
G1 X67.147 Y102.657 E2.76612 ; infill
G1 X67.681 Y102.657 E0.01679 ; infill
G1 X129.941 Y164.918 E2.76612 ; infill
G1 X130.476 Y164.918 E0.01679 ; infill
G1 X68.215 Y102.657 E2.76612 ; infill
G1 X68.750 Y102.657 E0.01679 ; infill
G1 X131.010 Y164.918 E2.76612 ; infill
G1 X131.544 Y164.918 E0.01679 ; infill
G1 X69.284 Y102.657 E2.76612 ; infill
G1 X69.818 Y102.657 E0.01679 ; infill
G1 X132.079 Y164.918 E2.76612 ; infill
G1 X132.613 Y164.918 E0.01679 ; infill
G1 X70.353 Y102.657 E2.76612 ; infill
G1 X70.887 Y102.657 E0.01679 ; infill
