; generated by Slic3r 1.37.2.1-prusa3d on 2018-10-21 at 15:47:36

; 

; external perimeters extrusion width = 0.45mm
; perimeters extrusion width = 0.45mm
; infill extrusion width = 0.45mm
; solid infill extrusion width = 0.45mm
; top infill extrusion width = 0.40mm
; first layer extrusion width = 0.42mm

M107 ; disable fan
M115 U3.4.0 ; tell printer latest fw version
M83  ; extruder relative mode
M104 S215 ; set extruder temp
M140 S60 ; set bed temp
M190 S60 ; wait for bed temp
M109 S215 ; wait for extruder temp
G28 W ; home all without mesh bed level
G80 ; mesh bed leveling
G1 Y-3.0 F1000.0 ; go outside print area
G92 E0.0
G1 X60.0 E9.0  F1000.0 ; intro line
G1 X100.0 E12.5  F1000.0 ; intro line
G92 E0.0
M221 S95
M900 K30
G21 ; set units to millimeters
G90 ; use absolute coordinates
M83 ; use relative distances for extrusion
;BEFORE_LAYER_CHANGE
G92 E0.0
;0.2


G1 E-0.80000 F2100.00000 ; retract
G1 Z0.600 F10800.000 ; lift Z
;AFTER_LAYER_CHANGE
;0.2
G1 X84.190 Y41.532 F10800.000 ; move to first skirt point
G1 Z0.200 F10800.000 ; restore layer Z
G1 E0.80000 F2100.00000 ; unretract
M204 S1000 ; adjust acceleration
G1 F1200
G1 X84.492 Y40.920 E0.02140 ; skirt
G1 X84.866 Y40.500 E0.01763 ; skirt
G1 X85.328 Y40.180 E0.01763 ; skirt
G1 X85.853 Y39.977 E0.01763 ; skirt
G1 X86.411 Y39.903 E0.01763 ; skirt
G1 X167.196 Y39.903 E2.53297 ; skirt
G1 X168.080 Y40.075 E0.02825 ; skirt
G1 X168.837 Y40.564 E0.02825 ; skirt
G1 X169.358 Y41.300 E0.02825 ; skirt
G1 X169.567 Y42.180 E0.02837 ; skirt
G1 X169.569 Y97.045 E1.72026 ; skirt
G1 X167.070 Y151.521 E1.70984 ; skirt
G1 X166.913 Y152.492 E0.03086 ; skirt
G1 X166.446 Y153.499 E0.03479 ; skirt
G1 X165.886 Y154.181 E0.02769 ; skirt
G1 X165.094 Y154.769 E0.03091 ; skirt
G1 X164.199 Y155.134 E0.03031 ; skirt
G1 X163.236 Y155.265 E0.03048 ; skirt
G1 X89.178 Y155.266 E2.32203 ; skirt
G1 X88.126 Y155.115 E0.03331 ; skirt
G1 X87.087 Y154.638 E0.03586 ; skirt
G1 X86.409 Y154.083 E0.02746 ; skirt
G1 X85.829 Y153.310 E0.03031 ; skirt
G1 X85.461 Y152.424 E0.03007 ; skirt
G1 X85.324 Y151.519 E0.02871 ; skirt
G1 X84.066 Y97.085 E1.70720 ; skirt
G1 X84.065 Y42.261 E1.71897 ; skirt
G1 X84.172 Y41.589 E0.02134 ; skirt
G1 F8640
G1 X84.492 Y40.920 E-0.17114 ; wipe and retract
G1 F8640
G1 X84.866 Y40.500 E-0.12986 ; wipe and retract
G1 F8640
G1 X85.328 Y40.180 E-0.12986 ; wipe and retract
G1 F8640
G1 X85.853 Y39.977 E-0.12986 ; wipe and retract
G1 F8640
G1 X86.411 Y39.903 E-0.12986 ; wipe and retract
G1 F8640
G1 X86.711 Y39.903 E-0.06941 ; wipe and retract
G1 E-0.04000 F2100.00000 ; retract
G1 Z0.800 F10800.000 ; lift Z
G1 X103.769 Y57.142 F10800.000 ; move to first perimeter point
G1 Z0.200 F10800.000 ; restore layer Z
G1 E0.80000 F2100.00000 ; unretract
G1 F1200
G1 X104.815 Y55.961 E0.04946 ; perimeter
G1 X105.953 Y54.868 E0.04946 ; perimeter
G1 X107.175 Y53.871 E0.04946 ; perimeter
G1 X108.473 Y52.975 E0.04946 ; perimeter
G1 X109.839 Y52.186 E0.04946 ; perimeter
G1 X111.264 Y51.510 E0.04946 ; perimeter
G1 X112.739 Y50.950 E0.04946 ; perimeter
G1 X114.254 Y50.511 E0.04946 ; perimeter
G1 X115.800 Y50.196 E0.04946 ; perimeter
G1 X117.366 Y50.006 E0.04946 ; perimeter
G1 X118.930 Y49.943 E0.04909 ; perimeter
G1 X134.704 Y49.943 E0.49457 ; perimeter
G1 X136.268 Y50.006 E0.04909 ; perimeter
G1 X137.834 Y50.196 E0.04946 ; perimeter
G1 X139.380 Y50.511 E0.04946 ; perimeter
G1 X140.895 Y50.950 E0.04946 ; perimeter
G1 X142.370 Y51.510 E0.04946 ; perimeter
G1 X143.795 Y52.186 E0.04946 ; perimeter
G1 X145.161 Y52.975 E0.04946 ; perimeter
G1 X146.459 Y53.871 E0.04946 ; perimeter
G1 X147.681 Y54.868 E0.04946 ; perimeter
G1 X148.819 Y55.961 E0.04946 ; perimeter
G1 X149.865 Y57.142 E0.04946 ; perimeter
G1 X150.812 Y58.403 E0.04946 ; perimeter
G1 X151.655 Y59.736 E0.04946 ; perimeter
G1 X152.340 Y61.041 E0.04621 ; perimeter
G1 X153.006 Y62.583 E0.05265 ; perimeter
G1 X153.506 Y64.080 E0.04951 ; perimeter
G1 X153.884 Y65.612 E0.04946 ; perimeter
G1 X154.137 Y67.169 E0.04946 ; perimeter
G1 X154.264 Y68.741 E0.04946 ; perimeter
G1 X154.264 Y70.319 E0.04946 ; perimeter
G1 X154.137 Y71.891 E0.04946 ; perimeter
G1 X153.884 Y73.448 E0.04946 ; perimeter
G1 X153.506 Y74.979 E0.04946 ; perimeter
G1 X153.007 Y76.476 E0.04946 ; perimeter
G1 X152.388 Y77.927 E0.04946 ; perimeter
G1 X151.655 Y79.324 E0.04946 ; perimeter
G1 X150.812 Y80.657 E0.04946 ; perimeter
G1 X149.927 Y81.835 E0.04621 ; perimeter
G1 X148.820 Y83.098 E0.05265 ; perimeter
G1 X147.681 Y84.191 E0.04951 ; perimeter
G1 X146.459 Y85.189 E0.04946 ; perimeter
G1 X145.161 Y86.085 E0.04946 ; perimeter
G1 X143.795 Y86.874 E0.04946 ; perimeter
G1 X142.370 Y87.550 E0.04946 ; perimeter
G1 X140.895 Y88.109 E0.04946 ; perimeter
G1 X139.380 Y88.548 E0.04946 ; perimeter
G1 X137.834 Y88.864 E0.04946 ; perimeter
G1 X136.268 Y89.054 E0.04946 ; perimeter
G1 X134.704 Y89.117 E0.04909 ; perimeter
G1 X118.930 Y89.117 E0.49457 ; perimeter
G1 X117.366 Y89.054 E0.04909 ; perimeter
G1 X115.800 Y88.864 E0.04946 ; perimeter
G1 X114.254 Y88.548 E0.04946 ; perimeter
G1 X112.739 Y88.109 E0.04946 ; perimeter
G1 X111.264 Y87.550 E0.04946 ; perimeter
G1 X109.839 Y86.874 E0.04946 ; perimeter
G1 X108.473 Y86.085 E0.04946 ; perimeter
G1 X107.175 Y85.189 E0.04946 ; perimeter
G1 X105.953 Y84.191 E0.04946 ; perimeter
G1 X104.815 Y83.099 E0.04946 ; perimeter
G1 X103.769 Y81.918 E0.04946 ; perimeter
G1 X102.822 Y80.657 E0.04946 ; perimeter
G1 X101.979 Y79.324 E0.04946 ; perimeter
G1 X101.246 Y77.927 E0.04946 ; perimeter
G1 X100.627 Y76.476 E0.04946 ; perimeter
G1 X100.128 Y74.979 E0.04946 ; perimeter
G1 X99.750 Y73.448 E0.04946 ; perimeter
G1 X99.497 Y71.891 E0.04946 ; perimeter
G1 X99.370 Y70.319 E0.04946 ; perimeter
G1 X99.370 Y68.741 E0.04946 ; perimeter
G1 X99.497 Y67.169 E0.04946 ; perimeter
G1 X99.750 Y65.612 E0.04946 ; perimeter
G1 X100.128 Y64.080 E0.04946 ; perimeter
G1 X100.627 Y62.584 E0.04946 ; perimeter
G1 X101.246 Y61.133 E0.04946 ; perimeter
G1 X101.979 Y59.736 E0.04946 ; perimeter
G1 X102.822 Y58.403 E0.04946 ; perimeter
G1 X103.733 Y57.190 E0.04758 ; perimeter
G1 X104.035 Y57.416 F10800.000 ; move to first perimeter point
G1 F1200
G1 X105.088 Y56.222 E0.04991 ; perimeter
G1 X106.203 Y55.151 E0.04851 ; perimeter
G1 X107.402 Y54.172 E0.04851 ; perimeter
G1 X108.675 Y53.294 E0.04851 ; perimeter
G1 X110.015 Y52.520 E0.04851 ; perimeter
G1 X111.412 Y51.857 E0.04851 ; perimeter
G1 X112.859 Y51.308 E0.04851 ; perimeter
G1 X114.345 Y50.878 E0.04851 ; perimeter
G1 X115.861 Y50.568 E0.04851 ; perimeter
G1 X117.396 Y50.382 E0.04851 ; perimeter
G1 X118.938 Y50.320 E0.04837 ; perimeter
G1 X134.696 Y50.320 E0.49410 ; perimeter
G1 X136.238 Y50.382 E0.04837 ; perimeter
G1 X137.774 Y50.568 E0.04851 ; perimeter
G1 X139.289 Y50.878 E0.04851 ; perimeter
G1 X140.775 Y51.308 E0.04851 ; perimeter
G1 X142.222 Y51.857 E0.04851 ; perimeter
G1 X143.619 Y52.520 E0.04851 ; perimeter
G1 X144.959 Y53.294 E0.04851 ; perimeter
G1 X146.232 Y54.172 E0.04851 ; perimeter
G1 X147.431 Y55.151 E0.04851 ; perimeter
G1 X148.547 Y56.222 E0.04851 ; perimeter
G1 X149.572 Y57.380 E0.04851 ; perimeter
G1 X150.502 Y58.617 E0.04851 ; perimeter
G1 X151.329 Y59.925 E0.04851 ; perimeter
G1 X152.000 Y61.204 E0.04529 ; perimeter
G1 X152.654 Y62.717 E0.05169 ; perimeter
G1 X153.144 Y64.185 E0.04852 ; perimeter
G1 X153.514 Y65.687 E0.04851 ; perimeter
G1 X153.762 Y67.214 E0.04851 ; perimeter
G1 X153.887 Y68.756 E0.04851 ; perimeter
G1 X153.887 Y70.303 E0.04851 ; perimeter
G1 X153.762 Y71.845 E0.04851 ; perimeter
G1 X153.514 Y73.372 E0.04851 ; perimeter
G1 X153.144 Y74.874 E0.04851 ; perimeter
G1 X152.654 Y76.342 E0.04851 ; perimeter
G1 X152.048 Y77.765 E0.04851 ; perimeter
G1 X151.329 Y79.135 E0.04851 ; perimeter
G1 X150.502 Y80.442 E0.04851 ; perimeter
G1 X149.634 Y81.597 E0.04529 ; perimeter
G1 X148.547 Y82.837 E0.05169 ; perimeter
G1 X147.431 Y83.909 E0.04852 ; perimeter
G1 X146.232 Y84.887 E0.04851 ; perimeter
G1 X144.959 Y85.766 E0.04851 ; perimeter
G1 X143.619 Y86.540 E0.04851 ; perimeter
G1 X142.222 Y87.203 E0.04851 ; perimeter
G1 X140.775 Y87.751 E0.04851 ; perimeter
G1 X139.289 Y88.182 E0.04851 ; perimeter
G1 X137.774 Y88.491 E0.04851 ; perimeter
G1 X136.238 Y88.678 E0.04851 ; perimeter
G1 X134.696 Y88.740 E0.04837 ; perimeter
G1 X118.938 Y88.740 E0.49410 ; perimeter
G1 X117.396 Y88.678 E0.04837 ; perimeter
G1 X115.861 Y88.491 E0.04851 ; perimeter
G1 X114.345 Y88.182 E0.04851 ; perimeter
G1 X112.859 Y87.751 E0.04851 ; perimeter
G1 X111.412 Y87.203 E0.04851 ; perimeter
G1 X110.015 Y86.540 E0.04851 ; perimeter
G1 X108.675 Y85.766 E0.04851 ; perimeter
G1 X107.402 Y84.887 E0.04851 ; perimeter
G1 X106.203 Y83.909 E0.04851 ; perimeter
G1 X105.088 Y82.837 E0.04851 ; perimeter
G1 X104.062 Y81.679 E0.04851 ; perimeter
G1 X103.132 Y80.442 E0.04851 ; perimeter
G1 X102.306 Y79.135 E0.04851 ; perimeter
G1 X101.587 Y77.765 E0.04851 ; perimeter
G1 X100.980 Y76.342 E0.04851 ; perimeter
G1 X100.490 Y74.874 E0.04851 ; perimeter
G1 X100.120 Y73.372 E0.04851 ; perimeter
G1 X99.872 Y71.845 E0.04851 ; perimeter
G1 X99.747 Y70.303 E0.04851 ; perimeter
G1 X99.747 Y68.756 E0.04851 ; perimeter
G1 X99.872 Y67.214 E0.04851 ; perimeter
G1 X100.120 Y65.687 E0.04851 ; perimeter
G1 X100.490 Y64.185 E0.04851 ; perimeter
G1 X100.980 Y62.718 E0.04851 ; perimeter
G1 X101.587 Y61.295 E0.04851 ; perimeter
G1 X102.306 Y59.925 E0.04851 ; perimeter
G1 X103.132 Y58.617 E0.04851 ; perimeter
G1 X103.999 Y57.464 E0.04522 ; perimeter
G1 X103.892 Y57.042 F10800.000 ; move inwards before travel
G1 F8640
G1 X105.088 Y56.222 E-0.38134 ; wipe and retract
G1 F8640
G1 X106.203 Y55.151 E-0.35722 ; wipe and retract
G1 F8640
G1 X106.275 Y55.092 E-0.02145 ; wipe and retract
G1 E-0.04000 F2100.00000 ; retract
G1 Z0.800 F10800.000 ; lift Z
G1 X87.029 Y42.867 F10800.000 ; move to first perimeter point
G1 Z0.200 F10800.000 ; restore layer Z
G1 E0.80000 F2100.00000 ; unretract
G1 F1200
G1 X166.605 Y42.867 E2.49504 ; perimeter
G1 X166.605 Y96.443 E1.67983 ; perimeter
G1 X87.029 Y96.443 E2.49504 ; perimeter
G1 X87.029 Y42.927 E1.67795 ; perimeter
G1 X86.652 Y42.490 F10800.000 ; move to first perimeter point
G1 F1200
G1 X166.982 Y42.490 E2.51869 ; perimeter
G1 X166.982 Y96.820 E1.70348 ; perimeter
G1 X86.652 Y96.820 E2.51869 ; perimeter
G1 X86.652 Y42.550 E1.70160 ; perimeter
G1 X87.044 Y42.569 F10800.000 ; move inwards before travel
G1 F8640
G1 X89.943 Y42.547 E-0.76000 ; wipe and retract
G1 E-0.04000 F2100.00000 ; retract
G1 Z0.800 F10800.000 ; lift Z
G1 X101.738 Y79.108 F10800.000 ; move to first infill point
G1 Z0.200 F10800.000 ; restore layer Z
G1 E0.80000 F2100.00000 ; unretract
G1 F1200
G1 X87.312 Y64.682 E0.64219 ; infill
G1 X87.312 Y64.146 E0.01685 ; infill
G1 X100.824 Y77.658 E0.60152 ; infill
G1 X100.427 Y76.726 E0.03192 ; infill
G1 X87.312 Y63.611 E0.58382 ; infill
G1 X87.312 Y63.076 E0.01685 ; infill
G1 X100.137 Y75.901 E0.57096 ; infill
G1 X99.869 Y75.098 E0.02667 ; infill
G1 X87.312 Y62.540 E0.55901 ; infill
G1 X87.312 Y62.005 E0.01685 ; infill
G1 X99.689 Y74.382 E0.55101 ; infill
G1 X99.514 Y73.672 E0.02304 ; infill
G1 X87.312 Y61.470 E0.54322 ; infill
G1 X87.312 Y60.934 E0.01685 ; infill
G1 X99.394 Y73.016 E0.53784 ; infill
G1 X99.290 Y72.377 E0.02039 ; infill
G1 X87.312 Y60.399 E0.53322 ; infill
G1 X87.312 Y59.863 E0.01685 ; infill
G1 X99.203 Y71.754 E0.52934 ; infill
G1 X99.156 Y71.172 E0.01839 ; infill
G1 X87.312 Y59.328 E0.52724 ; infill
G1 X87.312 Y58.793 E0.01685 ; infill
G1 X99.109 Y70.589 E0.52515 ; infill
G1 X99.088 Y70.033 E0.01752 ; infill
G1 X87.312 Y58.257 E0.52422 ; infill
G1 X87.312 Y57.722 E0.01685 ; infill
G1 X99.088 Y69.498 E0.52422 ; infill
G1 X99.088 Y68.962 E0.01685 ; infill
G1 X87.312 Y57.186 E0.52422 ; infill
G1 X87.312 Y56.651 E0.01685 ; infill
G1 X99.110 Y68.449 E0.52523 ; infill
G1 X99.150 Y67.954 E0.01564 ; infill
G1 X87.312 Y56.116 E0.52701 ; infill
G1 X87.312 Y55.580 E0.01685 ; infill
G1 X99.190 Y67.459 E0.52879 ; infill
G1 X99.242 Y66.975 E0.01530 ; infill
G1 X87.312 Y55.045 E0.53110 ; infill
G1 X87.312 Y54.510 E0.01685 ; infill
G1 X99.317 Y66.515 E0.53444 ; infill
G1 X99.392 Y66.054 E0.01469 ; infill
G1 X87.312 Y53.974 E0.53777 ; infill
G1 X87.312 Y53.439 E0.01685 ; infill
G1 X99.467 Y65.594 E0.54110 ; infill
G1 X99.570 Y65.162 E0.01399 ; infill
G1 X87.312 Y52.903 E0.54570 ; infill
G1 X87.312 Y52.368 E0.01685 ; infill
G1 X99.676 Y64.732 E0.55041 ; infill
G1 X99.782 Y64.303 E0.01393 ; infill
G1 X87.312 Y51.833 E0.55512 ; infill
G1 X87.312 Y51.297 E0.01685 ; infill
G1 X99.896 Y63.881 E0.56021 ; infill
G1 X100.030 Y63.480 E0.01332 ; infill
G1 X87.312 Y50.762 E0.56618 ; infill
G1 X87.312 Y50.227 E0.01685 ; infill
G1 X100.164 Y63.079 E0.57214 ; infill
G1 X100.298 Y62.677 E0.01332 ; infill
G1 X87.312 Y49.691 E0.57811 ; infill
G1 X87.312 Y49.156 E0.01685 ; infill
G1 X100.446 Y62.289 E0.58467 ; infill
G1 X100.605 Y61.914 E0.01285 ; infill
G1 X87.312 Y48.620 E0.59179 ; infill
G1 X87.312 Y48.085 E0.01685 ; infill
G1 X100.765 Y61.539 E0.59891 ; infill
G1 X100.925 Y61.163 E0.01285 ; infill
G1 X87.312 Y47.550 E0.60603 ; infill
G1 X87.312 Y47.014 E0.01685 ; infill
G1 X101.100 Y60.802 E0.61380 ; infill
G1 X101.284 Y60.451 E0.01248 ; infill
G1 X87.312 Y46.479 E0.62200 ; infill
G1 X87.312 Y45.943 E0.01685 ; infill
G1 X101.468 Y60.100 E0.63021 ; infill
G1 X101.653 Y59.749 E0.01248 ; infill
G1 X87.312 Y45.408 E0.63841 ; infill
G1 X87.312 Y44.873 E0.01685 ; infill
G1 X101.850 Y59.411 E0.64719 ; infill
G1 X102.057 Y59.083 E0.01222 ; infill
G1 X87.312 Y44.337 E0.65642 ; infill
G1 X87.312 Y43.802 E0.01685 ; infill
G1 X102.265 Y58.755 E0.66566 ; infill
G1 X102.472 Y58.427 E0.01222 ; infill
G1 X87.312 Y43.267 E0.67489 ; infill
G1 X87.312 Y43.150 E0.00368 ; infill
G1 X87.730 Y43.150 E0.01317 ; infill
G1 X102.689 Y58.109 E0.66592 ; infill
G1 X102.919 Y57.803 E0.01204 ; infill
G1 X88.266 Y43.150 E0.65232 ; infill
G1 X88.801 Y43.150 E0.01685 ; infill
G1 X103.149 Y57.497 E0.63871 ; infill
G1 X103.378 Y57.191 E0.01204 ; infill
G1 X89.337 Y43.150 E0.62510 ; infill
G1 X89.872 Y43.150 E0.01685 ; infill
G1 X103.614 Y56.891 E0.61174 ; infill
G1 X103.865 Y56.607 E0.01194 ; infill
G1 X90.407 Y43.150 E0.59910 ; infill
G1 X90.943 Y43.150 E0.01685 ; infill
G1 X104.117 Y56.324 E0.58646 ; infill
G1 X104.368 Y56.040 E0.01194 ; infill
G1 X91.478 Y43.150 E0.57382 ; infill
G1 X92.013 Y43.150 E0.01685 ; infill
G1 X104.620 Y55.756 E0.56122 ; infill
G1 X104.893 Y55.494 E0.01192 ; infill
G1 X92.549 Y43.150 E0.54954 ; infill
G1 X93.084 Y43.150 E0.01685 ; infill
G1 X105.166 Y55.232 E0.53786 ; infill
G1 X105.439 Y54.970 E0.01192 ; infill
G1 X93.620 Y43.150 E0.52619 ; infill
G1 X94.155 Y43.150 E0.01685 ; infill
G1 X105.713 Y54.707 E0.51451 ; infill
G1 X106.003 Y54.462 E0.01196 ; infill
G1 X94.690 Y43.150 E0.50361 ; infill
G1 X95.226 Y43.150 E0.01685 ; infill
G1 X106.298 Y54.222 E0.49290 ; infill
G1 X106.593 Y53.981 E0.01198 ; infill
G1 X95.761 Y43.150 E0.48219 ; infill
G1 X96.297 Y43.150 E0.01685 ; infill
G1 X106.887 Y53.740 E0.47147 ; infill
G1 X107.195 Y53.513 E0.01205 ; infill
G1 X96.832 Y43.150 E0.46135 ; infill
G1 X97.367 Y43.150 E0.01685 ; infill
G1 X107.512 Y53.294 E0.45162 ; infill
G1 X107.829 Y53.076 E0.01212 ; infill
G1 X97.903 Y43.150 E0.44188 ; infill
G1 X98.438 Y43.150 E0.01685 ; infill
G1 X108.146 Y52.857 E0.43215 ; infill
G1 X108.472 Y52.649 E0.01220 ; infill
G1 X98.973 Y43.150 E0.42286 ; infill
G1 X99.509 Y43.150 E0.01685 ; infill
G1 X108.812 Y52.453 E0.41414 ; infill
G1 X109.151 Y52.257 E0.01234 ; infill
G1 X100.044 Y43.150 E0.40542 ; infill
G1 X100.580 Y43.150 E0.01685 ; infill
G1 X109.491 Y52.061 E0.39669 ; infill
G1 X109.839 Y51.873 E0.01244 ; infill
G1 X101.115 Y43.150 E0.38835 ; infill
G1 X101.650 Y43.150 E0.01685 ; infill
G1 X110.202 Y51.701 E0.38068 ; infill
G1 X110.565 Y51.529 E0.01265 ; infill
G1 X102.186 Y43.150 E0.37301 ; infill
G1 X102.721 Y43.150 E0.01685 ; infill
G1 X110.928 Y51.356 E0.36534 ; infill
G1 X111.300 Y51.194 E0.01280 ; infill
G1 X103.256 Y43.150 E0.35809 ; infill
G1 X103.792 Y43.150 E0.01685 ; infill
G1 X111.689 Y51.046 E0.35154 ; infill
G1 X112.077 Y50.899 E0.01307 ; infill
G1 X104.327 Y43.150 E0.34498 ; infill
