; generated by Slic3r 1.37.2.1-prusa3d on 2018-10-21 at 15:46:47

; 

; external perimeters extrusion width = 0.45mm
; perimeters extrusion width = 0.45mm
; infill extrusion width = 0.45mm
; solid infill extrusion width = 0.45mm
; top infill extrusion width = 0.40mm
; first layer extrusion width = 0.42mm

M107 ; disable fan
M115 U3.4.0 ; tell printer latest fw version
M83  ; extruder relative mode
M104 S215 ; set extruder temp
M140 S60 ; set bed temp
M190 S60 ; wait for bed temp
M109 S215 ; wait for extruder temp
G28 W ; home all without mesh bed level
G80 ; mesh bed leveling
G1 Y-3.0 F1000.0 ; go outside print area
G92 E0.0
G1 X60.0 E9.0  F1000.0 ; intro line
G1 X100.0 E12.5  F1000.0 ; intro line
G92 E0.0
M221 S95
M900 K30
G21 ; set units to millimeters
G90 ; use absolute coordinates
M83 ; use relative distances for extrusion
;BEFORE_LAYER_CHANGE
G92 E0.0
;0.2


G1 E-0.80000 F2100.00000 ; retract
G1 Z0.600 F10800.000 ; lift Z
;AFTER_LAYER_CHANGE
;0.2
G1 X49.062 Y26.066 F10800.000 ; move to first skirt point
G1 Z0.200 F10800.000 ; restore layer Z
G1 E0.80000 F2100.00000 ; unretract
M204 S1000 ; adjust acceleration
G1 F1200
G1 X49.987 Y25.873 E0.02966 ; skirt
G1 X200.004 Y25.873 E4.70366 ; skirt
G1 X200.906 Y26.052 E0.02884 ; skirt
G1 X201.672 Y26.561 E0.02884 ; skirt
G1 X202.188 Y27.322 E0.02884 ; skirt
G1 X202.377 Y28.226 E0.02896 ; skirt
G1 X202.377 Y181.761 E4.81399 ; skirt
G1 X202.203 Y182.642 E0.02813 ; skirt
G1 X201.713 Y183.398 E0.02825 ; skirt
G1 X200.931 Y183.937 E0.02977 ; skirt
G1 X200.000 Y184.127 E0.02981 ; skirt
G1 X49.989 Y184.127 E4.70350 ; skirt
G1 X49.108 Y183.953 E0.02813 ; skirt
G1 X48.352 Y183.463 E0.02825 ; skirt
G1 X47.813 Y182.681 E0.02977 ; skirt
G1 X47.623 Y181.750 E0.02981 ; skirt
G1 X47.623 Y28.239 E4.81324 ; skirt
G1 X47.797 Y27.358 E0.02813 ; skirt
G1 X48.287 Y26.602 E0.02825 ; skirt
G1 X49.012 Y26.100 E0.02766 ; skirt
G1 F8640
G1 X49.987 Y25.873 E-0.23123 ; wipe and retract
G1 F8640
G1 X52.277 Y25.873 E-0.52876 ; wipe and retract
G1 E-0.04000 F2100.00000 ; retract
G1 Z0.800 F10800.000 ; lift Z
G1 X50.587 Y28.837 F10800.000 ; move to first perimeter point
G1 Z0.200 F10800.000 ; restore layer Z
G1 E0.80000 F2100.00000 ; unretract
G1 F1200
G1 X199.413 Y28.837 E4.66633 ; perimeter
G1 X199.413 Y181.163 E4.77607 ; perimeter
G1 X50.587 Y181.163 E4.66633 ; perimeter
G1 X50.587 Y28.897 E4.77419 ; perimeter
G1 X50.210 Y28.460 F10800.000 ; move to first perimeter point
G1 F1200
G1 X199.790 Y28.460 E4.68998 ; perimeter
G1 X199.790 Y181.540 E4.79972 ; perimeter
G1 X50.210 Y181.540 E4.68998 ; perimeter
G1 X50.210 Y28.520 E4.79783 ; perimeter
G1 X50.596 Y28.565 F10800.000 ; move inwards before travel
G1 F8640
G1 X53.501 Y28.519 E-0.76000 ; wipe and retract
G1 E-0.04000 F2100.00000 ; retract
G1 Z0.800 F10800.000 ; lift Z
G1 X199.300 Y29.712 F10800.000 ; move to first infill point
G1 Z0.200 F10800.000 ; restore layer Z
G1 E0.80000 F2100.00000 ; unretract
G1 F1200
G1 X198.707 Y29.120 E0.02628 ; infill
G1 X198.174 Y29.120 E0.01672 ; infill
G1 X199.130 Y30.076 E0.04240 ; infill
G1 X199.130 Y30.609 E0.01672 ; infill
G1 X197.641 Y29.120 E0.06605 ; infill
G1 X197.107 Y29.120 E0.01672 ; infill
G1 X199.130 Y31.143 E0.08970 ; infill
G1 X199.130 Y31.676 E0.01672 ; infill
G1 X196.574 Y29.120 E0.11334 ; infill
G1 X196.041 Y29.120 E0.01672 ; infill
G1 X199.130 Y32.209 E0.13699 ; infill
G1 X199.130 Y32.743 E0.01672 ; infill
G1 X195.507 Y29.120 E0.16064 ; infill
G1 X194.974 Y29.120 E0.01672 ; infill
G1 X199.130 Y33.276 E0.18429 ; infill
G1 X199.130 Y33.809 E0.01672 ; infill
G1 X194.441 Y29.120 E0.20793 ; infill
G1 X193.908 Y29.120 E0.01672 ; infill
G1 X199.130 Y34.342 E0.23158 ; infill
G1 X199.130 Y34.876 E0.01672 ; infill
G1 X193.374 Y29.120 E0.25523 ; infill
G1 X192.841 Y29.120 E0.01672 ; infill
G1 X199.130 Y35.409 E0.27888 ; infill
G1 X199.130 Y35.942 E0.01672 ; infill
G1 X192.308 Y29.120 E0.30252 ; infill
G1 X191.774 Y29.120 E0.01672 ; infill
G1 X199.130 Y36.476 E0.32617 ; infill
G1 X199.130 Y37.009 E0.01672 ; infill
G1 X191.241 Y29.120 E0.34982 ; infill
G1 X190.708 Y29.120 E0.01672 ; infill
G1 X199.130 Y37.542 E0.37347 ; infill
G1 X199.130 Y38.075 E0.01672 ; infill
G1 X190.175 Y29.120 E0.39711 ; infill
G1 X189.641 Y29.120 E0.01672 ; infill
G1 X199.130 Y38.609 E0.42076 ; infill
G1 X199.130 Y39.142 E0.01672 ; infill
G1 X189.108 Y29.120 E0.44441 ; infill
G1 X188.575 Y29.120 E0.01672 ; infill
G1 X199.130 Y39.675 E0.46806 ; infill
G1 X199.130 Y40.209 E0.01672 ; infill
G1 X188.041 Y29.120 E0.49170 ; infill
G1 X187.508 Y29.120 E0.01672 ; infill
G1 X199.130 Y40.742 E0.51535 ; infill
G1 X199.130 Y41.275 E0.01672 ; infill
G1 X186.975 Y29.120 E0.53900 ; infill
G1 X186.442 Y29.120 E0.01672 ; infill
G1 X199.130 Y41.808 E0.56265 ; infill
G1 X199.130 Y42.342 E0.01672 ; infill
G1 X185.908 Y29.120 E0.58630 ; infill
G1 X185.375 Y29.120 E0.01672 ; infill
G1 X199.130 Y42.875 E0.60994 ; infill
G1 X199.130 Y43.408 E0.01672 ; infill
G1 X184.842 Y29.120 E0.63359 ; infill
G1 X184.308 Y29.120 E0.01672 ; infill
G1 X199.130 Y43.942 E0.65724 ; infill
G1 X199.130 Y44.475 E0.01672 ; infill
G1 X183.775 Y29.120 E0.68089 ; infill
G1 X183.242 Y29.120 E0.01672 ; infill
G1 X199.130 Y45.008 E0.70453 ; infill
G1 X199.130 Y45.541 E0.01672 ; infill
G1 X182.709 Y29.120 E0.72818 ; infill
G1 X182.175 Y29.120 E0.01672 ; infill
G1 X199.130 Y46.075 E0.75183 ; infill
G1 X199.130 Y46.608 E0.01672 ; infill
G1 X181.642 Y29.120 E0.77548 ; infill
G1 X181.109 Y29.120 E0.01672 ; infill
G1 X199.130 Y47.141 E0.79912 ; infill
G1 X199.130 Y47.675 E0.01672 ; infill
G1 X180.575 Y29.120 E0.82277 ; infill
G1 X180.042 Y29.120 E0.01672 ; infill
G1 X199.130 Y48.208 E0.84642 ; infill
G1 X199.130 Y48.741 E0.01672 ; infill
G1 X179.509 Y29.120 E0.87007 ; infill
G1 X178.976 Y29.120 E0.01672 ; infill
G1 X199.130 Y49.274 E0.89371 ; infill
G1 X199.130 Y49.808 E0.01672 ; infill
G1 X178.442 Y29.120 E0.91736 ; infill
G1 X177.909 Y29.120 E0.01672 ; infill
G1 X199.130 Y50.341 E0.94101 ; infill
G1 X199.130 Y50.874 E0.01672 ; infill
G1 X177.376 Y29.120 E0.96466 ; infill
G1 X176.842 Y29.120 E0.01672 ; infill
G1 X199.130 Y51.408 E0.98830 ; infill
G1 X199.130 Y51.941 E0.01672 ; infill
G1 X176.309 Y29.120 E1.01195 ; infill
G1 X175.776 Y29.120 E0.01672 ; infill
G1 X199.130 Y52.474 E1.03560 ; infill
G1 X199.130 Y53.007 E0.01672 ; infill
G1 X175.243 Y29.120 E1.05925 ; infill
G1 X174.709 Y29.120 E0.01672 ; infill
G1 X199.130 Y53.541 E1.08289 ; infill
G1 X199.130 Y54.074 E0.01672 ; infill
G1 X174.176 Y29.120 E1.10654 ; infill
G1 X173.643 Y29.120 E0.01672 ; infill
G1 X199.130 Y54.607 E1.13019 ; infill
G1 X199.130 Y55.141 E0.01672 ; infill
G1 X173.109 Y29.120 E1.15384 ; infill
G1 X172.576 Y29.120 E0.01672 ; infill
G1 X199.130 Y55.674 E1.17748 ; infill
G1 X199.130 Y56.207 E0.01672 ; infill
G1 X172.043 Y29.120 E1.20113 ; infill
G1 X171.510 Y29.120 E0.01672 ; infill
G1 X199.130 Y56.740 E1.22478 ; infill
G1 X199.130 Y57.274 E0.01672 ; infill
G1 X170.976 Y29.120 E1.24843 ; infill
G1 X170.443 Y29.120 E0.01672 ; infill
G1 X199.130 Y57.807 E1.27207 ; infill
G1 X199.130 Y58.340 E0.01672 ; infill
G1 X169.910 Y29.120 E1.29572 ; infill
G1 X169.376 Y29.120 E0.01672 ; infill
G1 X199.130 Y58.874 E1.31937 ; infill
G1 X199.130 Y59.407 E0.01672 ; infill
G1 X168.843 Y29.120 E1.34302 ; infill
G1 X168.310 Y29.120 E0.01672 ; infill
G1 X199.130 Y59.940 E1.36666 ; infill
G1 X199.130 Y60.473 E0.01672 ; infill
G1 X167.777 Y29.120 E1.39031 ; infill
G1 X167.243 Y29.120 E0.01672 ; infill
G1 X199.130 Y61.007 E1.41396 ; infill
G1 X199.130 Y61.540 E0.01672 ; infill
G1 X166.710 Y29.120 E1.43761 ; infill
G1 X166.177 Y29.120 E0.01672 ; infill
G1 X199.130 Y62.073 E1.46125 ; infill
G1 X199.130 Y62.607 E0.01672 ; infill
G1 X165.643 Y29.120 E1.48490 ; infill
G1 X165.110 Y29.120 E0.01672 ; infill
G1 X199.130 Y63.140 E1.50855 ; infill
G1 X199.130 Y63.673 E0.01672 ; infill
G1 X164.577 Y29.120 E1.53220 ; infill
G1 X164.044 Y29.120 E0.01672 ; infill
G1 X199.130 Y64.206 E1.55585 ; infill
G1 X199.130 Y64.740 E0.01672 ; infill
G1 X163.510 Y29.120 E1.57949 ; infill
G1 X162.977 Y29.120 E0.01672 ; infill
G1 X199.130 Y65.273 E1.60314 ; infill
G1 X199.130 Y65.806 E0.01672 ; infill
G1 X162.444 Y29.120 E1.62679 ; infill
G1 X161.910 Y29.120 E0.01672 ; infill
G1 X199.130 Y66.340 E1.65044 ; infill
G1 X199.130 Y66.873 E0.01672 ; infill
G1 X161.377 Y29.120 E1.67408 ; infill
G1 X160.844 Y29.120 E0.01672 ; infill
G1 X199.130 Y67.406 E1.69773 ; infill
G1 X199.130 Y67.939 E0.01672 ; infill
G1 X160.311 Y29.120 E1.72138 ; infill
G1 X159.777 Y29.120 E0.01672 ; infill
G1 X199.130 Y68.473 E1.74503 ; infill
G1 X199.130 Y69.006 E0.01672 ; infill
G1 X159.244 Y29.120 E1.76867 ; infill
G1 X158.711 Y29.120 E0.01672 ; infill
G1 X199.130 Y69.539 E1.79232 ; infill
G1 X199.130 Y70.073 E0.01672 ; infill
G1 X158.177 Y29.120 E1.81597 ; infill
G1 X157.644 Y29.120 E0.01672 ; infill
G1 X199.130 Y70.606 E1.83962 ; infill
G1 X199.130 Y71.139 E0.01672 ; infill
G1 X157.111 Y29.120 E1.86326 ; infill
G1 X156.578 Y29.120 E0.01672 ; infill
G1 X199.130 Y71.672 E1.88691 ; infill
G1 X199.130 Y72.206 E0.01672 ; infill
G1 X156.044 Y29.120 E1.91056 ; infill
G1 X155.511 Y29.120 E0.01672 ; infill
G1 X199.130 Y72.739 E1.93421 ; infill
G1 X199.130 Y73.272 E0.01672 ; infill
G1 X154.978 Y29.120 E1.95785 ; infill
G1 X154.444 Y29.120 E0.01672 ; infill
G1 X199.130 Y73.806 E1.98150 ; infill
G1 X199.130 Y74.339 E0.01672 ; infill
G1 X153.911 Y29.120 E2.00515 ; infill
G1 X153.378 Y29.120 E0.01672 ; infill
G1 X199.130 Y74.872 E2.02880 ; infill
G1 X199.130 Y75.405 E0.01672 ; infill
G1 X152.845 Y29.120 E2.05244 ; infill
G1 X152.311 Y29.120 E0.01672 ; infill
G1 X199.130 Y75.939 E2.07609 ; infill
G1 X199.130 Y76.472 E0.01672 ; infill
G1 X151.778 Y29.120 E2.09974 ; infill
G1 X151.245 Y29.120 E0.01672 ; infill
G1 X199.130 Y77.005 E2.12339 ; infill
G1 X199.130 Y77.539 E0.01672 ; infill
G1 X150.711 Y29.120 E2.14703 ; infill
G1 X150.178 Y29.120 E0.01672 ; infill
G1 X199.130 Y78.072 E2.17068 ; infill
G1 X199.130 Y78.605 E0.01672 ; infill
G1 X149.645 Y29.120 E2.19433 ; infill
G1 X149.111 Y29.120 E0.01672 ; infill
G1 X199.130 Y79.138 E2.21798 ; infill
G1 X199.130 Y79.672 E0.01672 ; infill
G1 X148.578 Y29.120 E2.24162 ; infill
G1 X148.045 Y29.120 E0.01672 ; infill
G1 X199.130 Y80.205 E2.26527 ; infill
G1 X199.130 Y80.738 E0.01672 ; infill
G1 X147.512 Y29.120 E2.28892 ; infill
G1 X146.978 Y29.120 E0.01672 ; infill
G1 X199.130 Y81.272 E2.31257 ; infill
G1 X199.130 Y81.805 E0.01672 ; infill
G1 X146.445 Y29.120 E2.33621 ; infill
G1 X145.912 Y29.120 E0.01672 ; infill
G1 X199.130 Y82.338 E2.35986 ; infill
G1 X199.130 Y82.872 E0.01672 ; infill
G1 X145.378 Y29.120 E2.38351 ; infill
G1 X144.845 Y29.120 E0.01672 ; infill
G1 X199.130 Y83.405 E2.40716 ; infill
G1 X199.130 Y83.938 E0.01672 ; infill
G1 X144.312 Y29.120 E2.43080 ; infill
G1 X143.779 Y29.120 E0.01672 ; infill
G1 X199.130 Y84.471 E2.45445 ; infill
G1 X199.130 Y85.005 E0.01672 ; infill
G1 X143.245 Y29.120 E2.47810 ; infill
G1 X142.712 Y29.120 E0.01672 ; infill
G1 X199.130 Y85.538 E2.50175 ; infill
G1 X199.130 Y86.071 E0.01672 ; infill
G1 X142.179 Y29.120 E2.52540 ; infill
G1 X141.645 Y29.120 E0.01672 ; infill
G1 X199.130 Y86.605 E2.54904 ; infill
G1 X199.130 Y87.138 E0.01672 ; infill
G1 X141.112 Y29.120 E2.57269 ; infill
G1 X140.579 Y29.120 E0.01672 ; infill
G1 X199.130 Y87.671 E2.59634 ; infill
G1 X199.130 Y88.204 E0.01672 ; infill
G1 X140.046 Y29.120 E2.61999 ; infill
G1 X139.512 Y29.120 E0.01672 ; infill
G1 X199.130 Y88.738 E2.64363 ; infill
G1 X199.130 Y89.271 E0.01672 ; infill
G1 X138.979 Y29.120 E2.66728 ; infill
G1 X138.446 Y29.120 E0.01672 ; infill
G1 X199.130 Y89.804 E2.69093 ; infill
G1 X199.130 Y90.338 E0.01672 ; infill
G1 X137.912 Y29.120 E2.71458 ; infill
G1 X137.379 Y29.120 E0.01672 ; infill
G1 X199.130 Y90.871 E2.73822 ; infill
G1 X199.130 Y91.404 E0.01672 ; infill
G1 X136.846 Y29.120 E2.76187 ; infill
G1 X136.313 Y29.120 E0.01672 ; infill
G1 X199.130 Y91.937 E2.78552 ; infill
G1 X199.130 Y92.471 E0.01672 ; infill
G1 X135.779 Y29.120 E2.80917 ; infill
G1 X135.246 Y29.120 E0.01672 ; infill
G1 X199.130 Y93.004 E2.83281 ; infill
G1 X199.130 Y93.537 E0.01672 ; infill
G1 X134.713 Y29.120 E2.85646 ; infill
G1 X134.179 Y29.120 E0.01672 ; infill
G1 X199.130 Y94.071 E2.88011 ; infill
G1 X199.130 Y94.604 E0.01672 ; infill
G1 X133.646 Y29.120 E2.90376 ; infill
G1 X133.113 Y29.120 E0.01672 ; infill
G1 X199.130 Y95.137 E2.92740 ; infill
G1 X199.130 Y95.670 E0.01672 ; infill
G1 X132.580 Y29.120 E2.95105 ; infill
G1 X132.046 Y29.120 E0.01672 ; infill
G1 X199.130 Y96.204 E2.97470 ; infill
G1 X199.130 Y96.737 E0.01672 ; infill
G1 X131.513 Y29.120 E2.99835 ; infill
G1 X130.980 Y29.120 E0.01672 ; infill
G1 X199.130 Y97.270 E3.02199 ; infill
G1 X199.130 Y97.804 E0.01672 ; infill
G1 X130.446 Y29.120 E3.04564 ; infill
G1 X129.913 Y29.120 E0.01672 ; infill
G1 X199.130 Y98.337 E3.06929 ; infill
G1 X199.130 Y98.870 E0.01672 ; infill
G1 X129.380 Y29.120 E3.09294 ; infill
G1 X128.847 Y29.120 E0.01672 ; infill
G1 X199.130 Y99.403 E3.11658 ; infill
G1 X199.130 Y99.937 E0.01672 ; infill
G1 X128.313 Y29.120 E3.14023 ; infill
G1 X127.780 Y29.120 E0.01672 ; infill
G1 X199.130 Y100.470 E3.16388 ; infill
G1 X199.130 Y101.003 E0.01672 ; infill
G1 X127.247 Y29.120 E3.18753 ; infill
G1 X126.713 Y29.120 E0.01672 ; infill
G1 X199.130 Y101.537 E3.21117 ; infill
G1 X199.130 Y102.070 E0.01672 ; infill
G1 X126.180 Y29.120 E3.23482 ; infill
G1 X125.647 Y29.120 E0.01672 ; infill
G1 X199.130 Y102.603 E3.25847 ; infill
G1 X199.130 Y103.136 E0.01672 ; infill
G1 X125.114 Y29.120 E3.28212 ; infill
G1 X124.580 Y29.120 E0.01672 ; infill
G1 X199.130 Y103.670 E3.30576 ; infill
G1 X199.130 Y104.203 E0.01672 ; infill
G1 X124.047 Y29.120 E3.32941 ; infill
G1 X123.514 Y29.120 E0.01672 ; infill
G1 X199.130 Y104.736 E3.35306 ; infill
G1 X199.130 Y105.270 E0.01672 ; infill
G1 X122.980 Y29.120 E3.37671 ; infill
G1 X122.447 Y29.120 E0.01672 ; infill
G1 X199.130 Y105.803 E3.40036 ; infill
G1 X199.130 Y106.336 E0.01672 ; infill
G1 X121.914 Y29.120 E3.42400 ; infill
G1 X121.381 Y29.120 E0.01672 ; infill
G1 X199.130 Y106.869 E3.44765 ; infill
G1 X199.130 Y107.403 E0.01672 ; infill
G1 X120.847 Y29.120 E3.47130 ; infill
G1 X120.314 Y29.120 E0.01672 ; infill
G1 X199.130 Y107.936 E3.49495 ; infill
G1 X199.130 Y108.469 E0.01672 ; infill
G1 X119.781 Y29.120 E3.51859 ; infill
G1 X119.247 Y29.120 E0.01672 ; infill
G1 X199.130 Y109.003 E3.54224 ; infill
G1 X199.130 Y109.536 E0.01672 ; infill
G1 X118.714 Y29.120 E3.56589 ; infill
G1 X118.181 Y29.120 E0.01672 ; infill
G1 X199.130 Y110.069 E3.58954 ; infill
G1 X199.130 Y110.602 E0.01672 ; infill
G1 X117.648 Y29.120 E3.61318 ; infill
G1 X117.114 Y29.120 E0.01672 ; infill
G1 X199.130 Y111.136 E3.63683 ; infill
G1 X199.130 Y111.669 E0.01672 ; infill
G1 X116.581 Y29.120 E3.66048 ; infill
G1 X116.048 Y29.120 E0.01672 ; infill
G1 X199.130 Y112.202 E3.68413 ; infill
G1 X199.130 Y112.736 E0.01672 ; infill
G1 X115.514 Y29.120 E3.70777 ; infill
G1 X114.981 Y29.120 E0.01672 ; infill
G1 X199.130 Y113.269 E3.73142 ; infill
G1 X199.130 Y113.802 E0.01672 ; infill
G1 X114.448 Y29.120 E3.75507 ; infill
G1 X113.915 Y29.120 E0.01672 ; infill
G1 X199.130 Y114.335 E3.77872 ; infill
G1 X199.130 Y114.869 E0.01672 ; infill
G1 X113.381 Y29.120 E3.80236 ; infill
G1 X112.848 Y29.120 E0.01672 ; infill
G1 X199.130 Y115.402 E3.82601 ; infill
G1 X199.130 Y115.935 E0.01672 ; infill
G1 X112.315 Y29.120 E3.84966 ; infill
G1 X111.781 Y29.120 E0.01672 ; infill
G1 X199.130 Y116.469 E3.87331 ; infill
G1 X199.130 Y117.002 E0.01672 ; infill
G1 X111.248 Y29.120 E3.89695 ; infill
G1 X110.715 Y29.120 E0.01672 ; infill
G1 X199.130 Y117.535 E3.92060 ; infill
G1 X199.130 Y118.068 E0.01672 ; infill
G1 X110.182 Y29.120 E3.94425 ; infill
G1 X109.648 Y29.120 E0.01672 ; infill
G1 X199.130 Y118.602 E3.96790 ; infill
G1 X199.130 Y119.135 E0.01672 ; infill
G1 X109.115 Y29.120 E3.99154 ; infill
G1 X108.582 Y29.120 E0.01672 ; infill
G1 X199.130 Y119.668 E4.01519 ; infill
G1 X199.130 Y120.202 E0.01672 ; infill
G1 X108.048 Y29.120 E4.03884 ; infill
G1 X107.515 Y29.120 E0.01672 ; infill
