; generated by Slic3r 1.37.2.1-prusa3d on 2019-05-09 at 12:59:38

; 

; external perimeters extrusion width = 0.45mm
; perimeters extrusion width = 0.45mm
; infill extrusion width = 0.45mm
; solid infill extrusion width = 0.45mm
; top infill extrusion width = 0.40mm
; first layer extrusion width = 0.42mm

M107 ; disable fan
M115 U3.4.0 ; tell printer latest fw version
M83  ; extruder relative mode
M104 S215 ; set extruder temp
M140 S60 ; set bed temp
M190 S60 ; wait for bed temp
M109 S215 ; wait for extruder temp
G28 W ; home all without mesh bed level
G80 ; mesh bed leveling
G1 Y-3.0 F1000.0 ; go outside print area
G92 E0.0
G1 X60.0 E9.0  F1000.0 ; intro line
G1 X100.0 E12.5  F1000.0 ; intro line
G92 E0.0
M221 S95
M900 K30
G21 ; set units to millimeters
G90 ; use absolute coordinates
M83 ; use relative distances for extrusion
;BEFORE_LAYER_CHANGE
G92 E0.0
;0.2


G1 E-0.80000 F2100.00000 ; retract
G1 Z0.600 F10800.000 ; lift Z
;AFTER_LAYER_CHANGE
;0.2
G1 X20.588 Y34.545 F10800.000 ; move to first skirt point
G1 Z0.200 F10800.000 ; restore layer Z
G1 E0.80000 F2100.00000 ; unretract
M204 S1000 ; adjust acceleration
G1 F1200
G1 X82.196 Y34.526 E1.93165 ; skirt
G1 X84.020 Y34.706 E0.05747 ; skirt
G1 X85.772 Y35.236 E0.05740 ; skirt
G1 X87.394 Y36.101 E0.05764 ; skirt
G1 X88.766 Y37.218 E0.05549 ; skirt
G1 X89.676 Y38.255 E0.04323 ; skirt
G1 X90.631 Y39.816 E0.05739 ; skirt
G1 X91.251 Y41.482 E0.05573 ; skirt
G1 X91.549 Y43.292 E0.05752 ; skirt
G1 X91.972 Y61.256 E0.56341 ; skirt
G1 X92.592 Y95.914 E1.08685 ; skirt
G1 X90.150 Y131.798 E1.12772 ; skirt
G1 X90.024 Y132.573 E0.02461 ; skirt
G1 X89.702 Y133.744 E0.03810 ; skirt
G1 X89.251 Y134.824 E0.03668 ; skirt
G1 X88.657 Y135.857 E0.03738 ; skirt
G1 X87.419 Y137.357 E0.06096 ; skirt
G1 X86.543 Y138.119 E0.03643 ; skirt
G1 X85.526 Y138.798 E0.03834 ; skirt
G1 X84.439 Y139.334 E0.03798 ; skirt
G1 X83.337 Y139.713 E0.03655 ; skirt
G1 X81.385 Y140.035 E0.06202 ; skirt
G1 X19.789 Y140.051 E1.93130 ; skirt
G1 X18.545 Y139.960 E0.03912 ; skirt
G1 X16.899 Y139.576 E0.05299 ; skirt
G1 X15.707 Y139.090 E0.04036 ; skirt
G1 X14.659 Y138.488 E0.03786 ; skirt
G1 X13.669 Y137.733 E0.03905 ; skirt
G1 X12.842 Y136.912 E0.03655 ; skirt
G1 X11.687 Y135.301 E0.06215 ; skirt
G1 X11.177 Y134.257 E0.03643 ; skirt
G1 X10.784 Y133.099 E0.03834 ; skirt
G1 X10.546 Y131.903 E0.03822 ; skirt
G1 X10.465 Y130.706 E0.03763 ; skirt
G1 X11.816 Y43.828 E2.72433 ; skirt
G1 X11.981 Y42.150 E0.05286 ; skirt
G1 X12.290 Y40.959 E0.03857 ; skirt
G1 X12.776 Y39.767 E0.04036 ; skirt
G1 X13.377 Y38.720 E0.03786 ; skirt
G1 X14.615 Y37.221 E0.06096 ; skirt
G1 X15.488 Y36.460 E0.03631 ; skirt
G1 X16.502 Y35.783 E0.03822 ; skirt
G1 X17.595 Y35.243 E0.03822 ; skirt
G1 X18.690 Y34.867 E0.03631 ; skirt
G1 X20.529 Y34.555 E0.05848 ; skirt
G1 F8640
G1 X23.821 Y34.554 E-0.76000 ; wipe and retract
G1 E-0.04000 F2100.00000 ; retract
G1 Z0.800 F10800.000 ; lift Z
G1 X20.904 Y40.851 F10800.000 ; move to first perimeter point
G1 Z0.200 F10800.000 ; restore layer Z
G1 E0.80000 F2100.00000 ; unretract
G1 F1200
G1 X21.178 Y40.835 E0.00862 ; perimeter
G1 X21.552 Y40.856 E0.01175 ; perimeter
G1 X21.868 Y40.910 E0.01006 ; perimeter
G1 X22.211 Y41.009 E0.01118 ; perimeter
G1 X22.524 Y41.139 E0.01062 ; perimeter
G1 X22.820 Y41.302 E0.01062 ; perimeter
G1 X23.111 Y41.509 E0.01119 ; perimeter
G1 X23.364 Y41.735 E0.01061 ; perimeter
G1 X23.589 Y41.987 E0.01059 ; perimeter
G1 X23.785 Y42.263 E0.01061 ; perimeter
G1 X23.958 Y42.575 E0.01119 ; perimeter
G1 X24.081 Y42.871 E0.01005 ; perimeter
G1 X24.186 Y43.230 E0.01174 ; perimeter
G1 X24.242 Y43.566 E0.01066 ; perimeter
G1 X24.260 Y43.903 E0.01059 ; perimeter
G1 X24.242 Y44.240 E0.01059 ; perimeter
G1 X24.186 Y44.576 E0.01066 ; perimeter
G1 X24.081 Y44.935 E0.01174 ; perimeter
G1 X23.958 Y45.232 E0.01005 ; perimeter
G1 X23.785 Y45.544 E0.01119 ; perimeter
G1 X23.589 Y45.819 E0.01061 ; perimeter
G1 X23.364 Y46.071 E0.01059 ; perimeter
G1 X23.112 Y46.297 E0.01059 ; perimeter
G1 X22.836 Y46.494 E0.01065 ; perimeter
G1 X22.507 Y46.675 E0.01175 ; perimeter
G1 X22.211 Y46.798 E0.01006 ; perimeter
G1 X21.868 Y46.896 E0.01118 ; perimeter
G1 X21.534 Y46.953 E0.01062 ; perimeter
G1 X21.196 Y46.972 E0.01062 ; perimeter
G1 X20.840 Y46.951 E0.01118 ; perimeter
G1 X20.524 Y46.898 E0.01006 ; perimeter
G1 X20.165 Y46.794 E0.01172 ; perimeter
G1 X19.868 Y46.671 E0.01006 ; perimeter
G1 X19.556 Y46.499 E0.01118 ; perimeter
G1 X19.280 Y46.303 E0.01062 ; perimeter
G1 X19.027 Y46.078 E0.01062 ; perimeter
G1 X18.789 Y45.812 E0.01118 ; perimeter
G1 X18.604 Y45.550 E0.01006 ; perimeter
G1 X18.422 Y45.223 E0.01175 ; perimeter
G1 X18.293 Y44.909 E0.01065 ; perimeter
G1 X18.200 Y44.584 E0.01059 ; perimeter
G1 X18.143 Y44.251 E0.01059 ; perimeter
G1 X18.123 Y43.913 E0.01061 ; perimeter
G1 X18.143 Y43.557 E0.01119 ; perimeter
G1 X18.196 Y43.240 E0.01005 ; perimeter
G1 X18.299 Y42.880 E0.01174 ; perimeter
G1 X18.430 Y42.566 E0.01066 ; perimeter
G1 X18.593 Y42.271 E0.01059 ; perimeter
G1 X18.789 Y41.994 E0.01062 ; perimeter
G1 X19.027 Y41.728 E0.01119 ; perimeter
G1 X19.280 Y41.503 E0.01062 ; perimeter
G1 X19.556 Y41.307 E0.01062 ; perimeter
G1 X19.869 Y41.134 E0.01119 ; perimeter
G1 X20.181 Y41.006 E0.01061 ; perimeter
G1 X20.506 Y40.912 E0.01059 ; perimeter
G1 X20.844 Y40.855 E0.01074 ; perimeter
G1 X20.882 Y41.230 F10800.000 ; move to first perimeter point
G1 F1200
G1 X21.178 Y41.212 E0.00930 ; perimeter
G1 X21.510 Y41.232 E0.01040 ; perimeter
G1 X21.784 Y41.278 E0.00874 ; perimeter
G1 X22.086 Y41.365 E0.00985 ; perimeter
G1 X22.360 Y41.479 E0.00929 ; perimeter
G1 X22.620 Y41.622 E0.00929 ; perimeter
G1 X22.876 Y41.804 E0.00985 ; perimeter
G1 X23.096 Y42.002 E0.00929 ; perimeter
G1 X23.294 Y42.223 E0.00928 ; perimeter
G1 X23.466 Y42.464 E0.00929 ; perimeter
G1 X23.618 Y42.739 E0.00985 ; perimeter
G1 X23.725 Y42.996 E0.00874 ; perimeter
G1 X23.817 Y43.315 E0.01040 ; perimeter
G1 X23.866 Y43.607 E0.00931 ; perimeter
G1 X23.883 Y43.903 E0.00928 ; perimeter
G1 X23.866 Y44.199 E0.00928 ; perimeter
G1 X23.817 Y44.492 E0.00931 ; perimeter
G1 X23.725 Y44.810 E0.01040 ; perimeter
G1 X23.618 Y45.067 E0.00874 ; perimeter
G1 X23.466 Y45.342 E0.00985 ; perimeter
G1 X23.294 Y45.584 E0.00929 ; perimeter
G1 X23.096 Y45.804 E0.00928 ; perimeter
G1 X22.876 Y46.002 E0.00928 ; perimeter
G1 X22.634 Y46.174 E0.00931 ; perimeter
G1 X22.344 Y46.334 E0.01040 ; perimeter
G1 X22.086 Y46.441 E0.00874 ; perimeter
G1 X21.784 Y46.528 E0.00985 ; perimeter
G1 X21.492 Y46.577 E0.00929 ; perimeter
G1 X21.196 Y46.594 E0.00929 ; perimeter
G1 X20.883 Y46.576 E0.00985 ; perimeter
G1 X20.608 Y46.529 E0.00874 ; perimeter
G1 X20.289 Y46.438 E0.01039 ; perimeter
G1 X20.032 Y46.331 E0.00874 ; perimeter
G1 X19.757 Y46.179 E0.00985 ; perimeter
G1 X19.515 Y46.008 E0.00929 ; perimeter
G1 X19.294 Y45.811 E0.00929 ; perimeter
G1 X19.084 Y45.576 E0.00985 ; perimeter
G1 X18.923 Y45.349 E0.00874 ; perimeter
G1 X18.762 Y45.059 E0.01040 ; perimeter
G1 X18.649 Y44.785 E0.00931 ; perimeter
G1 X18.568 Y44.500 E0.00928 ; perimeter
G1 X18.518 Y44.208 E0.00928 ; perimeter
G1 X18.501 Y43.912 E0.00929 ; perimeter
G1 X18.518 Y43.599 E0.00985 ; perimeter
G1 X18.565 Y43.324 E0.00874 ; perimeter
G1 X18.655 Y43.005 E0.01040 ; perimeter
G1 X18.770 Y42.731 E0.00931 ; perimeter
G1 X18.913 Y42.472 E0.00928 ; perimeter
G1 X19.084 Y42.230 E0.00929 ; perimeter
G1 X19.294 Y41.996 E0.00985 ; perimeter
G1 X19.515 Y41.798 E0.00929 ; perimeter
G1 X19.757 Y41.627 E0.00929 ; perimeter
G1 X20.032 Y41.475 E0.00985 ; perimeter
G1 X20.306 Y41.362 E0.00929 ; perimeter
G1 X20.590 Y41.280 E0.00928 ; perimeter
G1 X20.823 Y41.240 E0.00740 ; perimeter
G1 X21.000 Y40.958 F10800.000 ; move inwards before travel
G1 F8640
G1 X21.178 Y41.212 E-0.08231 ; wipe and retract
G1 F8640
G1 X21.510 Y41.232 E-0.07660 ; wipe and retract
G1 F8640
G1 X21.784 Y41.278 E-0.06437 ; wipe and retract
G1 F8640
G1 X22.086 Y41.365 E-0.07252 ; wipe and retract
G1 F8640
G1 X22.360 Y41.479 E-0.06844 ; wipe and retract
G1 F8640
G1 X22.620 Y41.622 E-0.06845 ; wipe and retract
G1 F8640
G1 X22.876 Y41.804 E-0.07255 ; wipe and retract
G1 F8640
G1 X23.096 Y42.002 E-0.06843 ; wipe and retract
G1 F8640
G1 X23.294 Y42.223 E-0.06837 ; wipe and retract
G1 F8640
G1 X23.466 Y42.464 E-0.06842 ; wipe and retract
G1 F8640
G1 X23.570 Y42.652 E-0.04955 ; wipe and retract
G1 E-0.04000 F2100.00000 ; retract
G1 Z0.800 F10800.000 ; lift Z
G1 X79.123 Y43.913 F10800.000 ; move to first perimeter point
G1 Z0.200 F10800.000 ; restore layer Z
G1 E0.80000 F2100.00000 ; unretract
G1 F1200
G1 X79.143 Y43.557 E0.01119 ; perimeter
G1 X79.196 Y43.240 E0.01005 ; perimeter
G1 X79.299 Y42.880 E0.01174 ; perimeter
G1 X79.430 Y42.566 E0.01066 ; perimeter
G1 X79.593 Y42.271 E0.01059 ; perimeter
G1 X79.789 Y41.994 E0.01062 ; perimeter
G1 X80.027 Y41.728 E0.01119 ; perimeter
G1 X80.280 Y41.503 E0.01062 ; perimeter
G1 X80.556 Y41.307 E0.01062 ; perimeter
G1 X80.869 Y41.134 E0.01119 ; perimeter
G1 X81.181 Y41.006 E0.01061 ; perimeter
G1 X81.506 Y40.912 E0.01059 ; perimeter
G1 X81.839 Y40.855 E0.01059 ; perimeter
G1 X82.178 Y40.835 E0.01065 ; perimeter
G1 X82.552 Y40.856 E0.01175 ; perimeter
G1 X82.868 Y40.910 E0.01006 ; perimeter
G1 X83.211 Y41.009 E0.01118 ; perimeter
G1 X83.524 Y41.139 E0.01062 ; perimeter
G1 X83.820 Y41.302 E0.01062 ; perimeter
G1 X84.111 Y41.509 E0.01119 ; perimeter
G1 X84.363 Y41.735 E0.01061 ; perimeter
G1 X84.589 Y41.987 E0.01059 ; perimeter
G1 X84.785 Y42.263 E0.01061 ; perimeter
G1 X84.958 Y42.575 E0.01119 ; perimeter
G1 X85.081 Y42.871 E0.01005 ; perimeter
G1 X85.186 Y43.230 E0.01174 ; perimeter
G1 X85.242 Y43.566 E0.01066 ; perimeter
G1 X85.260 Y43.903 E0.01059 ; perimeter
G1 X85.242 Y44.240 E0.01059 ; perimeter
G1 X85.186 Y44.576 E0.01066 ; perimeter
G1 X85.081 Y44.935 E0.01174 ; perimeter
G1 X84.958 Y45.232 E0.01005 ; perimeter
G1 X84.785 Y45.544 E0.01119 ; perimeter
G1 X84.589 Y45.819 E0.01061 ; perimeter
G1 X84.363 Y46.071 E0.01059 ; perimeter
G1 X84.112 Y46.297 E0.01059 ; perimeter
G1 X83.836 Y46.494 E0.01065 ; perimeter
G1 X83.507 Y46.675 E0.01175 ; perimeter
G1 X83.211 Y46.798 E0.01006 ; perimeter
G1 X82.868 Y46.896 E0.01118 ; perimeter
G1 X82.534 Y46.953 E0.01062 ; perimeter
G1 X82.196 Y46.972 E0.01062 ; perimeter
G1 X81.840 Y46.951 E0.01118 ; perimeter
G1 X81.524 Y46.898 E0.01006 ; perimeter
G1 X81.165 Y46.794 E0.01172 ; perimeter
G1 X80.868 Y46.671 E0.01006 ; perimeter
G1 X80.556 Y46.499 E0.01118 ; perimeter
G1 X80.280 Y46.303 E0.01062 ; perimeter
G1 X80.027 Y46.078 E0.01062 ; perimeter
G1 X79.789 Y45.812 E0.01118 ; perimeter
G1 X79.604 Y45.550 E0.01006 ; perimeter
G1 X79.422 Y45.223 E0.01175 ; perimeter
G1 X79.293 Y44.909 E0.01065 ; perimeter
G1 X79.200 Y44.584 E0.01059 ; perimeter
G1 X79.143 Y44.251 E0.01059 ; perimeter
G1 X79.127 Y43.973 E0.00873 ; perimeter
G1 X79.503 Y43.951 F10800.000 ; move to first perimeter point
G1 F1200
G1 X79.518 Y43.599 E0.01106 ; perimeter
G1 X79.565 Y43.324 E0.00874 ; perimeter
G1 X79.655 Y43.005 E0.01040 ; perimeter
G1 X79.770 Y42.731 E0.00931 ; perimeter
G1 X79.913 Y42.472 E0.00928 ; perimeter
G1 X80.084 Y42.230 E0.00929 ; perimeter
G1 X80.294 Y41.996 E0.00985 ; perimeter
G1 X80.515 Y41.798 E0.00929 ; perimeter
G1 X80.757 Y41.627 E0.00930 ; perimeter
G1 X81.032 Y41.475 E0.00985 ; perimeter
G1 X81.306 Y41.362 E0.00929 ; perimeter
G1 X81.590 Y41.280 E0.00928 ; perimeter
G1 X81.882 Y41.230 E0.00928 ; perimeter
G1 X82.178 Y41.212 E0.00930 ; perimeter
G1 X82.510 Y41.232 E0.01040 ; perimeter
G1 X82.784 Y41.278 E0.00874 ; perimeter
G1 X83.086 Y41.365 E0.00985 ; perimeter
G1 X83.360 Y41.479 E0.00929 ; perimeter
G1 X83.620 Y41.622 E0.00929 ; perimeter
G1 X83.876 Y41.804 E0.00985 ; perimeter
G1 X84.096 Y42.002 E0.00929 ; perimeter
G1 X84.294 Y42.223 E0.00928 ; perimeter
G1 X84.466 Y42.464 E0.00929 ; perimeter
G1 X84.618 Y42.739 E0.00985 ; perimeter
G1 X84.725 Y42.996 E0.00874 ; perimeter
G1 X84.817 Y43.315 E0.01040 ; perimeter
G1 X84.866 Y43.607 E0.00931 ; perimeter
G1 X84.883 Y43.903 E0.00928 ; perimeter
G1 X84.866 Y44.199 E0.00928 ; perimeter
G1 X84.817 Y44.492 E0.00931 ; perimeter
G1 X84.725 Y44.810 E0.01040 ; perimeter
G1 X84.618 Y45.067 E0.00874 ; perimeter
G1 X84.466 Y45.342 E0.00985 ; perimeter
G1 X84.294 Y45.584 E0.00929 ; perimeter
G1 X84.096 Y45.804 E0.00928 ; perimeter
G1 X83.876 Y46.002 E0.00928 ; perimeter
G1 X83.634 Y46.174 E0.00931 ; perimeter
G1 X83.344 Y46.334 E0.01040 ; perimeter
G1 X83.086 Y46.441 E0.00874 ; perimeter
G1 X82.784 Y46.528 E0.00985 ; perimeter
G1 X82.492 Y46.577 E0.00929 ; perimeter
G1 X82.196 Y46.594 E0.00930 ; perimeter
G1 X81.883 Y46.576 E0.00985 ; perimeter
G1 X81.608 Y46.529 E0.00874 ; perimeter
G1 X81.289 Y46.438 E0.01039 ; perimeter
G1 X81.032 Y46.331 E0.00874 ; perimeter
G1 X80.757 Y46.179 E0.00985 ; perimeter
G1 X80.515 Y46.008 E0.00930 ; perimeter
G1 X80.294 Y45.811 E0.00929 ; perimeter
G1 X80.084 Y45.576 E0.00985 ; perimeter
G1 X79.923 Y45.349 E0.00874 ; perimeter
G1 X79.762 Y45.059 E0.01040 ; perimeter
G1 X79.649 Y44.785 E0.00931 ; perimeter
G1 X79.568 Y44.500 E0.00928 ; perimeter
G1 X79.518 Y44.208 E0.00928 ; perimeter
G1 X79.507 Y44.011 E0.00619 ; perimeter
G1 X79.196 Y43.778 F10800.000 ; move inwards before travel
G1 F8640
G1 X79.518 Y43.599 E-0.09523 ; wipe and retract
G1 F8640
G1 X79.565 Y43.324 E-0.06435 ; wipe and retract
G1 F8640
G1 X79.655 Y43.005 E-0.07658 ; wipe and retract
G1 F8640
G1 X79.770 Y42.731 E-0.06856 ; wipe and retract
G1 F8640
G1 X79.913 Y42.472 E-0.06837 ; wipe and retract
G1 F8640
G1 X80.084 Y42.230 E-0.06844 ; wipe and retract
G1 F8640
G1 X80.294 Y41.996 E-0.07255 ; wipe and retract
G1 F8640
G1 X80.515 Y41.798 E-0.06843 ; wipe and retract
G1 F8640
G1 X80.757 Y41.627 E-0.06845 ; wipe and retract
G1 F8640
G1 X81.032 Y41.475 E-0.07255 ; wipe and retract
G1 F8640
G1 X81.178 Y41.415 E-0.03649 ; wipe and retract
G1 E-0.04000 F2100.00000 ; retract
G1 Z0.800 F10800.000 ; lift Z
G1 X79.507 Y50.316 F10800.000 ; move to first perimeter point
G1 Z0.200 F10800.000 ; restore layer Z
G1 E0.80000 F2100.00000 ; unretract
G1 F1200
G1 X21.201 Y50.316 E1.82812 ; perimeter
G1 X20.772 Y50.302 E0.01346 ; perimeter
G1 X20.355 Y50.261 E0.01316 ; perimeter
G1 X19.941 Y50.192 E0.01316 ; perimeter
G1 X19.532 Y50.097 E0.01316 ; perimeter
G1 X19.131 Y49.975 E0.01316 ; perimeter
G1 X18.738 Y49.828 E0.01316 ; perimeter
G1 X18.356 Y49.654 E0.01316 ; perimeter
G1 X17.985 Y49.457 E0.01316 ; perimeter
G1 X17.629 Y49.235 E0.01316 ; perimeter
G1 X17.288 Y48.991 E0.01316 ; perimeter
G1 X16.964 Y48.724 E0.01316 ; perimeter
G1 X16.673 Y48.453 E0.01247 ; perimeter
G1 X16.370 Y48.130 E0.01387 ; perimeter
G1 X16.104 Y47.807 E0.01313 ; perimeter
G1 X15.860 Y47.466 E0.01316 ; perimeter
G1 X15.650 Y47.128 E0.01247 ; perimeter
G1 X15.440 Y46.738 E0.01387 ; perimeter
G1 X15.267 Y46.357 E0.01313 ; perimeter
G1 X15.119 Y45.964 E0.01316 ; perimeter
G1 X15.004 Y45.584 E0.01247 ; perimeter
G1 X14.902 Y45.153 E0.01387 ; perimeter
G1 X14.834 Y44.740 E0.01313 ; perimeter
G1 X14.793 Y44.322 E0.01316 ; perimeter
G1 X14.779 Y43.903 E0.01316 ; perimeter
G1 X14.793 Y43.484 E0.01316 ; perimeter
G1 X14.834 Y43.066 E0.01316 ; perimeter
G1 X14.902 Y42.652 E0.01316 ; perimeter
G1 X14.998 Y42.243 E0.01316 ; perimeter
G1 X15.119 Y41.842 E0.01316 ; perimeter
G1 X15.267 Y41.449 E0.01316 ; perimeter
G1 X15.440 Y41.067 E0.01316 ; perimeter
G1 X15.638 Y40.697 E0.01316 ; perimeter
G1 X15.860 Y40.340 E0.01316 ; perimeter
G1 X16.104 Y39.999 E0.01316 ; perimeter
G1 X16.371 Y39.675 E0.01316 ; perimeter
G1 X16.642 Y39.385 E0.01247 ; perimeter
G1 X16.964 Y39.081 E0.01387 ; perimeter
G1 X17.288 Y38.816 E0.01313 ; perimeter
G1 X17.611 Y38.584 E0.01247 ; perimeter
G1 X17.986 Y38.349 E0.01387 ; perimeter
G1 X18.356 Y38.152 E0.01313 ; perimeter
G1 X18.738 Y37.979 E0.01316 ; perimeter
G1 X19.131 Y37.831 E0.01316 ; perimeter
G1 X19.532 Y37.709 E0.01316 ; perimeter
G1 X19.941 Y37.614 E0.01316 ; perimeter
G1 X20.355 Y37.545 E0.01316 ; perimeter
G1 X20.772 Y37.504 E0.01316 ; perimeter
G1 X21.201 Y37.490 E0.01346 ; perimeter
G1 X82.182 Y37.490 E1.91201 ; perimeter
G1 X82.589 Y37.503 E0.01277 ; perimeter
