; generated by Slic3r 1.37.2.1-prusa3d on 2019-03-20 at 23:35:02

; 

; external perimeters extrusion width = 0.45mm
; perimeters extrusion width = 0.45mm
; infill extrusion width = 0.45mm
; solid infill extrusion width = 0.45mm
; top infill extrusion width = 0.40mm
; first layer extrusion width = 0.42mm

M107 ; disable fan
M115 U3.4.0 ; tell printer latest fw version
M83  ; extruder relative mode
M104 S215 ; set extruder temp
M140 S60 ; set bed temp
M190 S60 ; wait for bed temp
M109 S215 ; wait for extruder temp
G28 W ; home all without mesh bed level
G80 ; mesh bed leveling
G1 Y-3.0 F1000.0 ; go outside print area
G92 E0.0
G1 X60.0 E9.0  F1000.0 ; intro line
G1 X100.0 E12.5  F1000.0 ; intro line
G92 E0.0
M221 S95
M900 K30
G21 ; set units to millimeters
G90 ; use absolute coordinates
M83 ; use relative distances for extrusion
;BEFORE_LAYER_CHANGE
G92 E0.0
;0.2


G1 E-0.80000 F2100.00000 ; retract
G1 Z0.600 F10800.000 ; lift Z
;AFTER_LAYER_CHANGE
;0.2
G1 X81.819 Y76.460 F10800.000 ; move to first skirt point
G1 Z0.200 F10800.000 ; restore layer Z
G1 E0.80000 F2100.00000 ; unretract
M204 S1000 ; adjust acceleration
G1 F1200
G1 X82.487 Y76.360 E0.02119 ; skirt
G1 X167.504 Y76.360 E2.66563 ; skirt
G1 X168.399 Y76.537 E0.02860 ; skirt
G1 X169.162 Y77.038 E0.02860 ; skirt
G1 X169.681 Y77.792 E0.02872 ; skirt
G1 X169.876 Y78.683 E0.02860 ; skirt
G1 X169.877 Y131.308 E1.65002 ; skirt
G1 X169.795 Y131.880 E0.01811 ; skirt
G1 X169.577 Y132.419 E0.01823 ; skirt
G1 X169.237 Y132.885 E0.01811 ; skirt
G1 X168.791 Y133.258 E0.01823 ; skirt
G1 X168.181 Y133.540 E0.02107 ; skirt
G1 X167.513 Y133.640 E0.02119 ; skirt
G1 X82.481 Y133.640 E2.66610 ; skirt
G1 X81.901 Y133.563 E0.01835 ; skirt
G1 X81.354 Y133.345 E0.01846 ; skirt
G1 X80.880 Y133.002 E0.01835 ; skirt
G1 X80.502 Y132.550 E0.01846 ; skirt
G1 X80.223 Y131.943 E0.02095 ; skirt
G1 X80.123 Y131.279 E0.02107 ; skirt
G1 X80.123 Y78.707 E1.64835 ; skirt
G1 X80.202 Y78.131 E0.01823 ; skirt
G1 X80.419 Y77.588 E0.01835 ; skirt
G1 X80.763 Y77.115 E0.01835 ; skirt
G1 X81.209 Y76.742 E0.01823 ; skirt
G1 X81.765 Y76.485 E0.01919 ; skirt
G1 F8640
G1 X82.487 Y76.360 E-0.16937 ; wipe and retract
G1 F8640
G1 X85.045 Y76.360 E-0.59063 ; wipe and retract
G1 E-0.04000 F2100.00000 ; retract
G1 Z0.800 F10800.000 ; lift Z
G1 X83.087 Y79.325 F10800.000 ; move to first perimeter point
G1 Z0.200 F10800.000 ; restore layer Z
G1 E0.80000 F2100.00000 ; unretract
G1 F1200
G1 X166.913 Y79.325 E2.62830 ; perimeter
G1 X166.913 Y130.675 E1.61007 ; perimeter
G1 X83.087 Y130.675 E2.62830 ; perimeter
G1 X83.087 Y79.385 E1.60819 ; perimeter
G1 X82.710 Y78.948 F10800.000 ; move to first perimeter point
G1 F1200
G1 X167.290 Y78.948 E2.65195 ; perimeter
G1 X167.290 Y131.052 E1.63372 ; perimeter
G1 X82.710 Y131.052 E2.65195 ; perimeter
G1 X82.710 Y79.008 E1.63183 ; perimeter
G1 X83.103 Y79.021 F10800.000 ; move inwards before travel
G1 F8640
G1 X86.001 Y79.005 E-0.76000 ; wipe and retract
G1 E-0.04000 F2100.00000 ; retract
G1 Z0.800 F10800.000 ; lift Z
G1 X83.965 Y130.562 F10800.000 ; move to first infill point
G1 Z0.200 F10800.000 ; restore layer Z
G1 E0.80000 F2100.00000 ; unretract
G1 F1200
G1 X83.370 Y129.967 E0.02646 ; infill
G1 X83.370 Y129.432 E0.01682 ; infill
G1 X84.330 Y130.393 E0.04271 ; infill
G1 X84.865 Y130.393 E0.01682 ; infill
G1 X83.370 Y128.898 E0.06650 ; infill
G1 X83.370 Y128.363 E0.01682 ; infill
G1 X85.400 Y130.393 E0.09029 ; infill
G1 X85.935 Y130.393 E0.01682 ; infill
G1 X83.370 Y127.828 E0.11409 ; infill
G1 X83.370 Y127.293 E0.01682 ; infill
G1 X86.470 Y130.393 E0.13788 ; infill
G1 X87.005 Y130.393 E0.01682 ; infill
G1 X83.370 Y126.758 E0.16167 ; infill
G1 X83.370 Y126.223 E0.01682 ; infill
G1 X87.540 Y130.393 E0.18546 ; infill
G1 X88.074 Y130.393 E0.01682 ; infill
G1 X83.370 Y125.688 E0.20926 ; infill
G1 X83.370 Y125.153 E0.01682 ; infill
G1 X88.609 Y130.393 E0.23305 ; infill
G1 X89.144 Y130.393 E0.01682 ; infill
G1 X83.370 Y124.618 E0.25684 ; infill
G1 X83.370 Y124.083 E0.01682 ; infill
G1 X89.679 Y130.393 E0.28063 ; infill
G1 X90.214 Y130.393 E0.01682 ; infill
G1 X83.370 Y123.548 E0.30443 ; infill
G1 X83.370 Y123.013 E0.01682 ; infill
G1 X90.749 Y130.393 E0.32822 ; infill
G1 X91.284 Y130.393 E0.01682 ; infill
G1 X83.370 Y122.478 E0.35201 ; infill
G1 X83.370 Y121.944 E0.01682 ; infill
G1 X91.819 Y130.393 E0.37580 ; infill
G1 X92.354 Y130.393 E0.01682 ; infill
G1 X83.370 Y121.409 E0.39960 ; infill
G1 X83.370 Y120.874 E0.01682 ; infill
G1 X92.889 Y130.393 E0.42339 ; infill
G1 X93.424 Y130.393 E0.01682 ; infill
G1 X83.370 Y120.339 E0.44718 ; infill
G1 X83.370 Y119.804 E0.01682 ; infill
G1 X93.959 Y130.393 E0.47097 ; infill
G1 X94.494 Y130.393 E0.01682 ; infill
G1 X83.370 Y119.269 E0.49477 ; infill
G1 X83.370 Y118.734 E0.01682 ; infill
G1 X95.028 Y130.393 E0.51856 ; infill
G1 X95.563 Y130.393 E0.01682 ; infill
G1 X83.370 Y118.199 E0.54235 ; infill
G1 X83.370 Y117.664 E0.01682 ; infill
G1 X96.098 Y130.393 E0.56614 ; infill
G1 X96.633 Y130.393 E0.01682 ; infill
G1 X83.370 Y117.129 E0.58994 ; infill
G1 X83.370 Y116.594 E0.01682 ; infill
G1 X97.168 Y130.393 E0.61373 ; infill
G1 X97.703 Y130.393 E0.01682 ; infill
G1 X83.370 Y116.059 E0.63752 ; infill
G1 X83.370 Y115.525 E0.01682 ; infill
G1 X98.238 Y130.393 E0.66131 ; infill
G1 X98.773 Y130.393 E0.01682 ; infill
G1 X83.370 Y114.990 E0.68511 ; infill
G1 X83.370 Y114.455 E0.01682 ; infill
G1 X99.308 Y130.393 E0.70890 ; infill
G1 X99.843 Y130.393 E0.01682 ; infill
G1 X83.370 Y113.920 E0.73269 ; infill
G1 X83.370 Y113.385 E0.01682 ; infill
G1 X100.378 Y130.393 E0.75648 ; infill
G1 X100.913 Y130.393 E0.01682 ; infill
G1 X83.370 Y112.850 E0.78028 ; infill
G1 X83.370 Y112.315 E0.01682 ; infill
G1 X101.447 Y130.393 E0.80407 ; infill
G1 X101.982 Y130.393 E0.01682 ; infill
G1 X83.370 Y111.780 E0.82786 ; infill
G1 X83.370 Y111.245 E0.01682 ; infill
G1 X102.517 Y130.393 E0.85165 ; infill
G1 X103.052 Y130.393 E0.01682 ; infill
G1 X83.370 Y110.710 E0.87545 ; infill
G1 X83.370 Y110.175 E0.01682 ; infill
G1 X103.587 Y130.393 E0.89924 ; infill
G1 X104.122 Y130.393 E0.01682 ; infill
G1 X83.370 Y109.640 E0.92303 ; infill
G1 X83.370 Y109.106 E0.01682 ; infill
G1 X104.657 Y130.393 E0.94682 ; infill
G1 X105.192 Y130.393 E0.01682 ; infill
G1 X83.370 Y108.571 E0.97062 ; infill
G1 X83.370 Y108.036 E0.01682 ; infill
G1 X105.727 Y130.393 E0.99441 ; infill
G1 X106.262 Y130.393 E0.01682 ; infill
G1 X83.370 Y107.501 E1.01820 ; infill
G1 X83.370 Y106.966 E0.01682 ; infill
G1 X106.797 Y130.393 E1.04199 ; infill
G1 X107.332 Y130.393 E0.01682 ; infill
G1 X83.370 Y106.431 E1.06579 ; infill
G1 X83.370 Y105.896 E0.01682 ; infill
G1 X107.867 Y130.393 E1.08958 ; infill
G1 X108.401 Y130.393 E0.01682 ; infill
G1 X83.370 Y105.361 E1.11337 ; infill
G1 X83.370 Y104.826 E0.01682 ; infill
G1 X108.936 Y130.393 E1.13716 ; infill
G1 X109.471 Y130.393 E0.01682 ; infill
G1 X83.370 Y104.291 E1.16096 ; infill
G1 X83.370 Y103.756 E0.01682 ; infill
G1 X110.006 Y130.393 E1.18475 ; infill
G1 X110.541 Y130.393 E0.01682 ; infill
G1 X83.370 Y103.221 E1.20854 ; infill
G1 X83.370 Y102.686 E0.01682 ; infill
G1 X111.076 Y130.393 E1.23233 ; infill
G1 X111.611 Y130.393 E0.01682 ; infill
G1 X83.370 Y102.152 E1.25613 ; infill
G1 X83.370 Y101.617 E0.01682 ; infill
G1 X112.146 Y130.393 E1.27992 ; infill
G1 X112.681 Y130.393 E0.01682 ; infill
G1 X83.370 Y101.082 E1.30371 ; infill
G1 X83.370 Y100.547 E0.01682 ; infill
G1 X113.216 Y130.393 E1.32750 ; infill
G1 X113.751 Y130.393 E0.01682 ; infill
G1 X83.370 Y100.012 E1.35130 ; infill
G1 X83.370 Y99.477 E0.01682 ; infill
G1 X114.286 Y130.393 E1.37509 ; infill
G1 X114.820 Y130.393 E0.01682 ; infill
G1 X83.370 Y98.942 E1.39888 ; infill
G1 X83.370 Y98.407 E0.01682 ; infill
G1 X115.355 Y130.393 E1.42267 ; infill
G1 X115.890 Y130.393 E0.01682 ; infill
G1 X83.370 Y97.872 E1.44647 ; infill
G1 X83.370 Y97.337 E0.01682 ; infill
G1 X116.425 Y130.393 E1.47026 ; infill
G1 X116.960 Y130.393 E0.01682 ; infill
G1 X83.370 Y96.802 E1.49405 ; infill
G1 X83.370 Y96.267 E0.01682 ; infill
G1 X117.495 Y130.393 E1.51784 ; infill
G1 X118.030 Y130.393 E0.01682 ; infill
G1 X83.370 Y95.733 E1.54164 ; infill
G1 X83.370 Y95.198 E0.01682 ; infill
G1 X118.565 Y130.393 E1.56543 ; infill
G1 X119.100 Y130.393 E0.01682 ; infill
G1 X83.370 Y94.663 E1.58922 ; infill
G1 X83.370 Y94.128 E0.01682 ; infill
G1 X119.635 Y130.393 E1.61301 ; infill
G1 X120.170 Y130.393 E0.01682 ; infill
G1 X83.370 Y93.593 E1.63681 ; infill
G1 X83.370 Y93.058 E0.01682 ; infill
G1 X120.705 Y130.393 E1.66060 ; infill
G1 X121.239 Y130.393 E0.01682 ; infill
G1 X83.370 Y92.523 E1.68439 ; infill
G1 X83.370 Y91.988 E0.01682 ; infill
G1 X121.774 Y130.393 E1.70818 ; infill
G1 X122.309 Y130.393 E0.01682 ; infill
G1 X83.370 Y91.453 E1.73198 ; infill
G1 X83.370 Y90.918 E0.01682 ; infill
G1 X122.844 Y130.393 E1.75577 ; infill
G1 X123.379 Y130.393 E0.01682 ; infill
G1 X83.370 Y90.383 E1.77956 ; infill
G1 X83.370 Y89.848 E0.01682 ; infill
G1 X123.914 Y130.393 E1.80335 ; infill
G1 X124.449 Y130.393 E0.01682 ; infill
G1 X83.370 Y89.313 E1.82715 ; infill
G1 X83.370 Y88.779 E0.01682 ; infill
G1 X124.984 Y130.393 E1.85094 ; infill
G1 X125.519 Y130.393 E0.01682 ; infill
G1 X83.370 Y88.244 E1.87473 ; infill
G1 X83.370 Y87.709 E0.01682 ; infill
G1 X126.054 Y130.393 E1.89852 ; infill
G1 X126.589 Y130.393 E0.01682 ; infill
G1 X83.370 Y87.174 E1.92232 ; infill
G1 X83.370 Y86.639 E0.01682 ; infill
G1 X127.124 Y130.393 E1.94611 ; infill
G1 X127.659 Y130.393 E0.01682 ; infill
G1 X83.370 Y86.104 E1.96990 ; infill
G1 X83.370 Y85.569 E0.01682 ; infill
G1 X128.193 Y130.393 E1.99369 ; infill
G1 X128.728 Y130.393 E0.01682 ; infill
G1 X83.370 Y85.034 E2.01749 ; infill
G1 X83.370 Y84.499 E0.01682 ; infill
G1 X129.263 Y130.393 E2.04128 ; infill
G1 X129.798 Y130.393 E0.01682 ; infill
G1 X83.370 Y83.964 E2.06507 ; infill
G1 X83.370 Y83.429 E0.01682 ; infill
G1 X130.333 Y130.393 E2.08886 ; infill
G1 X130.868 Y130.393 E0.01682 ; infill
G1 X83.370 Y82.894 E2.11266 ; infill
G1 X83.370 Y82.360 E0.01682 ; infill
G1 X131.403 Y130.393 E2.13645 ; infill
G1 X131.938 Y130.393 E0.01682 ; infill
G1 X83.370 Y81.825 E2.16024 ; infill
G1 X83.370 Y81.290 E0.01682 ; infill
G1 X132.473 Y130.393 E2.18404 ; infill
G1 X133.008 Y130.393 E0.01682 ; infill
G1 X83.370 Y80.755 E2.20783 ; infill
G1 X83.370 Y80.220 E0.01682 ; infill
G1 X133.543 Y130.393 E2.23162 ; infill
G1 X134.078 Y130.393 E0.01682 ; infill
G1 X83.370 Y79.685 E2.25541 ; infill
G1 X83.370 Y79.607 E0.00244 ; infill
G1 X83.827 Y79.607 E0.01438 ; infill
G1 X134.612 Y130.393 E2.25886 ; infill
G1 X135.147 Y130.393 E0.01682 ; infill
G1 X84.362 Y79.607 E2.25886 ; infill
G1 X84.897 Y79.607 E0.01682 ; infill
G1 X135.682 Y130.393 E2.25886 ; infill
G1 X136.217 Y130.393 E0.01682 ; infill
G1 X85.432 Y79.607 E2.25886 ; infill
G1 X85.967 Y79.607 E0.01682 ; infill
G1 X136.752 Y130.393 E2.25886 ; infill
G1 X137.287 Y130.393 E0.01682 ; infill
G1 X86.502 Y79.607 E2.25886 ; infill
G1 X87.037 Y79.607 E0.01682 ; infill
G1 X137.822 Y130.393 E2.25886 ; infill
G1 X138.357 Y130.393 E0.01682 ; infill
G1 X87.572 Y79.607 E2.25886 ; infill
G1 X88.107 Y79.607 E0.01682 ; infill
G1 X138.892 Y130.393 E2.25886 ; infill
G1 X139.427 Y130.393 E0.01682 ; infill
G1 X88.641 Y79.607 E2.25886 ; infill
G1 X89.176 Y79.607 E0.01682 ; infill
G1 X139.962 Y130.393 E2.25886 ; infill
G1 X140.497 Y130.393 E0.01682 ; infill
G1 X89.711 Y79.607 E2.25886 ; infill
G1 X90.246 Y79.607 E0.01682 ; infill
G1 X141.031 Y130.393 E2.25886 ; infill
G1 X141.566 Y130.393 E0.01682 ; infill
G1 X90.781 Y79.607 E2.25886 ; infill
G1 X91.316 Y79.607 E0.01682 ; infill
G1 X142.101 Y130.393 E2.25886 ; infill
G1 X142.636 Y130.393 E0.01682 ; infill
G1 X91.851 Y79.607 E2.25886 ; infill
G1 X92.386 Y79.607 E0.01682 ; infill
G1 X143.171 Y130.393 E2.25886 ; infill
G1 X143.706 Y130.393 E0.01682 ; infill
G1 X92.921 Y79.607 E2.25886 ; infill
G1 X93.456 Y79.607 E0.01682 ; infill
G1 X144.241 Y130.393 E2.25886 ; infill
G1 X144.776 Y130.393 E0.01682 ; infill
G1 X93.991 Y79.607 E2.25886 ; infill
G1 X94.526 Y79.607 E0.01682 ; infill
G1 X145.311 Y130.393 E2.25886 ; infill
G1 X145.846 Y130.393 E0.01682 ; infill
G1 X95.061 Y79.607 E2.25886 ; infill
G1 X95.595 Y79.607 E0.01682 ; infill
G1 X146.381 Y130.393 E2.25886 ; infill
G1 X146.916 Y130.393 E0.01682 ; infill
G1 X96.130 Y79.607 E2.25886 ; infill
G1 X96.665 Y79.607 E0.01682 ; infill
G1 X147.451 Y130.393 E2.25886 ; infill
G1 X147.985 Y130.393 E0.01682 ; infill
G1 X97.200 Y79.607 E2.25886 ; infill
G1 X97.735 Y79.607 E0.01682 ; infill
G1 X148.520 Y130.393 E2.25886 ; infill
G1 X149.055 Y130.393 E0.01682 ; infill
G1 X98.270 Y79.607 E2.25886 ; infill
G1 X98.805 Y79.607 E0.01682 ; infill
G1 X149.590 Y130.393 E2.25886 ; infill
G1 X150.125 Y130.393 E0.01682 ; infill
G1 X99.340 Y79.607 E2.25886 ; infill
G1 X99.875 Y79.607 E0.01682 ; infill
G1 X150.660 Y130.393 E2.25886 ; infill
G1 X151.195 Y130.393 E0.01682 ; infill
G1 X100.410 Y79.607 E2.25886 ; infill
G1 X100.945 Y79.607 E0.01682 ; infill
G1 X151.730 Y130.393 E2.25886 ; infill
G1 X152.265 Y130.393 E0.01682 ; infill
G1 X101.480 Y79.607 E2.25886 ; infill
G1 X102.014 Y79.607 E0.01682 ; infill
G1 X152.800 Y130.393 E2.25886 ; infill
G1 X153.335 Y130.393 E0.01682 ; infill
G1 X102.549 Y79.607 E2.25886 ; infill
G1 X103.084 Y79.607 E0.01682 ; infill
G1 X153.870 Y130.393 E2.25886 ; infill
G1 X154.404 Y130.393 E0.01682 ; infill
G1 X103.619 Y79.607 E2.25886 ; infill
G1 X104.154 Y79.607 E0.01682 ; infill
G1 X154.939 Y130.393 E2.25886 ; infill
G1 X155.474 Y130.393 E0.01682 ; infill
G1 X104.689 Y79.607 E2.25886 ; infill
G1 X105.224 Y79.607 E0.01682 ; infill
G1 X156.009 Y130.393 E2.25886 ; infill
G1 X156.544 Y130.393 E0.01682 ; infill
G1 X105.759 Y79.607 E2.25886 ; infill
G1 X106.294 Y79.607 E0.01682 ; infill
G1 X157.079 Y130.393 E2.25886 ; infill
G1 X157.614 Y130.393 E0.01682 ; infill
G1 X106.829 Y79.607 E2.25886 ; infill
G1 X107.364 Y79.607 E0.01682 ; infill
G1 X158.149 Y130.393 E2.25886 ; infill
G1 X158.684 Y130.393 E0.01682 ; infill
G1 X107.899 Y79.607 E2.25886 ; infill
G1 X108.433 Y79.607 E0.01682 ; infill
G1 X159.219 Y130.393 E2.25886 ; infill
G1 X159.754 Y130.393 E0.01682 ; infill
G1 X108.968 Y79.607 E2.25886 ; infill
G1 X109.503 Y79.607 E0.01682 ; infill
G1 X160.289 Y130.393 E2.25886 ; infill
G1 X160.824 Y130.393 E0.01682 ; infill
G1 X110.038 Y79.607 E2.25886 ; infill
G1 X110.573 Y79.607 E0.01682 ; infill
G1 X161.358 Y130.393 E2.25886 ; infill
G1 X161.893 Y130.393 E0.01682 ; infill
G1 X111.108 Y79.607 E2.25886 ; infill
G1 X111.643 Y79.607 E0.01682 ; infill
G1 X162.428 Y130.393 E2.25886 ; infill
G1 X162.963 Y130.393 E0.01682 ; infill
G1 X112.178 Y79.607 E2.25886 ; infill
G1 X112.713 Y79.607 E0.01682 ; infill
G1 X163.498 Y130.393 E2.25886 ; infill
G1 X164.033 Y130.393 E0.01682 ; infill
G1 X113.248 Y79.607 E2.25886 ; infill
G1 X113.783 Y79.607 E0.01682 ; infill
G1 X164.568 Y130.393 E2.25886 ; infill
G1 X165.103 Y130.393 E0.01682 ; infill
G1 X114.318 Y79.607 E2.25886 ; infill
G1 X114.853 Y79.607 E0.01682 ; infill
G1 X165.638 Y130.393 E2.25886 ; infill
G1 X166.173 Y130.393 E0.01682 ; infill
G1 X115.387 Y79.607 E2.25886 ; infill
G1 X115.922 Y79.607 E0.01682 ; infill
G1 X166.630 Y130.315 E2.25542 ; infill
G1 X166.630 Y129.780 E0.01682 ; infill
G1 X116.457 Y79.607 E2.23162 ; infill
G1 X116.992 Y79.607 E0.01682 ; infill
G1 X166.630 Y129.245 E2.20783 ; infill
G1 X166.630 Y128.710 E0.01682 ; infill
G1 X117.527 Y79.607 E2.18404 ; infill
G1 X118.062 Y79.607 E0.01682 ; infill
G1 X166.630 Y128.175 E2.16025 ; infill
G1 X166.630 Y127.641 E0.01682 ; infill
G1 X118.597 Y79.607 E2.13645 ; infill
G1 X119.132 Y79.607 E0.01682 ; infill
G1 X166.630 Y127.106 E2.11266 ; infill
G1 X166.630 Y126.571 E0.01682 ; infill
G1 X119.667 Y79.607 E2.08887 ; infill
G1 X120.202 Y79.607 E0.01682 ; infill
G1 X166.630 Y126.036 E2.06508 ; infill
G1 X166.630 Y125.501 E0.01682 ; infill
G1 X120.737 Y79.607 E2.04128 ; infill
G1 X121.272 Y79.607 E0.01682 ; infill
G1 X166.630 Y124.966 E2.01749 ; infill
G1 X166.630 Y124.431 E0.01682 ; infill
G1 X121.806 Y79.607 E1.99370 ; infill
G1 X122.341 Y79.607 E0.01682 ; infill
G1 X166.630 Y123.896 E1.96991 ; infill
