; generated by Slic3r 1.37.2.1-prusa3d on 2019-03-24 at 20:43:02

; 

; external perimeters extrusion width = 0.45mm
; perimeters extrusion width = 0.45mm
; infill extrusion width = 0.45mm
; solid infill extrusion width = 0.45mm
; top infill extrusion width = 0.40mm
; first layer extrusion width = 0.42mm

M107 ; disable fan
M115 U3.4.0 ; tell printer latest fw version
M83  ; extruder relative mode
M104 S215 ; set extruder temp
M140 S60 ; set bed temp
M190 S60 ; wait for bed temp
M109 S215 ; wait for extruder temp
G28 W ; home all without mesh bed level
G80 ; mesh bed leveling
G1 Y-3.0 F1000.0 ; go outside print area
G92 E0.0
G1 X60.0 E9.0  F1000.0 ; intro line
G1 X100.0 E12.5  F1000.0 ; intro line
G92 E0.0
M221 S95
M900 K30
G21 ; set units to millimeters
G90 ; use absolute coordinates
M83 ; use relative distances for extrusion
;BEFORE_LAYER_CHANGE
G92 E0.0
;0.2


G1 E-0.80000 F2100.00000 ; retract
G1 Z0.600 F10800.000 ; lift Z
;AFTER_LAYER_CHANGE
;0.2
G1 X71.101 Y59.296 F10800.000 ; move to first skirt point
G1 Z0.200 F10800.000 ; restore layer Z
G1 E0.80000 F2100.00000 ; unretract
M204 S1000 ; adjust acceleration
G1 F1200
G1 X71.769 Y59.196 E0.02119 ; skirt
G1 X156.785 Y59.196 E2.66563 ; skirt
G1 X157.680 Y59.373 E0.02860 ; skirt
G1 X158.443 Y59.873 E0.02860 ; skirt
G1 X158.963 Y60.628 E0.02872 ; skirt
G1 X159.158 Y61.519 E0.02860 ; skirt
G1 X159.158 Y114.144 E1.65002 ; skirt
G1 X159.077 Y114.716 E0.01811 ; skirt
G1 X158.859 Y115.254 E0.01823 ; skirt
G1 X158.518 Y115.721 E0.01811 ; skirt
G1 X158.073 Y116.094 E0.01823 ; skirt
G1 X157.462 Y116.376 E0.02107 ; skirt
G1 X156.794 Y116.475 E0.02119 ; skirt
G1 X71.763 Y116.475 E2.66610 ; skirt
G1 X71.183 Y116.399 E0.01835 ; skirt
G1 X70.635 Y116.181 E0.01846 ; skirt
G1 X70.161 Y115.838 E0.01835 ; skirt
G1 X69.784 Y115.386 E0.01846 ; skirt
G1 X69.504 Y114.779 E0.02095 ; skirt
G1 X69.405 Y114.115 E0.02107 ; skirt
G1 X69.405 Y61.543 E1.64835 ; skirt
G1 X69.483 Y60.967 E0.01823 ; skirt
G1 X69.701 Y60.424 E0.01835 ; skirt
G1 X70.045 Y59.950 E0.01835 ; skirt
G1 X70.491 Y59.577 E0.01823 ; skirt
G1 X71.046 Y59.321 E0.01919 ; skirt
G1 F8640
G1 X71.769 Y59.196 E-0.16937 ; wipe and retract
G1 F8640
G1 X74.327 Y59.196 E-0.59063 ; wipe and retract
G1 E-0.04000 F2100.00000 ; retract
G1 Z0.800 F10800.000 ; lift Z
G1 X72.369 Y62.160 F10800.000 ; move to first perimeter point
G1 Z0.200 F10800.000 ; restore layer Z
G1 E0.80000 F2100.00000 ; unretract
G1 F1200
G1 X156.195 Y62.160 E2.62830 ; perimeter
G1 X156.195 Y113.511 E1.61007 ; perimeter
G1 X72.369 Y113.511 E2.62830 ; perimeter
G1 X72.369 Y62.220 E1.60819 ; perimeter
G1 X71.992 Y61.783 F10800.000 ; move to first perimeter point
G1 F1200
G1 X156.572 Y61.783 E2.65195 ; perimeter
G1 X156.572 Y113.888 E1.63372 ; perimeter
G1 X71.992 Y113.888 E2.65195 ; perimeter
G1 X71.992 Y61.843 E1.63183 ; perimeter
G1 X72.385 Y61.856 F10800.000 ; move inwards before travel
G1 F8640
G1 X75.283 Y61.841 E-0.76000 ; wipe and retract
G1 E-0.04000 F2100.00000 ; retract
G1 Z0.800 F10800.000 ; lift Z
G1 X73.246 Y113.398 F10800.000 ; move to first infill point
G1 Z0.200 F10800.000 ; restore layer Z
G1 E0.80000 F2100.00000 ; unretract
G1 F1200
G1 X72.652 Y112.803 E0.02646 ; infill
G1 X72.652 Y112.268 E0.01682 ; infill
G1 X73.612 Y113.228 E0.04271 ; infill
G1 X74.147 Y113.228 E0.01682 ; infill
G1 X72.652 Y111.733 E0.06650 ; infill
G1 X72.652 Y111.198 E0.01682 ; infill
G1 X74.682 Y113.228 E0.09029 ; infill
G1 X75.216 Y113.228 E0.01682 ; infill
G1 X72.652 Y110.663 E0.11409 ; infill
G1 X72.652 Y110.128 E0.01682 ; infill
G1 X75.751 Y113.228 E0.13788 ; infill
G1 X76.286 Y113.228 E0.01682 ; infill
G1 X72.652 Y109.594 E0.16167 ; infill
G1 X72.652 Y109.059 E0.01682 ; infill
G1 X76.821 Y113.228 E0.18546 ; infill
G1 X77.356 Y113.228 E0.01682 ; infill
G1 X72.652 Y108.524 E0.20926 ; infill
G1 X72.652 Y107.989 E0.01682 ; infill
G1 X77.891 Y113.228 E0.23305 ; infill
G1 X78.426 Y113.228 E0.01682 ; infill
G1 X72.652 Y107.454 E0.25684 ; infill
G1 X72.652 Y106.919 E0.01682 ; infill
G1 X78.961 Y113.228 E0.28063 ; infill
G1 X79.496 Y113.228 E0.01682 ; infill
G1 X72.652 Y106.384 E0.30443 ; infill
G1 X72.652 Y105.849 E0.01682 ; infill
G1 X80.031 Y113.228 E0.32822 ; infill
G1 X80.566 Y113.228 E0.01682 ; infill
G1 X72.652 Y105.314 E0.35201 ; infill
G1 X72.652 Y104.779 E0.01682 ; infill
G1 X81.101 Y113.228 E0.37580 ; infill
G1 X81.635 Y113.228 E0.01682 ; infill
G1 X72.652 Y104.244 E0.39960 ; infill
G1 X72.652 Y103.709 E0.01682 ; infill
G1 X82.170 Y113.228 E0.42339 ; infill
G1 X82.705 Y113.228 E0.01682 ; infill
G1 X72.652 Y103.175 E0.44718 ; infill
G1 X72.652 Y102.640 E0.01682 ; infill
G1 X83.240 Y113.228 E0.47097 ; infill
G1 X83.775 Y113.228 E0.01682 ; infill
G1 X72.652 Y102.105 E0.49477 ; infill
G1 X72.652 Y101.570 E0.01682 ; infill
G1 X84.310 Y113.228 E0.51856 ; infill
G1 X84.845 Y113.228 E0.01682 ; infill
G1 X72.652 Y101.035 E0.54235 ; infill
G1 X72.652 Y100.500 E0.01682 ; infill
G1 X85.380 Y113.228 E0.56614 ; infill
G1 X85.915 Y113.228 E0.01682 ; infill
G1 X72.652 Y99.965 E0.58994 ; infill
G1 X72.652 Y99.430 E0.01682 ; infill
G1 X86.450 Y113.228 E0.61373 ; infill
G1 X86.985 Y113.228 E0.01682 ; infill
G1 X72.652 Y98.895 E0.63752 ; infill
G1 X72.652 Y98.360 E0.01682 ; infill
G1 X87.520 Y113.228 E0.66131 ; infill
G1 X88.055 Y113.228 E0.01682 ; infill
G1 X72.652 Y97.825 E0.68511 ; infill
G1 X72.652 Y97.290 E0.01682 ; infill
G1 X88.589 Y113.228 E0.70890 ; infill
G1 X89.124 Y113.228 E0.01682 ; infill
G1 X72.652 Y96.755 E0.73269 ; infill
G1 X72.652 Y96.221 E0.01682 ; infill
G1 X89.659 Y113.228 E0.75648 ; infill
G1 X90.194 Y113.228 E0.01682 ; infill
G1 X72.652 Y95.686 E0.78028 ; infill
G1 X72.652 Y95.151 E0.01682 ; infill
G1 X90.729 Y113.228 E0.80407 ; infill
G1 X91.264 Y113.228 E0.01682 ; infill
G1 X72.652 Y94.616 E0.82786 ; infill
G1 X72.652 Y94.081 E0.01682 ; infill
G1 X91.799 Y113.228 E0.85165 ; infill
G1 X92.334 Y113.228 E0.01682 ; infill
G1 X72.652 Y93.546 E0.87545 ; infill
G1 X72.652 Y93.011 E0.01682 ; infill
G1 X92.869 Y113.228 E0.89924 ; infill
G1 X93.404 Y113.228 E0.01682 ; infill
G1 X72.652 Y92.476 E0.92303 ; infill
G1 X72.652 Y91.941 E0.01682 ; infill
G1 X93.939 Y113.228 E0.94682 ; infill
G1 X94.474 Y113.228 E0.01682 ; infill
G1 X72.652 Y91.406 E0.97062 ; infill
G1 X72.652 Y90.871 E0.01682 ; infill
G1 X95.008 Y113.228 E0.99441 ; infill
G1 X95.543 Y113.228 E0.01682 ; infill
G1 X72.652 Y90.336 E1.01820 ; infill
G1 X72.652 Y89.802 E0.01682 ; infill
G1 X96.078 Y113.228 E1.04199 ; infill
G1 X96.613 Y113.228 E0.01682 ; infill
G1 X72.652 Y89.267 E1.06579 ; infill
G1 X72.652 Y88.732 E0.01682 ; infill
G1 X97.148 Y113.228 E1.08958 ; infill
G1 X97.683 Y113.228 E0.01682 ; infill
G1 X72.652 Y88.197 E1.11337 ; infill
G1 X72.652 Y87.662 E0.01682 ; infill
G1 X98.218 Y113.228 E1.13716 ; infill
G1 X98.753 Y113.228 E0.01682 ; infill
G1 X72.652 Y87.127 E1.16096 ; infill
G1 X72.652 Y86.592 E0.01682 ; infill
G1 X99.288 Y113.228 E1.18475 ; infill
G1 X99.823 Y113.228 E0.01682 ; infill
G1 X72.652 Y86.057 E1.20854 ; infill
G1 X72.652 Y85.522 E0.01682 ; infill
G1 X100.358 Y113.228 E1.23233 ; infill
G1 X100.893 Y113.228 E0.01682 ; infill
G1 X72.652 Y84.987 E1.25613 ; infill
G1 X72.652 Y84.452 E0.01682 ; infill
G1 X101.428 Y113.228 E1.27992 ; infill
G1 X101.962 Y113.228 E0.01682 ; infill
G1 X72.652 Y83.917 E1.30371 ; infill
G1 X72.652 Y83.383 E0.01682 ; infill
G1 X102.497 Y113.228 E1.32750 ; infill
G1 X103.032 Y113.228 E0.01682 ; infill
G1 X72.652 Y82.848 E1.35130 ; infill
G1 X72.652 Y82.313 E0.01682 ; infill
G1 X103.567 Y113.228 E1.37509 ; infill
G1 X104.102 Y113.228 E0.01682 ; infill
G1 X72.652 Y81.778 E1.39888 ; infill
G1 X72.652 Y81.243 E0.01682 ; infill
G1 X104.637 Y113.228 E1.42267 ; infill
G1 X105.172 Y113.228 E0.01682 ; infill
G1 X72.652 Y80.708 E1.44647 ; infill
G1 X72.652 Y80.173 E0.01682 ; infill
G1 X105.707 Y113.228 E1.47026 ; infill
G1 X106.242 Y113.228 E0.01682 ; infill
G1 X72.652 Y79.638 E1.49405 ; infill
G1 X72.652 Y79.103 E0.01682 ; infill
G1 X106.777 Y113.228 E1.51784 ; infill
G1 X107.312 Y113.228 E0.01682 ; infill
G1 X72.652 Y78.568 E1.54164 ; infill
G1 X72.652 Y78.033 E0.01682 ; infill
G1 X107.847 Y113.228 E1.56543 ; infill
G1 X108.381 Y113.228 E0.01682 ; infill
G1 X72.652 Y77.498 E1.58922 ; infill
G1 X72.652 Y76.963 E0.01682 ; infill
G1 X108.916 Y113.228 E1.61301 ; infill
G1 X109.451 Y113.228 E0.01682 ; infill
G1 X72.652 Y76.429 E1.63681 ; infill
G1 X72.652 Y75.894 E0.01682 ; infill
G1 X109.986 Y113.228 E1.66060 ; infill
G1 X110.521 Y113.228 E0.01682 ; infill
G1 X72.652 Y75.359 E1.68439 ; infill
G1 X72.652 Y74.824 E0.01682 ; infill
G1 X111.056 Y113.228 E1.70818 ; infill
G1 X111.591 Y113.228 E0.01682 ; infill
G1 X72.652 Y74.289 E1.73198 ; infill
G1 X72.652 Y73.754 E0.01682 ; infill
G1 X112.126 Y113.228 E1.75577 ; infill
G1 X112.661 Y113.228 E0.01682 ; infill
G1 X72.652 Y73.219 E1.77956 ; infill
G1 X72.652 Y72.684 E0.01682 ; infill
G1 X113.196 Y113.228 E1.80335 ; infill
G1 X113.731 Y113.228 E0.01682 ; infill
G1 X72.652 Y72.149 E1.82715 ; infill
G1 X72.652 Y71.614 E0.01682 ; infill
G1 X114.266 Y113.228 E1.85094 ; infill
G1 X114.800 Y113.228 E0.01682 ; infill
G1 X72.652 Y71.079 E1.87473 ; infill
G1 X72.652 Y70.544 E0.01682 ; infill
G1 X115.335 Y113.228 E1.89852 ; infill
G1 X115.870 Y113.228 E0.01682 ; infill
G1 X72.652 Y70.010 E1.92232 ; infill
G1 X72.652 Y69.475 E0.01682 ; infill
G1 X116.405 Y113.228 E1.94611 ; infill
G1 X116.940 Y113.228 E0.01682 ; infill
G1 X72.652 Y68.940 E1.96990 ; infill
G1 X72.652 Y68.405 E0.01682 ; infill
G1 X117.475 Y113.228 E1.99369 ; infill
G1 X118.010 Y113.228 E0.01682 ; infill
G1 X72.652 Y67.870 E2.01749 ; infill
G1 X72.652 Y67.335 E0.01682 ; infill
G1 X118.545 Y113.228 E2.04128 ; infill
G1 X119.080 Y113.228 E0.01682 ; infill
G1 X72.652 Y66.800 E2.06507 ; infill
G1 X72.652 Y66.265 E0.01682 ; infill
G1 X119.615 Y113.228 E2.08886 ; infill
G1 X120.150 Y113.228 E0.01682 ; infill
G1 X72.652 Y65.730 E2.11266 ; infill
G1 X72.652 Y65.195 E0.01682 ; infill
G1 X120.685 Y113.228 E2.13645 ; infill
G1 X121.220 Y113.228 E0.01682 ; infill
G1 X72.652 Y64.660 E2.16024 ; infill
G1 X72.652 Y64.125 E0.01682 ; infill
G1 X121.754 Y113.228 E2.18404 ; infill
G1 X122.289 Y113.228 E0.01682 ; infill
G1 X72.652 Y63.590 E2.20783 ; infill
G1 X72.652 Y63.056 E0.01682 ; infill
G1 X122.824 Y113.228 E2.23162 ; infill
G1 X123.359 Y113.228 E0.01682 ; infill
G1 X72.652 Y62.521 E2.25541 ; infill
G1 X72.652 Y62.443 E0.00244 ; infill
G1 X73.109 Y62.443 E0.01438 ; infill
G1 X123.894 Y113.228 E2.25886 ; infill
G1 X124.429 Y113.228 E0.01682 ; infill
G1 X73.644 Y62.443 E2.25886 ; infill
G1 X74.179 Y62.443 E0.01682 ; infill
G1 X124.964 Y113.228 E2.25886 ; infill
G1 X125.499 Y113.228 E0.01682 ; infill
G1 X74.714 Y62.443 E2.25886 ; infill
G1 X75.249 Y62.443 E0.01682 ; infill
G1 X126.034 Y113.228 E2.25886 ; infill
G1 X126.569 Y113.228 E0.01682 ; infill
G1 X75.783 Y62.443 E2.25886 ; infill
G1 X76.318 Y62.443 E0.01682 ; infill
G1 X127.104 Y113.228 E2.25886 ; infill
G1 X127.639 Y113.228 E0.01682 ; infill
G1 X76.853 Y62.443 E2.25886 ; infill
G1 X77.388 Y62.443 E0.01682 ; infill
G1 X128.173 Y113.228 E2.25886 ; infill
G1 X128.708 Y113.228 E0.01682 ; infill
G1 X77.923 Y62.443 E2.25886 ; infill
G1 X78.458 Y62.443 E0.01682 ; infill
G1 X129.243 Y113.228 E2.25886 ; infill
G1 X129.778 Y113.228 E0.01682 ; infill
G1 X78.993 Y62.443 E2.25886 ; infill
G1 X79.528 Y62.443 E0.01682 ; infill
G1 X130.313 Y113.228 E2.25886 ; infill
G1 X130.848 Y113.228 E0.01682 ; infill
G1 X80.063 Y62.443 E2.25886 ; infill
G1 X80.598 Y62.443 E0.01682 ; infill
G1 X131.383 Y113.228 E2.25886 ; infill
G1 X131.918 Y113.228 E0.01682 ; infill
G1 X81.133 Y62.443 E2.25886 ; infill
G1 X81.668 Y62.443 E0.01682 ; infill
G1 X132.453 Y113.228 E2.25886 ; infill
G1 X132.988 Y113.228 E0.01682 ; infill
G1 X82.202 Y62.443 E2.25886 ; infill
G1 X82.737 Y62.443 E0.01682 ; infill
G1 X133.523 Y113.228 E2.25886 ; infill
G1 X134.058 Y113.228 E0.01682 ; infill
G1 X83.272 Y62.443 E2.25886 ; infill
G1 X83.807 Y62.443 E0.01682 ; infill
G1 X134.592 Y113.228 E2.25886 ; infill
G1 X135.127 Y113.228 E0.01682 ; infill
G1 X84.342 Y62.443 E2.25886 ; infill
G1 X84.877 Y62.443 E0.01682 ; infill
G1 X135.662 Y113.228 E2.25886 ; infill
G1 X136.197 Y113.228 E0.01682 ; infill
G1 X85.412 Y62.443 E2.25886 ; infill
G1 X85.947 Y62.443 E0.01682 ; infill
G1 X136.732 Y113.228 E2.25886 ; infill
G1 X137.267 Y113.228 E0.01682 ; infill
G1 X86.482 Y62.443 E2.25886 ; infill
G1 X87.017 Y62.443 E0.01682 ; infill
G1 X137.802 Y113.228 E2.25886 ; infill
G1 X138.337 Y113.228 E0.01682 ; infill
G1 X87.552 Y62.443 E2.25886 ; infill
G1 X88.087 Y62.443 E0.01682 ; infill
G1 X138.872 Y113.228 E2.25886 ; infill
G1 X139.407 Y113.228 E0.01682 ; infill
G1 X88.622 Y62.443 E2.25886 ; infill
G1 X89.156 Y62.443 E0.01682 ; infill
G1 X139.942 Y113.228 E2.25886 ; infill
G1 X140.477 Y113.228 E0.01682 ; infill
G1 X89.691 Y62.443 E2.25886 ; infill
G1 X90.226 Y62.443 E0.01682 ; infill
G1 X141.012 Y113.228 E2.25886 ; infill
G1 X141.546 Y113.228 E0.01682 ; infill
G1 X90.761 Y62.443 E2.25886 ; infill
G1 X91.296 Y62.443 E0.01682 ; infill
G1 X142.081 Y113.228 E2.25886 ; infill
G1 X142.616 Y113.228 E0.01682 ; infill
G1 X91.831 Y62.443 E2.25886 ; infill
G1 X92.366 Y62.443 E0.01682 ; infill
G1 X143.151 Y113.228 E2.25886 ; infill
G1 X143.686 Y113.228 E0.01682 ; infill
G1 X92.901 Y62.443 E2.25886 ; infill
G1 X93.436 Y62.443 E0.01682 ; infill
G1 X144.221 Y113.228 E2.25886 ; infill
G1 X144.756 Y113.228 E0.01682 ; infill
G1 X93.971 Y62.443 E2.25886 ; infill
G1 X94.506 Y62.443 E0.01682 ; infill
G1 X145.291 Y113.228 E2.25886 ; infill
G1 X145.826 Y113.228 E0.01682 ; infill
G1 X95.041 Y62.443 E2.25886 ; infill
G1 X95.575 Y62.443 E0.01682 ; infill
G1 X146.361 Y113.228 E2.25886 ; infill
G1 X146.896 Y113.228 E0.01682 ; infill
G1 X96.110 Y62.443 E2.25886 ; infill
G1 X96.645 Y62.443 E0.01682 ; infill
G1 X147.431 Y113.228 E2.25886 ; infill
G1 X147.965 Y113.228 E0.01682 ; infill
G1 X97.180 Y62.443 E2.25886 ; infill
G1 X97.715 Y62.443 E0.01682 ; infill
G1 X148.500 Y113.228 E2.25886 ; infill
G1 X149.035 Y113.228 E0.01682 ; infill
G1 X98.250 Y62.443 E2.25886 ; infill
G1 X98.785 Y62.443 E0.01682 ; infill
G1 X149.570 Y113.228 E2.25886 ; infill
G1 X150.105 Y113.228 E0.01682 ; infill
G1 X99.320 Y62.443 E2.25886 ; infill
G1 X99.855 Y62.443 E0.01682 ; infill
G1 X150.640 Y113.228 E2.25886 ; infill
G1 X151.175 Y113.228 E0.01682 ; infill
G1 X100.390 Y62.443 E2.25886 ; infill
G1 X100.925 Y62.443 E0.01682 ; infill
G1 X151.710 Y113.228 E2.25886 ; infill
G1 X152.245 Y113.228 E0.01682 ; infill
G1 X101.460 Y62.443 E2.25886 ; infill
G1 X101.994 Y62.443 E0.01682 ; infill
G1 X152.780 Y113.228 E2.25886 ; infill
G1 X153.315 Y113.228 E0.01682 ; infill
G1 X102.529 Y62.443 E2.25886 ; infill
G1 X103.064 Y62.443 E0.01682 ; infill
G1 X153.850 Y113.228 E2.25886 ; infill
G1 X154.385 Y113.228 E0.01682 ; infill
G1 X103.599 Y62.443 E2.25886 ; infill
G1 X104.134 Y62.443 E0.01682 ; infill
G1 X154.919 Y113.228 E2.25886 ; infill
G1 X155.454 Y113.228 E0.01682 ; infill
G1 X104.669 Y62.443 E2.25886 ; infill
G1 X105.204 Y62.443 E0.01682 ; infill
G1 X155.912 Y113.151 E2.25542 ; infill
G1 X155.912 Y112.616 E0.01682 ; infill
G1 X105.739 Y62.443 E2.23162 ; infill
G1 X106.274 Y62.443 E0.01682 ; infill
G1 X155.912 Y112.081 E2.20783 ; infill
G1 X155.912 Y111.546 E0.01682 ; infill
G1 X106.809 Y62.443 E2.18404 ; infill
G1 X107.344 Y62.443 E0.01682 ; infill
G1 X155.912 Y111.011 E2.16025 ; infill
G1 X155.912 Y110.476 E0.01682 ; infill
G1 X107.879 Y62.443 E2.13645 ; infill
G1 X108.414 Y62.443 E0.01682 ; infill
G1 X155.912 Y109.941 E2.11266 ; infill
G1 X155.912 Y109.406 E0.01682 ; infill
G1 X108.948 Y62.443 E2.08887 ; infill
G1 X109.483 Y62.443 E0.01682 ; infill
G1 X155.912 Y108.871 E2.06508 ; infill
G1 X155.912 Y108.337 E0.01682 ; infill
G1 X110.018 Y62.443 E2.04128 ; infill
G1 X110.553 Y62.443 E0.01682 ; infill
G1 X155.912 Y107.802 E2.01749 ; infill
G1 X155.912 Y107.267 E0.01682 ; infill
G1 X111.088 Y62.443 E1.99370 ; infill
G1 X111.623 Y62.443 E0.01682 ; infill
G1 X155.912 Y106.732 E1.96991 ; infill
G1 X155.912 Y106.197 E0.01682 ; infill
G1 X112.158 Y62.443 E1.94611 ; infill
