; generated by Slic3r 1.37.2.1-prusa3d on 2019-03-21 at 00:24:06

; 

; external perimeters extrusion width = 0.30mm
; perimeters extrusion width = 0.35mm
; infill extrusion width = 0.50mm
; solid infill extrusion width = 0.35mm
; top infill extrusion width = 0.30mm
; first layer extrusion width = 0.42mm

M107 ; disable fan
M115 U3.4.0 ; tell printer latest fw version
M83  ; extruder relative mode
M104 S215 ; set extruder temp
M140 S60 ; set bed temp
M190 S60 ; wait for bed temp
M109 S215 ; wait for extruder temp
G28 W ; home all without mesh bed level
G80 ; mesh bed leveling
G1 Y-3.0 F1000.0 ; go outside print area
G92 E0.0
G1 X60.0 E9.0  F1000.0 ; intro line
G1 X100.0 E12.5  F1000.0 ; intro line
G92 E0.0
M221 S95
M900 K30
G21 ; set units to millimeters
G90 ; use absolute coordinates
M83 ; use relative distances for extrusion
;BEFORE_LAYER_CHANGE
G92 E0.0
;0.2


G1 E-0.80000 F2100.00000 ; retract
G1 Z0.600 F10800.000 ; lift Z
;AFTER_LAYER_CHANGE
;0.2
G1 X85.837 Y70.997 F10800.000 ; move to first skirt point
G1 Z0.200 F10800.000 ; restore layer Z
G1 E0.80000 F2100.00000 ; unretract
M204 S500 ; adjust acceleration
G1 F1200
G1 X86.505 Y70.897 E0.02119 ; skirt
G1 X171.521 Y70.897 E2.66563 ; skirt
G1 X172.416 Y71.074 E0.02860 ; skirt
G1 X173.179 Y71.574 E0.02860 ; skirt
G1 X173.699 Y72.329 E0.02872 ; skirt
G1 X173.894 Y73.220 E0.02860 ; skirt
G1 X173.894 Y125.845 E1.65002 ; skirt
G1 X173.813 Y126.417 E0.01811 ; skirt
G1 X173.595 Y126.956 E0.01823 ; skirt
G1 X173.254 Y127.422 E0.01811 ; skirt
G1 X172.809 Y127.795 E0.01823 ; skirt
G1 X172.198 Y128.077 E0.02107 ; skirt
G1 X171.530 Y128.176 E0.02119 ; skirt
G1 X86.499 Y128.176 E2.66610 ; skirt
G1 X85.919 Y128.100 E0.01835 ; skirt
G1 X85.371 Y127.882 E0.01846 ; skirt
G1 X84.897 Y127.539 E0.01835 ; skirt
G1 X84.520 Y127.087 E0.01846 ; skirt
G1 X84.240 Y126.480 E0.02095 ; skirt
G1 X84.141 Y125.816 E0.02107 ; skirt
G1 X84.141 Y73.244 E1.64835 ; skirt
G1 X84.219 Y72.668 E0.01823 ; skirt
G1 X84.437 Y72.125 E0.01835 ; skirt
G1 X84.781 Y71.651 E0.01835 ; skirt
G1 X85.227 Y71.278 E0.01823 ; skirt
G1 X85.782 Y71.022 E0.01919 ; skirt
G1 F8640
G1 X86.505 Y70.897 E-0.16937 ; wipe and retract
G1 F8640
G1 X89.063 Y70.897 E-0.59063 ; wipe and retract
G1 E-0.04000 F2100.00000 ; retract
G1 Z0.800 F10800.000 ; lift Z
G1 X87.482 Y74.239 F10800.000 ; move to first perimeter point
G1 Z0.200 F10800.000 ; restore layer Z
G1 E0.80000 F2100.00000 ; unretract
G1 F1200
G1 X170.553 Y74.239 E2.60465 ; perimeter
G1 X170.553 Y124.835 E1.58642 ; perimeter
G1 X87.482 Y124.835 E2.60465 ; perimeter
G1 X87.482 Y74.299 E1.58454 ; perimeter
G1 X87.105 Y73.862 F10800.000 ; move to first perimeter point
G1 F1200
G1 X170.931 Y73.862 E2.62830 ; perimeter
G1 X170.931 Y125.212 E1.61007 ; perimeter
G1 X87.105 Y125.212 E2.62830 ; perimeter
G1 X87.105 Y73.922 E1.60819 ; perimeter
G1 X86.728 Y73.484 F10800.000 ; move to first perimeter point
G1 F1200
G1 X171.308 Y73.484 E2.65195 ; perimeter
G1 X171.308 Y125.589 E1.63372 ; perimeter
G1 X86.728 Y125.589 E2.65195 ; perimeter
G1 X86.728 Y73.544 E1.63183 ; perimeter
G1 X87.121 Y73.558 F10800.000 ; move inwards before travel
G1 F8640
G1 X90.019 Y73.542 E-0.76000 ; wipe and retract
G1 E-0.04000 F2100.00000 ; retract
G1 Z0.800 F10800.000 ; lift Z
G1 X87.595 Y123.957 F10800.000 ; move to first infill point
G1 Z0.200 F10800.000 ; restore layer Z
G1 E0.80000 F2100.00000 ; unretract
G1 F1200
G1 X88.190 Y124.552 E0.02651 ; infill
G1 X88.726 Y124.552 E0.01685 ; infill
G1 X87.765 Y123.591 E0.04278 ; infill
G1 X87.765 Y123.056 E0.01685 ; infill
G1 X89.261 Y124.552 E0.06661 ; infill
G1 X89.796 Y124.552 E0.01685 ; infill
G1 X87.765 Y122.521 E0.09043 ; infill
G1 X87.765 Y121.985 E0.01685 ; infill
G1 X90.332 Y124.552 E0.11426 ; infill
G1 X90.867 Y124.552 E0.01685 ; infill
G1 X87.765 Y121.450 E0.13809 ; infill
G1 X87.765 Y120.915 E0.01685 ; infill
G1 X91.402 Y124.552 E0.16192 ; infill
G1 X91.938 Y124.552 E0.01685 ; infill
G1 X87.765 Y120.380 E0.18574 ; infill
G1 X87.765 Y119.844 E0.01685 ; infill
G1 X92.473 Y124.552 E0.20957 ; infill
G1 X93.008 Y124.552 E0.01685 ; infill
G1 X87.765 Y119.309 E0.23340 ; infill
G1 X87.765 Y118.774 E0.01685 ; infill
G1 X93.543 Y124.552 E0.25722 ; infill
G1 X94.079 Y124.552 E0.01685 ; infill
G1 X87.765 Y118.238 E0.28105 ; infill
G1 X87.765 Y117.703 E0.01685 ; infill
G1 X94.614 Y124.552 E0.30488 ; infill
G1 X95.149 Y124.552 E0.01685 ; infill
G1 X87.765 Y117.168 E0.32870 ; infill
G1 X87.765 Y116.632 E0.01685 ; infill
G1 X95.685 Y124.552 E0.35253 ; infill
G1 X96.220 Y124.552 E0.01685 ; infill
G1 X87.765 Y116.097 E0.37636 ; infill
G1 X87.765 Y115.562 E0.01685 ; infill
G1 X96.755 Y124.552 E0.40019 ; infill
G1 X97.291 Y124.552 E0.01685 ; infill
G1 X87.765 Y115.026 E0.42401 ; infill
G1 X87.765 Y114.491 E0.01685 ; infill
G1 X97.826 Y124.552 E0.44784 ; infill
G1 X98.361 Y124.552 E0.01685 ; infill
G1 X87.765 Y113.956 E0.47167 ; infill
G1 X87.765 Y113.421 E0.01685 ; infill
G1 X98.897 Y124.552 E0.49549 ; infill
G1 X99.432 Y124.552 E0.01685 ; infill
G1 X87.765 Y112.885 E0.51932 ; infill
G1 X87.765 Y112.350 E0.01685 ; infill
G1 X99.967 Y124.552 E0.54315 ; infill
G1 X100.502 Y124.552 E0.01685 ; infill
G1 X87.765 Y111.815 E0.56697 ; infill
G1 X87.765 Y111.279 E0.01685 ; infill
G1 X101.038 Y124.552 E0.59080 ; infill
G1 X101.573 Y124.552 E0.01685 ; infill
G1 X87.765 Y110.744 E0.61463 ; infill
G1 X87.765 Y110.209 E0.01685 ; infill
G1 X102.108 Y124.552 E0.63846 ; infill
G1 X102.644 Y124.552 E0.01685 ; infill
G1 X87.765 Y109.673 E0.66228 ; infill
G1 X87.765 Y109.138 E0.01685 ; infill
G1 X103.179 Y124.552 E0.68611 ; infill
G1 X103.714 Y124.552 E0.01685 ; infill
G1 X87.765 Y108.603 E0.70994 ; infill
G1 X87.765 Y108.067 E0.01685 ; infill
G1 X104.250 Y124.552 E0.73376 ; infill
G1 X104.785 Y124.552 E0.01685 ; infill
G1 X87.765 Y107.532 E0.75759 ; infill
G1 X87.765 Y106.997 E0.01685 ; infill
G1 X105.320 Y124.552 E0.78142 ; infill
G1 X105.856 Y124.552 E0.01685 ; infill
G1 X87.765 Y106.462 E0.80524 ; infill
G1 X87.765 Y105.926 E0.01685 ; infill
G1 X106.391 Y124.552 E0.82907 ; infill
G1 X106.926 Y124.552 E0.01685 ; infill
G1 X87.765 Y105.391 E0.85290 ; infill
G1 X87.765 Y104.856 E0.01685 ; infill
G1 X107.461 Y124.552 E0.87673 ; infill
G1 X107.997 Y124.552 E0.01685 ; infill
G1 X87.765 Y104.320 E0.90055 ; infill
G1 X87.765 Y103.785 E0.01685 ; infill
G1 X108.532 Y124.552 E0.92438 ; infill
G1 X109.067 Y124.552 E0.01685 ; infill
G1 X87.765 Y103.250 E0.94821 ; infill
G1 X87.765 Y102.714 E0.01685 ; infill
G1 X109.603 Y124.552 E0.97203 ; infill
G1 X110.138 Y124.552 E0.01685 ; infill
G1 X87.765 Y102.179 E0.99586 ; infill
G1 X87.765 Y101.644 E0.01685 ; infill
G1 X110.673 Y124.552 E1.01969 ; infill
G1 X111.209 Y124.552 E0.01685 ; infill
G1 X87.765 Y101.108 E1.04351 ; infill
G1 X87.765 Y100.573 E0.01685 ; infill
G1 X111.744 Y124.552 E1.06734 ; infill
G1 X112.279 Y124.552 E0.01685 ; infill
G1 X87.765 Y100.038 E1.09117 ; infill
G1 X87.765 Y99.503 E0.01685 ; infill
G1 X112.814 Y124.552 E1.11500 ; infill
G1 X113.350 Y124.552 E0.01685 ; infill
G1 X87.765 Y98.967 E1.13882 ; infill
G1 X87.765 Y98.432 E0.01685 ; infill
G1 X113.885 Y124.552 E1.16265 ; infill
G1 X114.420 Y124.552 E0.01685 ; infill
G1 X87.765 Y97.897 E1.18648 ; infill
G1 X87.765 Y97.361 E0.01685 ; infill
G1 X114.956 Y124.552 E1.21030 ; infill
G1 X115.491 Y124.552 E0.01685 ; infill
G1 X87.765 Y96.826 E1.23413 ; infill
G1 X87.765 Y96.291 E0.01685 ; infill
G1 X116.026 Y124.552 E1.25796 ; infill
G1 X116.562 Y124.552 E0.01685 ; infill
G1 X87.765 Y95.755 E1.28178 ; infill
G1 X87.765 Y95.220 E0.01685 ; infill
G1 X117.097 Y124.552 E1.30561 ; infill
G1 X117.632 Y124.552 E0.01685 ; infill
G1 X87.765 Y94.685 E1.32944 ; infill
G1 X87.765 Y94.150 E0.01685 ; infill
G1 X118.168 Y124.552 E1.35327 ; infill
G1 X118.703 Y124.552 E0.01685 ; infill
G1 X87.765 Y93.614 E1.37709 ; infill
G1 X87.765 Y93.079 E0.01685 ; infill
G1 X119.238 Y124.552 E1.40092 ; infill
G1 X119.773 Y124.552 E0.01685 ; infill
G1 X87.765 Y92.544 E1.42475 ; infill
G1 X87.765 Y92.008 E0.01685 ; infill
G1 X120.309 Y124.552 E1.44857 ; infill
G1 X120.844 Y124.552 E0.01685 ; infill
G1 X87.765 Y91.473 E1.47240 ; infill
G1 X87.765 Y90.938 E0.01685 ; infill
G1 X121.379 Y124.552 E1.49623 ; infill
G1 X121.915 Y124.552 E0.01685 ; infill
G1 X87.765 Y90.402 E1.52005 ; infill
G1 X87.765 Y89.867 E0.01685 ; infill
G1 X122.450 Y124.552 E1.54388 ; infill
G1 X122.985 Y124.552 E0.01685 ; infill
G1 X87.765 Y89.332 E1.56771 ; infill
G1 X87.765 Y88.796 E0.01685 ; infill
G1 X123.521 Y124.552 E1.59154 ; infill
G1 X124.056 Y124.552 E0.01685 ; infill
G1 X87.765 Y88.261 E1.61536 ; infill
G1 X87.765 Y87.726 E0.01685 ; infill
G1 X124.591 Y124.552 E1.63919 ; infill
G1 X125.127 Y124.552 E0.01685 ; infill
G1 X87.765 Y87.191 E1.66302 ; infill
G1 X87.765 Y86.655 E0.01685 ; infill
G1 X125.662 Y124.552 E1.68684 ; infill
G1 X126.197 Y124.552 E0.01685 ; infill
G1 X87.765 Y86.120 E1.71067 ; infill
G1 X87.765 Y85.585 E0.01685 ; infill
G1 X126.732 Y124.552 E1.73450 ; infill
G1 X127.268 Y124.552 E0.01685 ; infill
G1 X87.765 Y85.049 E1.75832 ; infill
G1 X87.765 Y84.514 E0.01685 ; infill
G1 X127.803 Y124.552 E1.78215 ; infill
G1 X128.338 Y124.552 E0.01685 ; infill
G1 X87.765 Y83.979 E1.80598 ; infill
G1 X87.765 Y83.443 E0.01685 ; infill
G1 X128.874 Y124.552 E1.82981 ; infill
G1 X129.409 Y124.552 E0.01685 ; infill
G1 X87.765 Y82.908 E1.85363 ; infill
G1 X87.765 Y82.373 E0.01685 ; infill
G1 X129.944 Y124.552 E1.87746 ; infill
G1 X130.480 Y124.552 E0.01685 ; infill
G1 X87.765 Y81.837 E1.90129 ; infill
G1 X87.765 Y81.302 E0.01685 ; infill
G1 X131.015 Y124.552 E1.92511 ; infill
G1 X131.550 Y124.552 E0.01685 ; infill
G1 X87.765 Y80.767 E1.94894 ; infill
G1 X87.765 Y80.232 E0.01685 ; infill
G1 X132.086 Y124.552 E1.97277 ; infill
G1 X132.621 Y124.552 E0.01685 ; infill
G1 X87.765 Y79.696 E1.99659 ; infill
G1 X87.765 Y79.161 E0.01685 ; infill
G1 X133.156 Y124.552 E2.02042 ; infill
G1 X133.691 Y124.552 E0.01685 ; infill
G1 X87.765 Y78.626 E2.04425 ; infill
G1 X87.765 Y78.090 E0.01685 ; infill
G1 X134.227 Y124.552 E2.06808 ; infill
G1 X134.762 Y124.552 E0.01685 ; infill
G1 X87.765 Y77.555 E2.09190 ; infill
G1 X87.765 Y77.020 E0.01685 ; infill
G1 X135.297 Y124.552 E2.11573 ; infill
G1 X135.833 Y124.552 E0.01685 ; infill
G1 X87.765 Y76.484 E2.13956 ; infill
G1 X87.765 Y75.949 E0.01685 ; infill
G1 X136.368 Y124.552 E2.16338 ; infill
G1 X136.903 Y124.552 E0.01685 ; infill
G1 X87.765 Y75.414 E2.18721 ; infill
G1 X87.765 Y74.878 E0.01685 ; infill
G1 X137.439 Y124.552 E2.21104 ; infill
G1 X137.974 Y124.552 E0.01685 ; infill
G1 X87.943 Y74.521 E2.22693 ; infill
G1 X88.478 Y74.521 E0.01685 ; infill
G1 X138.509 Y124.552 E2.22693 ; infill
G1 X139.045 Y124.552 E0.01685 ; infill
G1 X89.013 Y74.521 E2.22693 ; infill
G1 X89.549 Y74.521 E0.01685 ; infill
G1 X139.580 Y124.552 E2.22693 ; infill
G1 X140.115 Y124.552 E0.01685 ; infill
G1 X90.084 Y74.521 E2.22693 ; infill
G1 X90.619 Y74.521 E0.01685 ; infill
G1 X140.650 Y124.552 E2.22693 ; infill
G1 X141.186 Y124.552 E0.01685 ; infill
G1 X91.155 Y74.521 E2.22693 ; infill
G1 X91.690 Y74.521 E0.01685 ; infill
G1 X141.721 Y124.552 E2.22693 ; infill
G1 X142.256 Y124.552 E0.01685 ; infill
G1 X92.225 Y74.521 E2.22693 ; infill
G1 X92.761 Y74.521 E0.01685 ; infill
G1 X142.792 Y124.552 E2.22693 ; infill
G1 X143.327 Y124.552 E0.01685 ; infill
G1 X93.296 Y74.521 E2.22693 ; infill
G1 X93.831 Y74.521 E0.01685 ; infill
G1 X143.862 Y124.552 E2.22693 ; infill
G1 X144.398 Y124.552 E0.01685 ; infill
G1 X94.366 Y74.521 E2.22693 ; infill
G1 X94.902 Y74.521 E0.01685 ; infill
G1 X144.933 Y124.552 E2.22693 ; infill
G1 X145.468 Y124.552 E0.01685 ; infill
G1 X95.437 Y74.521 E2.22693 ; infill
G1 X95.972 Y74.521 E0.01685 ; infill
G1 X146.004 Y124.552 E2.22693 ; infill
G1 X146.539 Y124.552 E0.01685 ; infill
G1 X96.508 Y74.521 E2.22693 ; infill
G1 X97.043 Y74.521 E0.01685 ; infill
G1 X147.074 Y124.552 E2.22693 ; infill
G1 X147.609 Y124.552 E0.01685 ; infill
G1 X97.578 Y74.521 E2.22693 ; infill
G1 X98.114 Y74.521 E0.01685 ; infill
G1 X148.145 Y124.552 E2.22693 ; infill
G1 X148.680 Y124.552 E0.01685 ; infill
G1 X98.649 Y74.521 E2.22693 ; infill
G1 X99.184 Y74.521 E0.01685 ; infill
G1 X149.215 Y124.552 E2.22693 ; infill
G1 X149.751 Y124.552 E0.01685 ; infill
G1 X99.720 Y74.521 E2.22693 ; infill
G1 X100.255 Y74.521 E0.01685 ; infill
G1 X150.286 Y124.552 E2.22693 ; infill
G1 X150.821 Y124.552 E0.01685 ; infill
G1 X100.790 Y74.521 E2.22693 ; infill
G1 X101.325 Y74.521 E0.01685 ; infill
G1 X151.357 Y124.552 E2.22693 ; infill
G1 X151.892 Y124.552 E0.01685 ; infill
G1 X101.861 Y74.521 E2.22693 ; infill
G1 X102.396 Y74.521 E0.01685 ; infill
G1 X152.427 Y124.552 E2.22693 ; infill
G1 X152.962 Y124.552 E0.01685 ; infill
G1 X102.931 Y74.521 E2.22693 ; infill
G1 X103.467 Y74.521 E0.01685 ; infill
G1 X153.498 Y124.552 E2.22693 ; infill
G1 X154.033 Y124.552 E0.01685 ; infill
G1 X104.002 Y74.521 E2.22693 ; infill
G1 X104.537 Y74.521 E0.01685 ; infill
G1 X154.568 Y124.552 E2.22693 ; infill
G1 X155.104 Y124.552 E0.01685 ; infill
G1 X105.073 Y74.521 E2.22693 ; infill
G1 X105.608 Y74.521 E0.01685 ; infill
G1 X155.639 Y124.552 E2.22693 ; infill
G1 X156.174 Y124.552 E0.01685 ; infill
G1 X106.143 Y74.521 E2.22693 ; infill
G1 X106.679 Y74.521 E0.01685 ; infill
G1 X156.710 Y124.552 E2.22693 ; infill
G1 X157.245 Y124.552 E0.01685 ; infill
G1 X107.214 Y74.521 E2.22693 ; infill
G1 X107.749 Y74.521 E0.01685 ; infill
G1 X157.780 Y124.552 E2.22693 ; infill
G1 X158.316 Y124.552 E0.01685 ; infill
G1 X108.284 Y74.521 E2.22693 ; infill
G1 X108.820 Y74.521 E0.01685 ; infill
G1 X158.851 Y124.552 E2.22693 ; infill
G1 X159.386 Y124.552 E0.01685 ; infill
G1 X109.355 Y74.521 E2.22693 ; infill
G1 X109.890 Y74.521 E0.01685 ; infill
G1 X159.921 Y124.552 E2.22693 ; infill
G1 X160.457 Y124.552 E0.01685 ; infill
G1 X110.426 Y74.521 E2.22693 ; infill
G1 X110.961 Y74.521 E0.01685 ; infill
G1 X160.992 Y124.552 E2.22693 ; infill
G1 X161.527 Y124.552 E0.01685 ; infill
G1 X111.496 Y74.521 E2.22693 ; infill
G1 X112.032 Y74.521 E0.01685 ; infill
G1 X162.063 Y124.552 E2.22693 ; infill
G1 X162.598 Y124.552 E0.01685 ; infill
G1 X112.567 Y74.521 E2.22693 ; infill
G1 X113.102 Y74.521 E0.01685 ; infill
G1 X163.133 Y124.552 E2.22693 ; infill
G1 X163.669 Y124.552 E0.01685 ; infill
G1 X113.638 Y74.521 E2.22693 ; infill
G1 X114.173 Y74.521 E0.01685 ; infill
G1 X164.204 Y124.552 E2.22693 ; infill
G1 X164.739 Y124.552 E0.01685 ; infill
G1 X114.708 Y74.521 E2.22693 ; infill
G1 X115.243 Y74.521 E0.01685 ; infill
G1 X165.275 Y124.552 E2.22693 ; infill
G1 X165.810 Y124.552 E0.01685 ; infill
G1 X115.779 Y74.521 E2.22693 ; infill
G1 X116.314 Y74.521 E0.01685 ; infill
G1 X166.345 Y124.552 E2.22693 ; infill
G1 X166.880 Y124.552 E0.01685 ; infill
G1 X116.849 Y74.521 E2.22693 ; infill
G1 X117.385 Y74.521 E0.01685 ; infill
G1 X167.416 Y124.552 E2.22693 ; infill
G1 X167.951 Y124.552 E0.01685 ; infill
G1 X117.920 Y74.521 E2.22693 ; infill
G1 X118.455 Y74.521 E0.01685 ; infill
G1 X168.486 Y124.552 E2.22693 ; infill
G1 X169.022 Y124.552 E0.01685 ; infill
G1 X118.991 Y74.521 E2.22693 ; infill
G1 X119.526 Y74.521 E0.01685 ; infill
G1 X169.557 Y124.552 E2.22693 ; infill
G1 X170.092 Y124.552 E0.01685 ; infill
G1 X120.061 Y74.521 E2.22693 ; infill
G1 X120.597 Y74.521 E0.01685 ; infill
G1 X170.271 Y124.196 E2.21104 ; infill
G1 X170.271 Y123.660 E0.01685 ; infill
G1 X121.132 Y74.521 E2.18722 ; infill
G1 X121.667 Y74.521 E0.01685 ; infill
G1 X170.271 Y123.125 E2.16339 ; infill
G1 X170.271 Y122.590 E0.01685 ; infill
G1 X122.202 Y74.521 E2.13956 ; infill
G1 X122.738 Y74.521 E0.01685 ; infill
G1 X170.271 Y122.054 E2.11574 ; infill
G1 X170.271 Y121.519 E0.01685 ; infill
G1 X123.273 Y74.521 E2.09191 ; infill
G1 X123.808 Y74.521 E0.01685 ; infill
G1 X170.271 Y120.984 E2.06808 ; infill
G1 X170.271 Y120.448 E0.01685 ; infill
G1 X124.344 Y74.521 E2.04425 ; infill
G1 X124.879 Y74.521 E0.01685 ; infill
G1 X170.271 Y119.913 E2.02043 ; infill
G1 X170.271 Y119.378 E0.01685 ; infill
G1 X125.414 Y74.521 E1.99660 ; infill
G1 X125.950 Y74.521 E0.01685 ; infill
G1 X170.271 Y118.842 E1.97277 ; infill
G1 X170.271 Y118.307 E0.01685 ; infill
