; generated by Slic3r 1.37.2.1-prusa3d on 2019-03-24 at 21:25:03

; 

; external perimeters extrusion width = 0.45mm
; perimeters extrusion width = 0.45mm
; infill extrusion width = 0.45mm
; solid infill extrusion width = 0.45mm
; top infill extrusion width = 0.40mm
; first layer extrusion width = 0.42mm

M107 ; disable fan
M115 U3.4.0 ; tell printer latest fw version
M83  ; extruder relative mode
M104 S215 ; set extruder temp
M140 S60 ; set bed temp
M190 S60 ; wait for bed temp
M109 S215 ; wait for extruder temp
G28 W ; home all without mesh bed level
G80 ; mesh bed leveling
G1 Y-3.0 F1000.0 ; go outside print area
G92 E0.0
G1 X60.0 E9.0  F1000.0 ; intro line
G1 X100.0 E12.5  F1000.0 ; intro line
G92 E0.0
M221 S95
M900 K30
G21 ; set units to millimeters
G90 ; use absolute coordinates
M83 ; use relative distances for extrusion
;BEFORE_LAYER_CHANGE
G92 E0.0
;0.2


G1 E-0.80000 F2100.00000 ; retract
G1 Z0.600 F10800.000 ; lift Z
;AFTER_LAYER_CHANGE
;0.2
G1 X36.922 Y21.949 F10800.000 ; move to first skirt point
G1 Z0.200 F10800.000 ; restore layer Z
G1 E0.80000 F2100.00000 ; unretract
M204 S1000 ; adjust acceleration
G1 F1200
G1 X37.465 Y21.165 E0.02989 ; skirt
G1 X38.219 Y20.678 E0.02813 ; skirt
G1 X39.100 Y20.506 E0.02813 ; skirt
G1 X211.612 Y20.506 E5.40901 ; skirt
G1 X212.514 Y20.685 E0.02884 ; skirt
G1 X213.281 Y21.194 E0.02884 ; skirt
G1 X213.797 Y21.955 E0.02884 ; skirt
G1 X213.985 Y22.859 E0.02896 ; skirt
G1 X213.985 Y185.469 E5.09853 ; skirt
G1 X213.793 Y186.395 E0.02966 ; skirt
G1 X213.251 Y187.176 E0.02977 ; skirt
G1 X212.497 Y187.662 E0.02813 ; skirt
G1 X211.617 Y187.835 E0.02813 ; skirt
G1 X39.108 Y187.835 E5.40889 ; skirt
G1 X38.174 Y187.644 E0.02989 ; skirt
G1 X37.390 Y187.101 E0.02989 ; skirt
G1 X36.904 Y186.347 E0.02813 ; skirt
G1 X36.731 Y185.467 E0.02813 ; skirt
G1 X36.731 Y22.883 E5.09770 ; skirt
G1 X36.910 Y22.008 E0.02801 ; skirt
G1 F8640
G1 X37.465 Y21.165 E-0.23294 ; wipe and retract
G1 F8640
G1 X38.219 Y20.678 E-0.20719 ; wipe and retract
G1 F8640
G1 X39.100 Y20.506 E-0.20719 ; wipe and retract
G1 F8640
G1 X39.588 Y20.506 E-0.11268 ; wipe and retract
G1 E-0.04000 F2100.00000 ; retract
G1 Z0.800 F10800.000 ; lift Z
G1 X39.695 Y23.470 F10800.000 ; move to first perimeter point
G1 Z0.200 F10800.000 ; restore layer Z
G1 E0.80000 F2100.00000 ; unretract
G1 F1200
G1 X123.521 Y23.470 E2.62830 ; perimeter
G1 X123.521 Y74.821 E1.61007 ; perimeter
G1 X39.695 Y74.821 E2.62830 ; perimeter
G1 X39.695 Y23.530 E1.60819 ; perimeter
G1 X39.318 Y23.093 F10800.000 ; move to first perimeter point
G1 F1200
G1 X123.898 Y23.093 E2.65195 ; perimeter
G1 X123.898 Y75.198 E1.63372 ; perimeter
G1 X39.318 Y75.198 E2.65195 ; perimeter
G1 X39.318 Y23.153 E1.63183 ; perimeter
G1 X39.711 Y23.166 F10800.000 ; move inwards before travel
G1 F8640
G1 X42.610 Y23.151 E-0.76000 ; wipe and retract
G1 E-0.04000 F2100.00000 ; retract
G1 Z0.800 F10800.000 ; lift Z
G1 X40.573 Y74.708 F10800.000 ; move to first infill point
G1 Z0.200 F10800.000 ; restore layer Z
G1 E0.80000 F2100.00000 ; unretract
G1 F1200
G1 X39.978 Y74.113 E0.02646 ; infill
G1 X39.978 Y73.578 E0.01682 ; infill
G1 X40.938 Y74.538 E0.04271 ; infill
G1 X41.473 Y74.538 E0.01682 ; infill
G1 X39.978 Y73.043 E0.06650 ; infill
G1 X39.978 Y72.508 E0.01682 ; infill
G1 X42.008 Y74.538 E0.09029 ; infill
G1 X42.543 Y74.538 E0.01682 ; infill
G1 X39.978 Y71.973 E0.11409 ; infill
G1 X39.978 Y71.438 E0.01682 ; infill
G1 X43.078 Y74.538 E0.13788 ; infill
G1 X43.613 Y74.538 E0.01682 ; infill
G1 X39.978 Y70.903 E0.16167 ; infill
G1 X39.978 Y70.368 E0.01682 ; infill
G1 X44.148 Y74.538 E0.18546 ; infill
G1 X44.683 Y74.538 E0.01682 ; infill
G1 X39.978 Y69.833 E0.20926 ; infill
G1 X39.978 Y69.298 E0.01682 ; infill
G1 X45.218 Y74.538 E0.23305 ; infill
G1 X45.753 Y74.538 E0.01682 ; infill
G1 X39.978 Y68.764 E0.25684 ; infill
G1 X39.978 Y68.229 E0.01682 ; infill
G1 X46.287 Y74.538 E0.28063 ; infill
G1 X46.822 Y74.538 E0.01682 ; infill
G1 X39.978 Y67.694 E0.30443 ; infill
G1 X39.978 Y67.159 E0.01682 ; infill
G1 X47.357 Y74.538 E0.32822 ; infill
G1 X47.892 Y74.538 E0.01682 ; infill
G1 X39.978 Y66.624 E0.35201 ; infill
G1 X39.978 Y66.089 E0.01682 ; infill
G1 X48.427 Y74.538 E0.37580 ; infill
G1 X48.962 Y74.538 E0.01682 ; infill
G1 X39.978 Y65.554 E0.39960 ; infill
G1 X39.978 Y65.019 E0.01682 ; infill
G1 X49.497 Y74.538 E0.42339 ; infill
G1 X50.032 Y74.538 E0.01682 ; infill
G1 X39.978 Y64.484 E0.44718 ; infill
G1 X39.978 Y63.949 E0.01682 ; infill
G1 X50.567 Y74.538 E0.47097 ; infill
G1 X51.102 Y74.538 E0.01682 ; infill
G1 X39.978 Y63.414 E0.49477 ; infill
G1 X39.978 Y62.879 E0.01682 ; infill
G1 X51.637 Y74.538 E0.51856 ; infill
G1 X52.172 Y74.538 E0.01682 ; infill
G1 X39.978 Y62.345 E0.54235 ; infill
G1 X39.978 Y61.810 E0.01682 ; infill
G1 X52.707 Y74.538 E0.56614 ; infill
G1 X53.241 Y74.538 E0.01682 ; infill
G1 X39.978 Y61.275 E0.58994 ; infill
G1 X39.978 Y60.740 E0.01682 ; infill
G1 X53.776 Y74.538 E0.61373 ; infill
G1 X54.311 Y74.538 E0.01682 ; infill
G1 X39.978 Y60.205 E0.63752 ; infill
G1 X39.978 Y59.670 E0.01682 ; infill
G1 X54.846 Y74.538 E0.66131 ; infill
G1 X55.381 Y74.538 E0.01682 ; infill
G1 X39.978 Y59.135 E0.68511 ; infill
G1 X39.978 Y58.600 E0.01682 ; infill
G1 X55.916 Y74.538 E0.70890 ; infill
G1 X56.451 Y74.538 E0.01682 ; infill
G1 X39.978 Y58.065 E0.73269 ; infill
G1 X39.978 Y57.530 E0.01682 ; infill
G1 X56.986 Y74.538 E0.75648 ; infill
G1 X57.521 Y74.538 E0.01682 ; infill
G1 X39.978 Y56.995 E0.78028 ; infill
G1 X39.978 Y56.460 E0.01682 ; infill
G1 X58.056 Y74.538 E0.80407 ; infill
G1 X58.591 Y74.538 E0.01682 ; infill
G1 X39.978 Y55.925 E0.82786 ; infill
G1 X39.978 Y55.391 E0.01682 ; infill
G1 X59.126 Y74.538 E0.85165 ; infill
G1 X59.660 Y74.538 E0.01682 ; infill
G1 X39.978 Y54.856 E0.87545 ; infill
G1 X39.978 Y54.321 E0.01682 ; infill
G1 X60.195 Y74.538 E0.89924 ; infill
G1 X60.730 Y74.538 E0.01682 ; infill
G1 X39.978 Y53.786 E0.92303 ; infill
G1 X39.978 Y53.251 E0.01682 ; infill
G1 X61.265 Y74.538 E0.94682 ; infill
G1 X61.800 Y74.538 E0.01682 ; infill
G1 X39.978 Y52.716 E0.97062 ; infill
G1 X39.978 Y52.181 E0.01682 ; infill
G1 X62.335 Y74.538 E0.99441 ; infill
G1 X62.870 Y74.538 E0.01682 ; infill
G1 X39.978 Y51.646 E1.01820 ; infill
G1 X39.978 Y51.111 E0.01682 ; infill
G1 X63.405 Y74.538 E1.04199 ; infill
G1 X63.940 Y74.538 E0.01682 ; infill
G1 X39.978 Y50.576 E1.06579 ; infill
G1 X39.978 Y50.041 E0.01682 ; infill
G1 X64.475 Y74.538 E1.08958 ; infill
G1 X65.010 Y74.538 E0.01682 ; infill
G1 X39.978 Y49.506 E1.11337 ; infill
G1 X39.978 Y48.972 E0.01682 ; infill
G1 X65.545 Y74.538 E1.13716 ; infill
G1 X66.079 Y74.538 E0.01682 ; infill
G1 X39.978 Y48.437 E1.16096 ; infill
G1 X39.978 Y47.902 E0.01682 ; infill
G1 X66.614 Y74.538 E1.18475 ; infill
G1 X67.149 Y74.538 E0.01682 ; infill
G1 X39.978 Y47.367 E1.20854 ; infill
G1 X39.978 Y46.832 E0.01682 ; infill
G1 X67.684 Y74.538 E1.23233 ; infill
G1 X68.219 Y74.538 E0.01682 ; infill
G1 X39.978 Y46.297 E1.25613 ; infill
G1 X39.978 Y45.762 E0.01682 ; infill
G1 X68.754 Y74.538 E1.27992 ; infill
G1 X69.289 Y74.538 E0.01682 ; infill
G1 X39.978 Y45.227 E1.30371 ; infill
G1 X39.978 Y44.692 E0.01682 ; infill
G1 X69.824 Y74.538 E1.32750 ; infill
G1 X70.359 Y74.538 E0.01682 ; infill
G1 X39.978 Y44.157 E1.35130 ; infill
G1 X39.978 Y43.622 E0.01682 ; infill
G1 X70.894 Y74.538 E1.37509 ; infill
G1 X71.429 Y74.538 E0.01682 ; infill
G1 X39.978 Y43.087 E1.39888 ; infill
G1 X39.978 Y42.553 E0.01682 ; infill
G1 X71.964 Y74.538 E1.42267 ; infill
G1 X72.499 Y74.538 E0.01682 ; infill
G1 X39.978 Y42.018 E1.44647 ; infill
G1 X39.978 Y41.483 E0.01682 ; infill
G1 X73.033 Y74.538 E1.47026 ; infill
G1 X73.568 Y74.538 E0.01682 ; infill
G1 X39.978 Y40.948 E1.49405 ; infill
G1 X39.978 Y40.413 E0.01682 ; infill
G1 X74.103 Y74.538 E1.51784 ; infill
G1 X74.638 Y74.538 E0.01682 ; infill
G1 X39.978 Y39.878 E1.54164 ; infill
G1 X39.978 Y39.343 E0.01682 ; infill
G1 X75.173 Y74.538 E1.56543 ; infill
G1 X75.708 Y74.538 E0.01682 ; infill
G1 X39.978 Y38.808 E1.58922 ; infill
G1 X39.978 Y38.273 E0.01682 ; infill
G1 X76.243 Y74.538 E1.61301 ; infill
G1 X76.778 Y74.538 E0.01682 ; infill
G1 X39.978 Y37.738 E1.63681 ; infill
G1 X39.978 Y37.203 E0.01682 ; infill
G1 X77.313 Y74.538 E1.66060 ; infill
G1 X77.848 Y74.538 E0.01682 ; infill
G1 X39.978 Y36.668 E1.68439 ; infill
G1 X39.978 Y36.133 E0.01682 ; infill
G1 X78.383 Y74.538 E1.70818 ; infill
G1 X78.918 Y74.538 E0.01682 ; infill
G1 X39.978 Y35.599 E1.73198 ; infill
G1 X39.978 Y35.064 E0.01682 ; infill
G1 X79.452 Y74.538 E1.75577 ; infill
G1 X79.987 Y74.538 E0.01682 ; infill
G1 X39.978 Y34.529 E1.77956 ; infill
G1 X39.978 Y33.994 E0.01682 ; infill
G1 X80.522 Y74.538 E1.80335 ; infill
G1 X81.057 Y74.538 E0.01682 ; infill
G1 X39.978 Y33.459 E1.82715 ; infill
G1 X39.978 Y32.924 E0.01682 ; infill
G1 X81.592 Y74.538 E1.85094 ; infill
G1 X82.127 Y74.538 E0.01682 ; infill
G1 X39.978 Y32.389 E1.87473 ; infill
G1 X39.978 Y31.854 E0.01682 ; infill
G1 X82.662 Y74.538 E1.89852 ; infill
G1 X83.197 Y74.538 E0.01682 ; infill
G1 X39.978 Y31.319 E1.92232 ; infill
G1 X39.978 Y30.784 E0.01682 ; infill
G1 X83.732 Y74.538 E1.94611 ; infill
G1 X84.267 Y74.538 E0.01682 ; infill
G1 X39.978 Y30.249 E1.96990 ; infill
G1 X39.978 Y29.714 E0.01682 ; infill
G1 X84.802 Y74.538 E1.99369 ; infill
G1 X85.337 Y74.538 E0.01682 ; infill
G1 X39.978 Y29.180 E2.01749 ; infill
G1 X39.978 Y28.645 E0.01682 ; infill
G1 X85.871 Y74.538 E2.04128 ; infill
G1 X86.406 Y74.538 E0.01682 ; infill
G1 X39.978 Y28.110 E2.06507 ; infill
G1 X39.978 Y27.575 E0.01682 ; infill
G1 X86.941 Y74.538 E2.08886 ; infill
G1 X87.476 Y74.538 E0.01682 ; infill
G1 X39.978 Y27.040 E2.11266 ; infill
G1 X39.978 Y26.505 E0.01682 ; infill
G1 X88.011 Y74.538 E2.13645 ; infill
G1 X88.546 Y74.538 E0.01682 ; infill
G1 X39.978 Y25.970 E2.16024 ; infill
G1 X39.978 Y25.435 E0.01682 ; infill
G1 X89.081 Y74.538 E2.18404 ; infill
G1 X89.616 Y74.538 E0.01682 ; infill
G1 X39.978 Y24.900 E2.20783 ; infill
G1 X39.978 Y24.365 E0.01682 ; infill
G1 X90.151 Y74.538 E2.23162 ; infill
G1 X90.686 Y74.538 E0.01682 ; infill
G1 X39.978 Y23.830 E2.25541 ; infill
G1 X39.978 Y23.753 E0.00244 ; infill
G1 X40.435 Y23.753 E0.01438 ; infill
G1 X91.221 Y74.538 E2.25886 ; infill
G1 X91.756 Y74.538 E0.01682 ; infill
G1 X40.970 Y23.753 E2.25886 ; infill
G1 X41.505 Y23.753 E0.01682 ; infill
G1 X92.291 Y74.538 E2.25886 ; infill
G1 X92.825 Y74.538 E0.01682 ; infill
G1 X42.040 Y23.753 E2.25886 ; infill
G1 X42.575 Y23.753 E0.01682 ; infill
G1 X93.360 Y74.538 E2.25886 ; infill
G1 X93.895 Y74.538 E0.01682 ; infill
G1 X43.110 Y23.753 E2.25886 ; infill
G1 X43.645 Y23.753 E0.01682 ; infill
G1 X94.430 Y74.538 E2.25886 ; infill
G1 X94.965 Y74.538 E0.01682 ; infill
G1 X44.180 Y23.753 E2.25886 ; infill
G1 X44.715 Y23.753 E0.01682 ; infill
G1 X95.500 Y74.538 E2.25886 ; infill
G1 X96.035 Y74.538 E0.01682 ; infill
G1 X45.250 Y23.753 E2.25886 ; infill
G1 X45.785 Y23.753 E0.01682 ; infill
G1 X96.570 Y74.538 E2.25886 ; infill
G1 X97.105 Y74.538 E0.01682 ; infill
G1 X46.320 Y23.753 E2.25886 ; infill
G1 X46.854 Y23.753 E0.01682 ; infill
G1 X97.640 Y74.538 E2.25886 ; infill
G1 X98.175 Y74.538 E0.01682 ; infill
G1 X47.389 Y23.753 E2.25886 ; infill
G1 X47.924 Y23.753 E0.01682 ; infill
G1 X98.710 Y74.538 E2.25886 ; infill
G1 X99.244 Y74.538 E0.01682 ; infill
G1 X48.459 Y23.753 E2.25886 ; infill
G1 X48.994 Y23.753 E0.01682 ; infill
G1 X99.779 Y74.538 E2.25886 ; infill
G1 X100.314 Y74.538 E0.01682 ; infill
G1 X49.529 Y23.753 E2.25886 ; infill
G1 X50.064 Y23.753 E0.01682 ; infill
G1 X100.849 Y74.538 E2.25886 ; infill
G1 X101.384 Y74.538 E0.01682 ; infill
G1 X50.599 Y23.753 E2.25886 ; infill
G1 X51.134 Y23.753 E0.01682 ; infill
G1 X101.919 Y74.538 E2.25886 ; infill
G1 X102.454 Y74.538 E0.01682 ; infill
G1 X51.669 Y23.753 E2.25886 ; infill
G1 X52.204 Y23.753 E0.01682 ; infill
G1 X102.989 Y74.538 E2.25886 ; infill
G1 X103.524 Y74.538 E0.01682 ; infill
G1 X52.739 Y23.753 E2.25886 ; infill
G1 X53.273 Y23.753 E0.01682 ; infill
G1 X104.059 Y74.538 E2.25886 ; infill
G1 X104.594 Y74.538 E0.01682 ; infill
G1 X53.808 Y23.753 E2.25886 ; infill
G1 X54.343 Y23.753 E0.01682 ; infill
G1 X105.129 Y74.538 E2.25886 ; infill
G1 X105.664 Y74.538 E0.01682 ; infill
G1 X54.878 Y23.753 E2.25886 ; infill
G1 X55.413 Y23.753 E0.01682 ; infill
G1 X106.198 Y74.538 E2.25886 ; infill
G1 X106.733 Y74.538 E0.01682 ; infill
G1 X55.948 Y23.753 E2.25886 ; infill
G1 X56.483 Y23.753 E0.01682 ; infill
G1 X107.268 Y74.538 E2.25886 ; infill
G1 X107.803 Y74.538 E0.01682 ; infill
G1 X57.018 Y23.753 E2.25886 ; infill
G1 X57.553 Y23.753 E0.01682 ; infill
G1 X108.338 Y74.538 E2.25886 ; infill
G1 X108.873 Y74.538 E0.01682 ; infill
G1 X58.088 Y23.753 E2.25886 ; infill
G1 X58.623 Y23.753 E0.01682 ; infill
G1 X109.408 Y74.538 E2.25886 ; infill
G1 X109.943 Y74.538 E0.01682 ; infill
G1 X59.158 Y23.753 E2.25886 ; infill
G1 X59.693 Y23.753 E0.01682 ; infill
G1 X110.478 Y74.538 E2.25886 ; infill
G1 X111.013 Y74.538 E0.01682 ; infill
G1 X60.227 Y23.753 E2.25886 ; infill
G1 X60.762 Y23.753 E0.01682 ; infill
G1 X111.548 Y74.538 E2.25886 ; infill
G1 X112.083 Y74.538 E0.01682 ; infill
G1 X61.297 Y23.753 E2.25886 ; infill
G1 X61.832 Y23.753 E0.01682 ; infill
G1 X112.617 Y74.538 E2.25886 ; infill
G1 X113.152 Y74.538 E0.01682 ; infill
G1 X62.367 Y23.753 E2.25886 ; infill
G1 X62.902 Y23.753 E0.01682 ; infill
G1 X113.687 Y74.538 E2.25886 ; infill
G1 X114.222 Y74.538 E0.01682 ; infill
G1 X63.437 Y23.753 E2.25886 ; infill
G1 X63.972 Y23.753 E0.01682 ; infill
G1 X114.757 Y74.538 E2.25886 ; infill
G1 X115.292 Y74.538 E0.01682 ; infill
G1 X64.507 Y23.753 E2.25886 ; infill
G1 X65.042 Y23.753 E0.01682 ; infill
G1 X115.827 Y74.538 E2.25886 ; infill
G1 X116.362 Y74.538 E0.01682 ; infill
G1 X65.577 Y23.753 E2.25886 ; infill
G1 X66.112 Y23.753 E0.01682 ; infill
G1 X116.897 Y74.538 E2.25886 ; infill
G1 X117.432 Y74.538 E0.01682 ; infill
G1 X66.646 Y23.753 E2.25886 ; infill
G1 X67.181 Y23.753 E0.01682 ; infill
G1 X117.967 Y74.538 E2.25886 ; infill
G1 X118.502 Y74.538 E0.01682 ; infill
G1 X67.716 Y23.753 E2.25886 ; infill
G1 X68.251 Y23.753 E0.01682 ; infill
G1 X119.036 Y74.538 E2.25886 ; infill
G1 X119.571 Y74.538 E0.01682 ; infill
G1 X68.786 Y23.753 E2.25886 ; infill
G1 X69.321 Y23.753 E0.01682 ; infill
G1 X120.106 Y74.538 E2.25886 ; infill
G1 X120.641 Y74.538 E0.01682 ; infill
G1 X69.856 Y23.753 E2.25886 ; infill
G1 X70.391 Y23.753 E0.01682 ; infill
G1 X121.176 Y74.538 E2.25886 ; infill
G1 X121.711 Y74.538 E0.01682 ; infill
G1 X70.926 Y23.753 E2.25886 ; infill
G1 X71.461 Y23.753 E0.01682 ; infill
G1 X122.246 Y74.538 E2.25886 ; infill
G1 X122.781 Y74.538 E0.01682 ; infill
G1 X71.996 Y23.753 E2.25886 ; infill
G1 X72.531 Y23.753 E0.01682 ; infill
G1 X123.238 Y74.461 E2.25542 ; infill
G1 X123.238 Y73.926 E0.01682 ; infill
G1 X73.065 Y23.753 E2.23162 ; infill
G1 X73.600 Y23.753 E0.01682 ; infill
G1 X123.238 Y73.391 E2.20783 ; infill
G1 X123.238 Y72.856 E0.01682 ; infill
G1 X74.135 Y23.753 E2.18404 ; infill
G1 X74.670 Y23.753 E0.01682 ; infill
G1 X123.238 Y72.321 E2.16025 ; infill
G1 X123.238 Y71.786 E0.01682 ; infill
G1 X75.205 Y23.753 E2.13645 ; infill
G1 X75.740 Y23.753 E0.01682 ; infill
G1 X123.238 Y71.251 E2.11266 ; infill
G1 X123.238 Y70.716 E0.01682 ; infill
G1 X76.275 Y23.753 E2.08887 ; infill
G1 X76.810 Y23.753 E0.01682 ; infill
G1 X123.238 Y70.181 E2.06508 ; infill
G1 X123.238 Y69.646 E0.01682 ; infill
G1 X77.345 Y23.753 E2.04128 ; infill
G1 X77.880 Y23.753 E0.01682 ; infill
G1 X123.238 Y69.111 E2.01749 ; infill
G1 X123.238 Y68.576 E0.01682 ; infill
G1 X78.415 Y23.753 E1.99370 ; infill
G1 X78.950 Y23.753 E0.01682 ; infill
G1 X123.238 Y68.042 E1.96991 ; infill
G1 X123.238 Y67.507 E0.01682 ; infill
G1 X79.485 Y23.753 E1.94611 ; infill
G1 X80.019 Y23.753 E0.01682 ; infill
G1 X123.238 Y66.972 E1.92232 ; infill
G1 X123.238 Y66.437 E0.01682 ; infill
G1 X80.554 Y23.753 E1.89853 ; infill
G1 X81.089 Y23.753 E0.01682 ; infill
G1 X123.238 Y65.902 E1.87474 ; infill
G1 X123.238 Y65.367 E0.01682 ; infill
G1 X81.624 Y23.753 E1.85094 ; infill
G1 X82.159 Y23.753 E0.01682 ; infill
G1 X123.238 Y64.832 E1.82715 ; infill
