; generated by Slic3r 1.37.2.1-prusa3d on 2018-06-11 at 19:36:16

; 

; external perimeters extrusion width = 0.45mm
; perimeters extrusion width = 0.45mm
; infill extrusion width = 0.45mm
; solid infill extrusion width = 0.45mm
; top infill extrusion width = 0.40mm
; first layer extrusion width = 0.42mm

M107 ; disable fan
M115 U3.1.1-RC5 ; tell printer latest fw version
M83  ; extruder relative mode
M104 S215 ; set extruder temp
M140 S60 ; set bed temp
M190 S60 ; wait for bed temp
M109 S215 ; wait for extruder temp
G28 W ; home all without mesh bed level
G80 ; mesh bed leveling
G1 Y-3.0 F1000.0 ; go outside print area
G92 E0.0
G1 X60.0 E9.0  F1000.0 ; intro line
G1 X100.0 E12.5  F1000.0 ; intro line
G92 E0.0
M221 S95
M900 K30
G21 ; set units to millimeters
G90 ; use absolute coordinates
M83 ; use relative distances for extrusion
;BEFORE_LAYER_CHANGE
;0.2


G1 E-0.80000 F2100.00000 ; retract
G1 Z0.600 F12000.000 ; lift Z
;AFTER_LAYER_CHANGE
;0.2
G1 X112.071 Y83.809 F12000.000 ; move to first skirt point
G1 Z0.200 F12000.000 ; restore layer Z
G1 E0.80000 F2100.00000 ; unretract
M204 S1000 ; adjust acceleration
G1 F1800
G1 X112.551 Y83.443 E0.01894 ; skirt
G1 X113.108 Y83.209 E0.01894 ; skirt
G1 X113.709 Y83.123 E0.01906 ; skirt
G1 X136.262 Y83.123 E0.70713 ; skirt
G1 X136.872 Y83.204 E0.01929 ; skirt
G1 X137.444 Y83.440 E0.01941 ; skirt
G1 X137.936 Y83.816 E0.01941 ; skirt
G1 X138.314 Y84.306 E0.01941 ; skirt
G1 X149.628 Y103.908 E0.70964 ; skirt
G1 X149.829 Y104.450 E0.01811 ; skirt
G1 X149.894 Y105.024 E0.01811 ; skirt
G1 X149.818 Y105.596 E0.01811 ; skirt
G1 X149.604 Y106.137 E0.01823 ; skirt
G1 X138.300 Y125.718 E0.70892 ; skirt
G1 X137.913 Y126.207 E0.01953 ; skirt
G1 X137.410 Y126.580 E0.01965 ; skirt
G1 X136.856 Y126.801 E0.01870 ; skirt
G1 X136.260 Y126.877 E0.01882 ; skirt
G1 X113.711 Y126.877 E0.70701 ; skirt
G1 X113.139 Y126.799 E0.01811 ; skirt
G1 X112.605 Y126.588 E0.01799 ; skirt
G1 X112.097 Y126.216 E0.01977 ; skirt
G1 X111.701 Y125.720 E0.01989 ; skirt
G1 X100.390 Y106.125 E0.70940 ; skirt
G1 X100.178 Y105.580 E0.01835 ; skirt
G1 X100.106 Y104.995 E0.01846 ; skirt
G1 X100.180 Y104.411 E0.01846 ; skirt
G1 X100.396 Y103.863 E0.01846 ; skirt
G1 X111.698 Y84.285 E0.70880 ; skirt
G1 X112.034 Y83.857 E0.01706 ; skirt
G1 F9600
G1 X112.551 Y83.443 E-0.13762 ; wipe and retract
G1 F9600
G1 X113.108 Y83.209 E-0.12552 ; wipe and retract
G1 F9600
G1 X113.709 Y83.123 E-0.12630 ; wipe and retract
G1 F9600
G1 X115.492 Y83.123 E-0.37056 ; wipe and retract
G1 E-0.04000 F2100.00000 ; retract
G1 Z0.800 F12000.000 ; lift Z
G1 X112.579 Y112.171 F12000.000 ; move to first perimeter point
G1 Z0.200 F12000.000 ; restore layer Z
G1 E0.80000 F2100.00000 ; unretract
G1 F1800
G1 X112.926 Y112.184 E0.01090 ; perimeter
G1 X113.236 Y112.230 E0.00983 ; perimeter
G1 X113.546 Y112.310 E0.01003 ; perimeter
G1 X113.848 Y112.421 E0.01008 ; perimeter
G1 X114.139 Y112.569 E0.01025 ; perimeter
G1 X114.399 Y112.732 E0.00962 ; perimeter
G1 X114.806 Y113.085 E0.01689 ; perimeter
G1 X115.116 Y113.466 E0.01542 ; perimeter
G1 X115.300 Y113.780 E0.01141 ; perimeter
G1 X115.406 Y114.015 E0.00808 ; perimeter
G1 X115.520 Y114.374 E0.01178 ; perimeter
G1 X115.566 Y114.598 E0.00718 ; perimeter
G1 X115.628 Y115.347 E0.02355 ; perimeter
G1 X115.609 Y115.615 E0.00843 ; perimeter
G1 X115.553 Y115.934 E0.01018 ; perimeter
G1 X115.382 Y116.430 E0.01644 ; perimeter
G1 X115.268 Y116.653 E0.00785 ; perimeter
G1 X114.971 Y117.114 E0.01720 ; perimeter
G1 X114.703 Y117.437 E0.01317 ; perimeter
G1 X114.414 Y117.694 E0.01211 ; perimeter
G1 X114.188 Y117.853 E0.00869 ; perimeter
G1 X113.928 Y117.998 E0.00933 ; perimeter
G1 X113.659 Y118.116 E0.00919 ; perimeter
G1 X113.185 Y118.249 E0.01544 ; perimeter
G1 X112.611 Y118.301 E0.01808 ; perimeter
G1 X112.290 Y118.282 E0.01008 ; perimeter
G1 X111.906 Y118.215 E0.01221 ; perimeter
G1 X111.383 Y118.036 E0.01733 ; perimeter
G1 X110.935 Y117.791 E0.01602 ; perimeter
G1 X110.588 Y117.527 E0.01366 ; perimeter
G1 X110.408 Y117.356 E0.00779 ; perimeter
G1 X110.094 Y116.984 E0.01526 ; perimeter
G1 X109.964 Y116.770 E0.00787 ; perimeter
G1 X109.862 Y116.545 E0.00774 ; perimeter
G1 X109.776 Y116.311 E0.00781 ; perimeter
G1 X109.676 Y115.918 E0.01273 ; perimeter
G1 X109.628 Y115.576 E0.01083 ; perimeter
G1 X109.617 Y115.316 E0.00815 ; perimeter
G1 X109.637 Y114.938 E0.01187 ; perimeter
G1 X109.675 Y114.684 E0.00806 ; perimeter
G1 X109.774 Y114.299 E0.01244 ; perimeter
G1 X109.896 Y113.975 E0.01087 ; perimeter
G1 X110.003 Y113.754 E0.00771 ; perimeter
G1 X110.226 Y113.396 E0.01322 ; perimeter
G1 X110.567 Y112.989 E0.01663 ; perimeter
G1 X110.748 Y112.820 E0.00778 ; perimeter
G1 X111.046 Y112.592 E0.01176 ; perimeter
G1 X111.384 Y112.424 E0.01183 ; perimeter
G1 X111.613 Y112.336 E0.00770 ; perimeter
G1 X111.991 Y112.235 E0.01225 ; perimeter
G1 X112.277 Y112.189 E0.00910 ; perimeter
G1 X112.519 Y112.175 E0.00759 ; perimeter
G1 X112.749 Y111.868 F12000.000 ; move inwards before travel
G1 X113.155 Y111.837 F12000.000 ; move to first perimeter point
G1 F1800
G1 X114.036 Y111.837 E0.02762 ; perimeter
G1 X114.651 Y112.452 E0.02727 ; perimeter
G1 X114.325 Y112.240 E0.01219 ; perimeter
G1 X113.998 Y112.075 E0.01149 ; perimeter
G1 X113.658 Y111.950 E0.01136 ; perimeter
G1 X113.215 Y111.846 E0.01428 ; perimeter
G1 F9600
G1 X114.036 Y111.837 E-0.17073 ; wipe and retract
G1 F9600
G1 X114.651 Y112.452 E-0.18071 ; wipe and retract
G1 F9600
G1 X114.325 Y112.240 E-0.08076 ; wipe and retract
G1 F9600
G1 X113.998 Y112.075 E-0.07616 ; wipe and retract
G1 F9600
G1 X113.658 Y111.950 E-0.07531 ; wipe and retract
G1 F9600
G1 X113.215 Y111.846 E-0.09464 ; wipe and retract
G1 E-0.12169 F2100.00000 ; retract
G1 Z0.800 F12000.000 ; lift Z
G1 X112.113 Y111.833 F12000.000 ; move to first perimeter point
G1 Z0.200 F12000.000 ; restore layer Z
G1 E0.80000 F2100.00000 ; unretract
G1 F1800
G1 X111.912 Y111.866 E0.00639 ; perimeter
G1 X111.497 Y111.977 E0.01345 ; perimeter
G1 X111.232 Y112.078 E0.00889 ; perimeter
G1 X110.845 Y112.270 E0.01355 ; perimeter
G1 X110.504 Y112.532 E0.01348 ; perimeter
G1 X110.293 Y112.729 E0.00907 ; perimeter
G1 X109.920 Y113.174 E0.01818 ; perimeter
G1 X109.673 Y113.571 E0.01467 ; perimeter
G1 X109.549 Y113.826 E0.00888 ; perimeter
G1 X109.414 Y114.186 E0.01206 ; perimeter
G1 X109.305 Y114.608 E0.01368 ; perimeter
G1 X109.261 Y114.900 E0.00924 ; perimeter
G1 X109.239 Y115.314 E0.01301 ; perimeter
G1 X109.249 Y115.545 E0.00724 ; perimeter
G1 X103.161 Y105.000 E0.38178 ; perimeter
G1 X109.253 Y94.448 E0.38202 ; perimeter
G1 X109.239 Y94.714 E0.00835 ; perimeter
G1 X109.252 Y95.010 E0.00929 ; perimeter
G1 X109.306 Y95.390 E0.01204 ; perimeter
G1 X109.415 Y95.823 E0.01399 ; perimeter
G1 X109.512 Y96.088 E0.00887 ; perimeter
G1 X109.630 Y96.346 E0.00889 ; perimeter
G1 X109.787 Y96.605 E0.00950 ; perimeter
G1 X110.133 Y97.016 E0.01684 ; perimeter
G1 X110.344 Y97.215 E0.00908 ; perimeter
G1 X110.729 Y97.508 E0.01519 ; perimeter
G1 X111.231 Y97.782 E0.01793 ; perimeter
G1 X111.812 Y97.981 E0.01926 ; perimeter
G1 X112.113 Y98.034 E0.00959 ; perimeter
G1 X112.113 Y111.773 E0.43079 ; perimeter
G1 F9600
G1 X111.912 Y111.866 E-0.04604 ; wipe and retract
G1 F9600
G1 X111.497 Y111.977 E-0.08914 ; wipe and retract
G1 F9600
G1 X111.232 Y112.078 E-0.05890 ; wipe and retract
G1 F9600
G1 X110.845 Y112.270 E-0.08979 ; wipe and retract
G1 F9600
G1 X110.504 Y112.532 E-0.08937 ; wipe and retract
G1 F9600
G1 X110.293 Y112.729 E-0.06014 ; wipe and retract
G1 F9600
G1 X109.920 Y113.174 E-0.12052 ; wipe and retract
G1 F9600
G1 X109.673 Y113.571 E-0.09725 ; wipe and retract
G1 F9600
G1 X109.549 Y113.826 E-0.05885 ; wipe and retract
G1 F9600
G1 X109.464 Y114.051 E-0.04998 ; wipe and retract
G1 E-0.04000 F2100.00000 ; retract
G1 Z0.800 F12000.000 ; lift Z
G1 X112.611 Y97.701 F12000.000 ; move to first perimeter point
G1 Z0.200 F12000.000 ; restore layer Z
G1 E0.80000 F2100.00000 ; unretract
G1 F1800
G1 X112.290 Y97.682 E0.01008 ; perimeter
G1 X111.906 Y97.615 E0.01221 ; perimeter
G1 X111.383 Y97.436 E0.01733 ; perimeter
G1 X110.935 Y97.191 E0.01602 ; perimeter
G1 X110.588 Y96.927 E0.01366 ; perimeter
G1 X110.408 Y96.756 E0.00779 ; perimeter
G1 X110.094 Y96.384 E0.01526 ; perimeter
G1 X109.964 Y96.170 E0.00787 ; perimeter
G1 X109.862 Y95.945 E0.00774 ; perimeter
G1 X109.776 Y95.711 E0.00781 ; perimeter
G1 X109.676 Y95.318 E0.01273 ; perimeter
G1 X109.628 Y94.976 E0.01083 ; perimeter
G1 X109.617 Y94.716 E0.00815 ; perimeter
G1 X109.637 Y94.338 E0.01187 ; perimeter
G1 X109.675 Y94.084 E0.00806 ; perimeter
G1 X109.774 Y93.699 E0.01244 ; perimeter
G1 X109.896 Y93.375 E0.01087 ; perimeter
G1 X110.003 Y93.154 E0.00771 ; perimeter
G1 X110.226 Y92.796 E0.01322 ; perimeter
G1 X110.567 Y92.389 E0.01663 ; perimeter
G1 X110.748 Y92.220 E0.00778 ; perimeter
G1 X111.046 Y91.992 E0.01176 ; perimeter
G1 X111.384 Y91.824 E0.01183 ; perimeter
G1 X111.613 Y91.736 E0.00771 ; perimeter
G1 X111.991 Y91.635 E0.01225 ; perimeter
G1 X112.277 Y91.589 E0.00910 ; perimeter
G1 X112.579 Y91.571 E0.00947 ; perimeter
G1 X112.926 Y91.584 E0.01090 ; perimeter
G1 X113.236 Y91.630 E0.00983 ; perimeter
G1 X113.546 Y91.710 E0.01003 ; perimeter
G1 X113.848 Y91.821 E0.01008 ; perimeter
G1 X114.139 Y91.969 E0.01025 ; perimeter
G1 X114.399 Y92.132 E0.00962 ; perimeter
G1 X114.806 Y92.485 E0.01689 ; perimeter
G1 X115.116 Y92.867 E0.01542 ; perimeter
G1 X115.300 Y93.180 E0.01141 ; perimeter
G1 X115.406 Y93.415 E0.00808 ; perimeter
G1 X115.520 Y93.774 E0.01178 ; perimeter
G1 X115.566 Y93.998 E0.00718 ; perimeter
G1 X115.628 Y94.747 E0.02355 ; perimeter
G1 X115.609 Y95.015 E0.00843 ; perimeter
G1 X115.553 Y95.334 E0.01018 ; perimeter
G1 X115.382 Y95.830 E0.01644 ; perimeter
G1 X115.268 Y96.053 E0.00785 ; perimeter
G1 X114.971 Y96.514 E0.01720 ; perimeter
G1 X114.703 Y96.837 E0.01317 ; perimeter
G1 X114.414 Y97.094 E0.01211 ; perimeter
G1 X114.188 Y97.253 E0.00869 ; perimeter
G1 X113.928 Y97.398 E0.00933 ; perimeter
G1 X113.659 Y97.516 E0.00919 ; perimeter
G1 X113.185 Y97.649 E0.01544 ; perimeter
G1 X112.670 Y97.696 E0.01620 ; perimeter
G1 X112.455 Y97.983 F12000.000 ; move inwards before travel
G1 X112.670 Y98.240 F12000.000 ; move to first perimeter point
G1 F1800
G1 X114.492 Y98.240 E0.05713 ; perimeter
G1 X118.390 Y94.343 E0.17281 ; perimeter
G1 X121.787 Y97.740 E0.15064 ; perimeter
G1 X128.213 Y97.740 E0.20148 ; perimeter
G1 X131.610 Y94.343 E0.15064 ; perimeter
G1 X135.508 Y98.240 E0.17281 ; perimeter
G1 X137.510 Y98.240 E0.06279 ; perimeter
G1 X137.510 Y111.251 E0.40794 ; perimeter
G1 X137.868 Y111.350 E0.01167 ; perimeter
G1 X138.092 Y111.441 E0.00758 ; perimeter
G1 X138.405 Y111.605 E0.01105 ; perimeter
G1 X138.698 Y111.808 E0.01118 ; perimeter
G1 X138.918 Y111.996 E0.00908 ; perimeter
G1 X139.160 Y112.258 E0.01118 ; perimeter
G1 X139.426 Y112.642 E0.01464 ; perimeter
G1 X139.592 Y112.981 E0.01184 ; perimeter
G1 X139.675 Y113.211 E0.00767 ; perimeter
G1 X139.764 Y113.585 E0.01207 ; perimeter
G1 X139.823 Y114.151 E0.01782 ; perimeter
G1 X139.825 Y114.402 E0.00788 ; perimeter
G1 X139.792 Y114.739 E0.01062 ; perimeter
G1 X139.727 Y115.033 E0.00945 ; perimeter
G1 X139.636 Y115.303 E0.00894 ; perimeter
G1 X139.470 Y115.651 E0.01209 ; perimeter
G1 X139.173 Y116.111 E0.01716 ; perimeter
G1 X138.861 Y116.477 E0.01509 ; perimeter
G1 X138.614 Y116.695 E0.01033 ; perimeter
G1 X138.388 Y116.853 E0.00866 ; perimeter
G1 X138.128 Y116.998 E0.00933 ; perimeter
G1 X137.862 Y117.114 E0.00908 ; perimeter
G1 X137.578 Y117.204 E0.00935 ; perimeter
G1 X137.305 Y117.262 E0.00875 ; perimeter
G1 X136.996 Y117.297 E0.00975 ; perimeter
G1 X136.490 Y117.283 E0.01588 ; perimeter
G1 X135.926 Y117.165 E0.01805 ; perimeter
G1 X135.569 Y117.029 E0.01198 ; perimeter
G1 X135.297 Y116.891 E0.00956 ; perimeter
G1 X134.866 Y116.592 E0.01644 ; perimeter
G1 X134.513 Y116.257 E0.01526 ; perimeter
G1 X134.195 Y115.832 E0.01663 ; perimeter
G1 X134.074 Y115.576 E0.00888 ; perimeter
G1 X133.929 Y115.149 E0.01414 ; perimeter
G1 X133.857 Y114.813 E0.01079 ; perimeter
G1 X133.826 Y114.546 E0.00843 ; perimeter
G1 X133.816 Y114.276 E0.00845 ; perimeter
G1 X133.844 Y113.883 E0.01238 ; perimeter
G1 X133.918 Y113.489 E0.01256 ; perimeter
G1 X133.978 Y113.290 E0.00651 ; perimeter
G1 X131.610 Y115.657 E0.10498 ; perimeter
G1 X128.213 Y112.260 E0.15064 ; perimeter
G1 X121.787 Y112.260 E0.20148 ; perimeter
G1 X118.390 Y115.657 E0.15064 ; perimeter
G1 X114.192 Y111.460 E0.18611 ; perimeter
G1 X112.490 Y111.460 E0.05338 ; perimeter
G1 X112.490 Y98.240 E0.41450 ; perimeter
G1 X112.610 Y98.240 E0.00377 ; perimeter
G1 X112.672 Y97.840 F12000.000 ; move inwards before travel
G1 F9600
G1 X114.492 Y98.240 E-0.39113 ; wipe and retract
G1 F9600
G1 X115.748 Y96.985 E-0.36887 ; wipe and retract
G1 E-0.04000 F2100.00000 ; retract
G1 Z0.800 F12000.000 ; lift Z
G1 X133.867 Y95.253 F12000.000 ; move to first perimeter point
G1 Z0.200 F12000.000 ; restore layer Z
G1 E0.80000 F2100.00000 ; unretract
G1 F1800
G1 X133.828 Y94.976 E0.00877 ; perimeter
G1 X133.817 Y94.716 E0.00815 ; perimeter
G1 X133.837 Y94.338 E0.01187 ; perimeter
G1 X133.875 Y94.084 E0.00806 ; perimeter
G1 X133.974 Y93.699 E0.01244 ; perimeter
G1 X134.096 Y93.375 E0.01087 ; perimeter
G1 X134.203 Y93.154 E0.00771 ; perimeter
G1 X134.426 Y92.796 E0.01322 ; perimeter
G1 X134.767 Y92.389 E0.01663 ; perimeter
G1 X134.948 Y92.220 E0.00778 ; perimeter
G1 X135.246 Y91.992 E0.01176 ; perimeter
G1 X135.584 Y91.824 E0.01183 ; perimeter
G1 X135.813 Y91.736 E0.00771 ; perimeter
G1 X136.191 Y91.635 E0.01225 ; perimeter
G1 X136.477 Y91.589 E0.00910 ; perimeter
G1 X136.779 Y91.571 E0.00947 ; perimeter
G1 X137.126 Y91.584 E0.01090 ; perimeter
G1 X137.436 Y91.630 E0.00983 ; perimeter
G1 X137.746 Y91.710 E0.01003 ; perimeter
G1 X138.048 Y91.821 E0.01008 ; perimeter
G1 X138.339 Y91.969 E0.01025 ; perimeter
G1 X138.599 Y92.132 E0.00962 ; perimeter
G1 X139.006 Y92.485 E0.01689 ; perimeter
G1 X139.316 Y92.867 E0.01542 ; perimeter
G1 X139.500 Y93.180 E0.01141 ; perimeter
G1 X139.606 Y93.415 E0.00808 ; perimeter
G1 X139.720 Y93.774 E0.01178 ; perimeter
G1 X139.766 Y93.998 E0.00718 ; perimeter
G1 X139.828 Y94.747 E0.02355 ; perimeter
G1 X139.809 Y95.015 E0.00843 ; perimeter
G1 X139.753 Y95.334 E0.01018 ; perimeter
G1 X139.582 Y95.830 E0.01644 ; perimeter
G1 X139.468 Y96.053 E0.00785 ; perimeter
G1 X139.171 Y96.514 E0.01720 ; perimeter
G1 X138.903 Y96.837 E0.01317 ; perimeter
G1 X138.614 Y97.094 E0.01211 ; perimeter
G1 X138.388 Y97.253 E0.00869 ; perimeter
G1 X138.128 Y97.398 E0.00933 ; perimeter
G1 X137.859 Y97.516 E0.00919 ; perimeter
G1 X137.385 Y97.649 E0.01544 ; perimeter
G1 X136.811 Y97.701 E0.01808 ; perimeter
G1 X136.490 Y97.682 E0.01008 ; perimeter
G1 X136.106 Y97.615 E0.01221 ; perimeter
G1 X135.583 Y97.436 E0.01733 ; perimeter
G1 X135.135 Y97.191 E0.01602 ; perimeter
G1 X134.788 Y96.927 E0.01366 ; perimeter
G1 X134.608 Y96.756 E0.00779 ; perimeter
G1 X134.294 Y96.384 E0.01526 ; perimeter
G1 X134.164 Y96.170 E0.00787 ; perimeter
G1 X134.062 Y95.945 E0.00774 ; perimeter
G1 X133.976 Y95.711 E0.00781 ; perimeter
G1 X133.875 Y95.312 E0.01291 ; perimeter
G1 X133.603 Y95.159 F12000.000 ; move inwards before travel
G1 F9600
G1 X133.828 Y94.976 E-0.07060 ; wipe and retract
G1 F9600
G1 X133.817 Y94.716 E-0.05402 ; wipe and retract
G1 F9600
G1 X133.837 Y94.338 E-0.07870 ; wipe and retract
G1 F9600
G1 X133.875 Y94.084 E-0.05340 ; wipe and retract
G1 F9600
G1 X133.974 Y93.699 E-0.08247 ; wipe and retract
G1 F9600
G1 X134.096 Y93.375 E-0.07207 ; wipe and retract
G1 F9600
G1 X134.203 Y93.154 E-0.05107 ; wipe and retract
G1 F9600
G1 X134.426 Y92.796 E-0.08763 ; wipe and retract
G1 F9600
G1 X134.767 Y92.389 E-0.11024 ; wipe and retract
G1 F9600
G1 X134.948 Y92.220 E-0.05153 ; wipe and retract
G1 F9600
G1 X135.132 Y92.079 E-0.04827 ; wipe and retract
G1 E-0.04000 F2100.00000 ; retract
G1 Z0.800 F12000.000 ; lift Z
G1 X118.390 Y116.191 F12000.000 ; move to first perimeter point
G1 Z0.200 F12000.000 ; restore layer Z
G1 E0.80000 F2100.00000 ; unretract
G1 F1800
G1 X121.943 Y112.637 E0.15757 ; perimeter
