; generated by Slic3r 1.37.2.1-prusa3d on 2018-06-08 at 07:35:04

; 

; external perimeters extrusion width = 0.45mm
; perimeters extrusion width = 0.45mm
; infill extrusion width = 0.45mm
; solid infill extrusion width = 0.45mm
; top infill extrusion width = 0.40mm
; first layer extrusion width = 0.42mm

M107 ; disable fan
M115 U3.1.1-RC5 ; tell printer latest fw version
M83  ; extruder relative mode
M104 S215 ; set extruder temp
M140 S60 ; set bed temp
M190 S60 ; wait for bed temp
M109 S215 ; wait for extruder temp
G28 W ; home all without mesh bed level
G80 ; mesh bed leveling
G1 Y-3.0 F1000.0 ; go outside print area
G92 E0.0
G1 X60.0 E9.0  F1000.0 ; intro line
G1 X100.0 E12.5  F1000.0 ; intro line
G92 E0.0
M221 S95
M900 K30
G21 ; set units to millimeters
G90 ; use absolute coordinates
M83 ; use relative distances for extrusion
;BEFORE_LAYER_CHANGE
;0.2


G1 E-0.80000 F2100.00000 ; retract
G1 Z0.600 F12000.000 ; lift Z
;AFTER_LAYER_CHANGE
;0.2
G1 X91.895 Y71.868 F12000.000 ; move to first skirt point
G1 Z0.200 F12000.000 ; restore layer Z
G1 E0.80000 F2100.00000 ; unretract
M204 S1000 ; adjust acceleration
G1 F1800
G1 X93.140 Y70.536 E0.05716 ; skirt
G1 X93.864 Y69.900 E0.03020 ; skirt
G1 X95.217 Y68.913 E0.05251 ; skirt
G1 X96.927 Y67.970 E0.06125 ; skirt
G1 X98.475 Y67.354 E0.05223 ; skirt
G1 X99.417 Y67.076 E0.03080 ; skirt
G1 X100.371 Y66.866 E0.03060 ; skirt
G1 X102.073 Y66.653 E0.05378 ; skirt
G1 X147.004 Y66.623 E1.40879 ; skirt
G1 X148.882 Y66.748 E0.05903 ; skirt
G1 X150.518 Y67.061 E0.05223 ; skirt
G1 X151.451 Y67.329 E0.03044 ; skirt
G1 X153.204 Y68.031 E0.05919 ; skirt
G1 X154.013 Y68.450 E0.02857 ; skirt
G1 X155.418 Y69.346 E0.05223 ; skirt
G1 X156.867 Y70.543 E0.05895 ; skirt
G1 X158.149 Y71.924 E0.05907 ; skirt
G1 X159.103 Y73.244 E0.05108 ; skirt
G1 X159.591 Y74.061 E0.02984 ; skirt
G1 X160.406 Y75.806 E0.06038 ; skirt
G1 X174.479 Y120.860 E1.47994 ; skirt
G1 X174.729 Y121.889 E0.03319 ; skirt
G1 X174.865 Y123.049 E0.03662 ; skirt
G1 X174.819 Y124.513 E0.04593 ; skirt
G1 X174.619 Y125.627 E0.03549 ; skirt
G1 X174.164 Y127.022 E0.04600 ; skirt
G1 X173.666 Y128.067 E0.03629 ; skirt
G1 X172.825 Y129.399 E0.04940 ; skirt
G1 X172.032 Y130.394 E0.03990 ; skirt
G1 X170.908 Y131.565 E0.05088 ; skirt
G1 X169.448 Y132.819 E0.06036 ; skirt
G1 X167.447 Y134.233 E0.07683 ; skirt
G1 X165.580 Y135.338 E0.06800 ; skirt
G1 X163.083 Y136.592 E0.08763 ; skirt
G1 X160.863 Y137.546 E0.07575 ; skirt
G1 X157.862 Y138.651 E0.10027 ; skirt
G1 X155.391 Y139.432 E0.08126 ; skirt
G1 X151.978 Y140.354 E0.11086 ; skirt
G1 X148.369 Y141.162 E0.11595 ; skirt
G1 X145.330 Y141.728 E0.09691 ; skirt
G1 X141.540 Y142.303 E0.12020 ; skirt
G1 X137.621 Y142.760 E0.12374 ; skirt
G1 X131.225 Y143.229 E0.20106 ; skirt
G1 X127.074 Y143.361 E0.13023 ; skirt
G1 X123.005 Y143.362 E0.12758 ; skirt
G1 X116.239 Y143.081 E0.21231 ; skirt
G1 X112.488 Y142.771 E0.11800 ; skirt
G1 X108.458 Y142.303 E0.12721 ; skirt
G1 X104.672 Y141.728 E0.12007 ; skirt
G1 X101.664 Y141.169 E0.09595 ; skirt
G1 X98.216 Y140.401 E0.11076 ; skirt
G1 X95.436 Y139.671 E0.09012 ; skirt
G1 X92.785 Y138.865 E0.08687 ; skirt
G1 X89.827 Y137.817 E0.09838 ; skirt
G1 X87.540 Y136.873 E0.07760 ; skirt
G1 X85.036 Y135.669 E0.08711 ; skirt
G1 X83.079 Y134.562 E0.07049 ; skirt
G1 X81.052 Y133.200 E0.07658 ; skirt
G1 X79.521 Y131.960 E0.06179 ; skirt
G1 X78.268 Y130.730 E0.05503 ; skirt
G1 X77.267 Y129.521 E0.04922 ; skirt
G1 X76.576 Y128.491 E0.03888 ; skirt
G1 X76.011 Y127.421 E0.03795 ; skirt
G1 X75.511 Y126.105 E0.04414 ; skirt
G1 X75.256 Y125.033 E0.03456 ; skirt
G1 X75.132 Y123.877 E0.03644 ; skirt
G1 X75.179 Y122.514 E0.04276 ; skirt
G1 X75.380 Y121.377 E0.03620 ; skirt
G1 X89.327 Y76.558 E1.47175 ; skirt
G1 X89.970 Y74.924 E0.05504 ; skirt
G1 X90.837 Y73.334 E0.05680 ; skirt
G1 X91.860 Y71.917 E0.05480 ; skirt
G1 F9600
G1 X93.140 Y70.536 E-0.39123 ; wipe and retract
G1 F9600
G1 X93.864 Y69.900 E-0.20019 ; wipe and retract
G1 F9600
G1 X94.519 Y69.422 E-0.16857 ; wipe and retract
G1 E-0.04000 F2100.00000 ; retract
G1 Z0.800 F12000.000 ; lift Z
G1 X160.853 Y120.552 F12000.000 ; move to first perimeter point
G1 Z0.200 F12000.000 ; restore layer Z
G1 E0.80000 F2100.00000 ; unretract
G1 F1800
G1 X161.178 Y120.141 E0.01642 ; perimeter
G1 X161.544 Y119.766 E0.01642 ; perimeter
G1 X161.946 Y119.431 E0.01642 ; perimeter
G1 X162.381 Y119.138 E0.01642 ; perimeter
G1 X162.843 Y118.892 E0.01642 ; perimeter
G1 X163.328 Y118.695 E0.01642 ; perimeter
G1 X163.831 Y118.548 E0.01642 ; perimeter
G1 X164.347 Y118.454 E0.01642 ; perimeter
G1 X164.844 Y118.416 E0.01565 ; perimeter
G1 X165.391 Y118.427 E0.01715 ; perimeter
G1 X165.912 Y118.495 E0.01647 ; perimeter
G1 X166.422 Y118.615 E0.01642 ; perimeter
G1 X166.917 Y118.787 E0.01642 ; perimeter
G1 X167.391 Y119.009 E0.01642 ; perimeter
G1 X167.840 Y119.279 E0.01642 ; perimeter
G1 X168.259 Y119.593 E0.01642 ; perimeter
G1 X168.644 Y119.949 E0.01642 ; perimeter
G1 X168.989 Y120.342 E0.01642 ; perimeter
G1 X169.293 Y120.769 E0.01642 ; perimeter
G1 X169.551 Y121.225 E0.01642 ; perimeter
G1 X169.761 Y121.705 E0.01642 ; perimeter
G1 X169.920 Y122.204 E0.01642 ; perimeter
G1 X170.027 Y122.717 E0.01642 ; perimeter
G1 X170.081 Y123.238 E0.01642 ; perimeter
G1 X170.081 Y123.762 E0.01642 ; perimeter
G1 X170.027 Y124.283 E0.01642 ; perimeter
G1 X169.920 Y124.796 E0.01642 ; perimeter
G1 X169.761 Y125.295 E0.01642 ; perimeter
G1 X169.551 Y125.775 E0.01642 ; perimeter
G1 X169.293 Y126.231 E0.01642 ; perimeter
G1 X168.989 Y126.658 E0.01642 ; perimeter
G1 X168.660 Y127.033 E0.01565 ; perimeter
G1 X168.260 Y127.406 E0.01715 ; perimeter
G1 X167.840 Y127.721 E0.01647 ; perimeter
G1 X167.391 Y127.991 E0.01642 ; perimeter
G1 X166.917 Y128.213 E0.01642 ; perimeter
G1 X166.422 Y128.385 E0.01642 ; perimeter
G1 X165.912 Y128.505 E0.01642 ; perimeter
G1 X165.393 Y128.573 E0.01642 ; perimeter
G1 X164.869 Y128.586 E0.01642 ; perimeter
G1 X164.347 Y128.546 E0.01642 ; perimeter
G1 X163.831 Y128.452 E0.01642 ; perimeter
G1 X163.352 Y128.312 E0.01565 ; perimeter
G1 X162.844 Y128.109 E0.01715 ; perimeter
G1 X162.381 Y127.862 E0.01647 ; perimeter
G1 X161.946 Y127.569 E0.01642 ; perimeter
G1 X161.544 Y127.234 E0.01642 ; perimeter
G1 X161.178 Y126.859 E0.01642 ; perimeter
G1 X160.853 Y126.448 E0.01642 ; perimeter
G1 X160.572 Y126.006 E0.01642 ; perimeter
G1 X160.338 Y125.537 E0.01642 ; perimeter
G1 X160.153 Y125.047 E0.01642 ; perimeter
G1 X160.020 Y124.541 E0.01642 ; perimeter
G1 X159.939 Y124.023 E0.01642 ; perimeter
G1 X159.912 Y123.500 E0.01642 ; perimeter
G1 X159.939 Y122.977 E0.01642 ; perimeter
G1 X160.020 Y122.459 E0.01642 ; perimeter
G1 X160.153 Y121.953 E0.01642 ; perimeter
G1 X160.338 Y121.463 E0.01642 ; perimeter
G1 X160.572 Y120.994 E0.01642 ; perimeter
G1 X160.821 Y120.603 E0.01454 ; perimeter
G1 X161.139 Y120.805 F12000.000 ; move to first perimeter point
G1 F1800
G1 X161.462 Y120.390 E0.01647 ; perimeter
G1 X161.800 Y120.043 E0.01521 ; perimeter
G1 X162.173 Y119.733 E0.01521 ; perimeter
G1 X162.575 Y119.462 E0.01521 ; perimeter
G1 X163.003 Y119.234 E0.01521 ; perimeter
G1 X163.452 Y119.051 E0.01521 ; perimeter
G1 X163.918 Y118.916 E0.01521 ; perimeter
G1 X164.395 Y118.829 E0.01521 ; perimeter
G1 X164.855 Y118.793 E0.01446 ; perimeter
G1 X165.363 Y118.804 E0.01593 ; perimeter
G1 X165.844 Y118.866 E0.01522 ; perimeter
G1 X166.316 Y118.977 E0.01521 ; perimeter
G1 X166.774 Y119.137 E0.01521 ; perimeter
G1 X167.214 Y119.342 E0.01521 ; perimeter
G1 X167.629 Y119.592 E0.01521 ; perimeter
G1 X168.017 Y119.883 E0.01521 ; perimeter
G1 X168.373 Y120.212 E0.01521 ; perimeter
G1 X168.693 Y120.577 E0.01521 ; perimeter
G1 X168.974 Y120.972 E0.01521 ; perimeter
G1 X169.213 Y121.394 E0.01521 ; perimeter
G1 X169.407 Y121.838 E0.01521 ; perimeter
G1 X169.555 Y122.300 E0.01521 ; perimeter
G1 X169.654 Y122.775 E0.01521 ; perimeter
G1 X169.704 Y123.258 E0.01521 ; perimeter
G1 X169.704 Y123.742 E0.01521 ; perimeter
G1 X169.654 Y124.225 E0.01521 ; perimeter
G1 X169.555 Y124.700 E0.01521 ; perimeter
G1 X169.407 Y125.162 E0.01521 ; perimeter
G1 X169.213 Y125.606 E0.01521 ; perimeter
G1 X168.974 Y126.028 E0.01521 ; perimeter
G1 X168.693 Y126.423 E0.01521 ; perimeter
G1 X168.389 Y126.770 E0.01446 ; perimeter
G1 X168.018 Y127.117 E0.01593 ; perimeter
G1 X167.629 Y127.408 E0.01522 ; perimeter
G1 X167.214 Y127.658 E0.01521 ; perimeter
G1 X166.774 Y127.863 E0.01521 ; perimeter
G1 X166.316 Y128.023 E0.01521 ; perimeter
G1 X165.844 Y128.134 E0.01521 ; perimeter
G1 X165.364 Y128.196 E0.01521 ; perimeter
G1 X164.879 Y128.209 E0.01521 ; perimeter
G1 X164.395 Y128.171 E0.01521 ; perimeter
G1 X163.918 Y128.084 E0.01521 ; perimeter
G1 X163.475 Y127.955 E0.01446 ; perimeter
G1 X163.004 Y127.766 E0.01593 ; perimeter
G1 X162.575 Y127.538 E0.01522 ; perimeter
G1 X162.173 Y127.267 E0.01521 ; perimeter
G1 X161.800 Y126.957 E0.01521 ; perimeter
G1 X161.462 Y126.609 E0.01521 ; perimeter
G1 X161.161 Y126.229 E0.01521 ; perimeter
G1 X160.901 Y125.820 E0.01521 ; perimeter
G1 X160.684 Y125.386 E0.01521 ; perimeter
G1 X160.513 Y124.932 E0.01521 ; perimeter
G1 X160.389 Y124.463 E0.01521 ; perimeter
G1 X160.315 Y123.984 E0.01521 ; perimeter
G1 X160.290 Y123.500 E0.01521 ; perimeter
G1 X160.315 Y123.016 E0.01521 ; perimeter
G1 X160.389 Y122.537 E0.01521 ; perimeter
G1 X160.513 Y122.068 E0.01521 ; perimeter
G1 X160.684 Y121.614 E0.01521 ; perimeter
G1 X160.901 Y121.180 E0.01521 ; perimeter
G1 X161.107 Y120.856 E0.01205 ; perimeter
G1 X160.971 Y120.442 F12000.000 ; move inwards before travel
G1 F9600
G1 X161.462 Y120.390 E-0.12159 ; wipe and retract
G1 F9600
G1 X161.800 Y120.043 E-0.10078 ; wipe and retract
G1 F9600
G1 X162.173 Y119.733 E-0.10078 ; wipe and retract
G1 F9600
G1 X162.575 Y119.462 E-0.10078 ; wipe and retract
G1 F9600
G1 X163.003 Y119.234 E-0.10078 ; wipe and retract
G1 F9600
G1 X163.452 Y119.051 E-0.10078 ; wipe and retract
G1 F9600
G1 X163.918 Y118.916 E-0.10078 ; wipe and retract
G1 F9600
G1 X164.078 Y118.887 E-0.03373 ; wipe and retract
G1 E-0.04000 F2100.00000 ; retract
G1 Z0.800 F12000.000 ; lift Z
G1 X90.081 Y123.238 F12000.000 ; move to first perimeter point
G1 Z0.200 F12000.000 ; restore layer Z
G1 E0.80000 F2100.00000 ; unretract
G1 F1800
G1 X90.081 Y123.762 E0.01642 ; perimeter
G1 X90.027 Y124.283 E0.01642 ; perimeter
G1 X89.920 Y124.796 E0.01642 ; perimeter
G1 X89.761 Y125.295 E0.01642 ; perimeter
G1 X89.551 Y125.775 E0.01642 ; perimeter
G1 X89.293 Y126.231 E0.01642 ; perimeter
G1 X88.989 Y126.658 E0.01642 ; perimeter
G1 X88.644 Y127.051 E0.01642 ; perimeter
G1 X88.259 Y127.407 E0.01642 ; perimeter
G1 X87.840 Y127.721 E0.01642 ; perimeter
G1 X87.391 Y127.991 E0.01642 ; perimeter
G1 X86.917 Y128.213 E0.01642 ; perimeter
G1 X86.422 Y128.385 E0.01642 ; perimeter
G1 X85.912 Y128.505 E0.01642 ; perimeter
G1 X85.393 Y128.573 E0.01642 ; perimeter
G1 X84.869 Y128.586 E0.01642 ; perimeter
G1 X84.347 Y128.546 E0.01642 ; perimeter
G1 X83.831 Y128.452 E0.01642 ; perimeter
G1 X83.328 Y128.305 E0.01642 ; perimeter
G1 X82.843 Y128.108 E0.01642 ; perimeter
G1 X82.381 Y127.862 E0.01642 ; perimeter
G1 X81.946 Y127.569 E0.01642 ; perimeter
G1 X81.544 Y127.234 E0.01642 ; perimeter
G1 X81.178 Y126.859 E0.01642 ; perimeter
G1 X80.853 Y126.448 E0.01642 ; perimeter
G1 X80.572 Y126.006 E0.01642 ; perimeter
G1 X80.338 Y125.537 E0.01642 ; perimeter
G1 X80.153 Y125.047 E0.01642 ; perimeter
G1 X80.026 Y124.565 E0.01565 ; perimeter
G1 X79.939 Y124.025 E0.01715 ; perimeter
G1 X79.912 Y123.500 E0.01647 ; perimeter
G1 X79.939 Y122.977 E0.01642 ; perimeter
G1 X80.020 Y122.459 E0.01642 ; perimeter
G1 X80.153 Y121.953 E0.01642 ; perimeter
G1 X80.338 Y121.463 E0.01642 ; perimeter
G1 X80.572 Y120.994 E0.01642 ; perimeter
G1 X80.853 Y120.552 E0.01642 ; perimeter
G1 X81.178 Y120.141 E0.01642 ; perimeter
G1 X81.544 Y119.766 E0.01642 ; perimeter
G1 X81.946 Y119.431 E0.01642 ; perimeter
G1 X82.381 Y119.138 E0.01642 ; perimeter
G1 X82.843 Y118.892 E0.01642 ; perimeter
G1 X83.328 Y118.695 E0.01642 ; perimeter
G1 X83.831 Y118.548 E0.01642 ; perimeter
G1 X84.347 Y118.454 E0.01642 ; perimeter
G1 X84.844 Y118.416 E0.01565 ; perimeter
G1 X85.391 Y118.427 E0.01715 ; perimeter
G1 X85.912 Y118.495 E0.01647 ; perimeter
G1 X86.422 Y118.615 E0.01642 ; perimeter
G1 X86.917 Y118.787 E0.01642 ; perimeter
G1 X87.391 Y119.009 E0.01642 ; perimeter
G1 X87.840 Y119.279 E0.01642 ; perimeter
G1 X88.259 Y119.593 E0.01642 ; perimeter
G1 X88.644 Y119.949 E0.01642 ; perimeter
G1 X88.989 Y120.342 E0.01642 ; perimeter
G1 X89.293 Y120.769 E0.01642 ; perimeter
G1 X89.551 Y121.225 E0.01642 ; perimeter
G1 X89.761 Y121.705 E0.01642 ; perimeter
G1 X89.920 Y122.204 E0.01642 ; perimeter
G1 X90.027 Y122.717 E0.01642 ; perimeter
G1 X90.075 Y123.178 E0.01454 ; perimeter
G1 X89.700 Y123.217 F12000.000 ; move to first perimeter point
G1 F1800
G1 X89.704 Y123.742 E0.01647 ; perimeter
G1 X89.654 Y124.225 E0.01521 ; perimeter
G1 X89.555 Y124.700 E0.01521 ; perimeter
G1 X89.407 Y125.162 E0.01521 ; perimeter
G1 X89.213 Y125.606 E0.01521 ; perimeter
G1 X88.974 Y126.028 E0.01521 ; perimeter
G1 X88.693 Y126.423 E0.01521 ; perimeter
G1 X88.373 Y126.788 E0.01521 ; perimeter
G1 X88.017 Y127.117 E0.01521 ; perimeter
G1 X87.629 Y127.408 E0.01521 ; perimeter
G1 X87.214 Y127.658 E0.01521 ; perimeter
G1 X86.774 Y127.863 E0.01521 ; perimeter
G1 X86.316 Y128.023 E0.01521 ; perimeter
G1 X85.844 Y128.134 E0.01521 ; perimeter
G1 X85.364 Y128.196 E0.01521 ; perimeter
G1 X84.879 Y128.209 E0.01521 ; perimeter
G1 X84.395 Y128.171 E0.01521 ; perimeter
G1 X83.918 Y128.084 E0.01521 ; perimeter
G1 X83.452 Y127.949 E0.01521 ; perimeter
G1 X83.003 Y127.766 E0.01521 ; perimeter
G1 X82.575 Y127.538 E0.01521 ; perimeter
G1 X82.173 Y127.267 E0.01521 ; perimeter
G1 X81.800 Y126.957 E0.01521 ; perimeter
G1 X81.462 Y126.609 E0.01521 ; perimeter
G1 X81.161 Y126.229 E0.01521 ; perimeter
G1 X80.901 Y125.820 E0.01521 ; perimeter
G1 X80.684 Y125.386 E0.01521 ; perimeter
G1 X80.513 Y124.932 E0.01521 ; perimeter
G1 X80.395 Y124.486 E0.01446 ; perimeter
G1 X80.315 Y123.985 E0.01593 ; perimeter
G1 X80.290 Y123.500 E0.01522 ; perimeter
G1 X80.315 Y123.016 E0.01521 ; perimeter
G1 X80.389 Y122.537 E0.01521 ; perimeter
G1 X80.513 Y122.068 E0.01521 ; perimeter
G1 X80.684 Y121.614 E0.01521 ; perimeter
G1 X80.901 Y121.180 E0.01521 ; perimeter
G1 X81.161 Y120.771 E0.01521 ; perimeter
G1 X81.462 Y120.390 E0.01521 ; perimeter
G1 X81.800 Y120.043 E0.01521 ; perimeter
G1 X82.173 Y119.733 E0.01521 ; perimeter
G1 X82.575 Y119.462 E0.01521 ; perimeter
G1 X83.003 Y119.234 E0.01521 ; perimeter
G1 X83.452 Y119.051 E0.01521 ; perimeter
G1 X83.918 Y118.916 E0.01521 ; perimeter
G1 X84.395 Y118.829 E0.01521 ; perimeter
G1 X84.855 Y118.793 E0.01446 ; perimeter
G1 X85.363 Y118.804 E0.01593 ; perimeter
G1 X85.844 Y118.866 E0.01522 ; perimeter
G1 X86.316 Y118.977 E0.01521 ; perimeter
G1 X86.774 Y119.137 E0.01521 ; perimeter
G1 X87.214 Y119.342 E0.01521 ; perimeter
G1 X87.629 Y119.592 E0.01521 ; perimeter
G1 X88.017 Y119.883 E0.01521 ; perimeter
G1 X88.373 Y120.212 E0.01521 ; perimeter
G1 X88.693 Y120.577 E0.01521 ; perimeter
G1 X88.974 Y120.972 E0.01521 ; perimeter
G1 X89.213 Y121.394 E0.01521 ; perimeter
G1 X89.407 Y121.838 E0.01521 ; perimeter
G1 X89.555 Y122.300 E0.01521 ; perimeter
G1 X89.654 Y122.775 E0.01521 ; perimeter
G1 X89.694 Y123.157 E0.01205 ; perimeter
G1 X90.057 Y123.397 F12000.000 ; move inwards before travel
G1 F9600
G1 X89.704 Y123.742 E-0.12159 ; wipe and retract
G1 F9600
G1 X89.654 Y124.225 E-0.10078 ; wipe and retract
G1 F9600
G1 X89.555 Y124.700 E-0.10078 ; wipe and retract
G1 F9600
G1 X89.407 Y125.162 E-0.10078 ; wipe and retract
G1 F9600
G1 X89.213 Y125.606 E-0.10078 ; wipe and retract
G1 F9600
G1 X88.974 Y126.028 E-0.10078 ; wipe and retract
G1 F9600
G1 X88.693 Y126.423 E-0.10078 ; wipe and retract
G1 F9600
G1 X88.586 Y126.545 E-0.03373 ; wipe and retract
G1 E-0.04000 F2100.00000 ; retract
G1 Z0.800 F12000.000 ; lift Z
G1 X84.709 Y114.924 F12000.000 ; move to first perimeter point
G1 Z0.200 F12000.000 ; restore layer Z
G1 E0.80000 F2100.00000 ; unretract
G1 F1800
G1 X85.263 Y114.588 E0.02033 ; perimeter
