; generated by Slic3r 1.37.2.1-prusa3d-win64 on 2018-04-04 at 20:41:08

; 

; external perimeters extrusion width = 0.30mm
; perimeters extrusion width = 0.35mm
; infill extrusion width = 0.50mm
; solid infill extrusion width = 0.35mm
; top infill extrusion width = 0.30mm
; first layer extrusion width = 0.42mm

M107 ; disable fan
M115 U3.1.1-RC5 ; tell printer latest fw version
M83  ; extruder relative mode
M104 S215 ; set extruder temp
M140 S60 ; set bed temp
M190 S60 ; wait for bed temp
M109 S215 ; wait for extruder temp
G28 W ; home all without mesh bed level
G80 ; mesh bed leveling
G1 Y-3.0 F1000.0 ; go outside print area
G92 E0.0
G1 X60.0 E9.0  F1000.0 ; intro line
G1 X100.0 E12.5  F1000.0 ; intro line
G92 E0.0
M221 S95
M900 K30
G21 ; set units to millimeters
G90 ; use absolute coordinates
M83 ; use relative distances for extrusion
;BEFORE_LAYER_CHANGE
;0.2


G1 E-0.80000 F2100.00000 ; retract
G1 Z0.600 F12000.000 ; lift Z
;AFTER_LAYER_CHANGE
;0.2
G1 X97.269 Y82.039 F12000.000 ; move to first skirt point
G1 Z0.200 F12000.000 ; restore layer Z
G1 E0.80000 F2100.00000 ; unretract
M204 S500 ; adjust acceleration
G1 F1800
G1 X98.652 Y80.650 E0.06145 ; skirt
G1 X100.063 Y79.496 E0.05717 ; skirt
G1 X101.709 Y78.408 E0.06188 ; skirt
G1 X103.358 Y77.541 E0.05841 ; skirt
G1 X105.041 Y76.852 E0.05699 ; skirt
G1 X106.936 Y76.282 E0.06207 ; skirt
G1 X109.066 Y75.878 E0.06797 ; skirt
G1 X111.215 Y75.707 E0.06760 ; skirt
G1 X132.227 Y75.700 E0.65879 ; skirt
G1 X133.868 Y75.763 E0.05150 ; skirt
G1 X135.486 Y75.958 E0.05111 ; skirt
G1 X137.060 Y76.278 E0.05035 ; skirt
G1 X138.456 Y76.677 E0.04551 ; skirt
G1 X140.004 Y77.254 E0.05182 ; skirt
G1 X141.498 Y77.960 E0.05179 ; skirt
G1 X142.906 Y78.780 E0.05110 ; skirt
G1 X144.098 Y79.609 E0.04553 ; skirt
G1 X145.172 Y80.484 E0.04340 ; skirt
G1 X146.295 Y81.557 E0.04871 ; skirt
G1 X147.336 Y82.739 E0.04940 ; skirt
G1 X148.173 Y83.862 E0.04391 ; skirt
G1 X149.351 Y85.848 E0.07240 ; skirt
G1 X151.376 Y90.205 E0.15064 ; skirt
G1 X151.939 Y92.085 E0.06155 ; skirt
G1 X152.168 Y93.964 E0.05932 ; skirt
G1 X152.163 Y112.636 E0.58547 ; skirt
G1 X151.935 Y114.458 E0.05758 ; skirt
G1 X151.438 Y116.463 E0.06474 ; skirt
G1 X150.761 Y118.265 E0.06037 ; skirt
G1 X149.854 Y120.046 E0.06267 ; skirt
G1 X148.645 Y121.855 E0.06821 ; skirt
G1 X147.259 Y123.470 E0.06673 ; skirt
G1 X145.677 Y124.928 E0.06746 ; skirt
G1 X143.995 Y126.156 E0.06529 ; skirt
G1 X142.058 Y127.259 E0.06988 ; skirt
G1 X140.102 Y128.097 E0.06673 ; skirt
G1 X138.041 Y128.724 E0.06755 ; skirt
G1 X135.958 Y129.119 E0.06648 ; skirt
G1 X133.316 Y129.299 E0.08301 ; skirt
G1 X111.185 Y129.069 E0.69394 ; skirt
G1 X108.995 Y128.772 E0.06930 ; skirt
G1 X106.772 Y128.210 E0.07189 ; skirt
G1 X104.707 Y127.428 E0.06922 ; skirt
G1 X102.851 Y126.479 E0.06537 ; skirt
G1 X101.083 Y125.314 E0.06637 ; skirt
G1 X99.602 Y124.092 E0.06021 ; skirt
G1 X98.192 Y122.651 E0.06322 ; skirt
G1 X96.938 Y121.042 E0.06395 ; skirt
G1 X95.742 Y119.049 E0.07289 ; skirt
G1 X93.911 Y115.157 E0.13487 ; skirt
G1 X93.399 Y113.818 E0.04495 ; skirt
G1 X93.072 Y112.498 E0.04264 ; skirt
G1 X92.885 Y110.519 E0.06230 ; skirt
G1 X92.853 Y92.114 E0.57710 ; skirt
G1 X93.120 Y90.258 E0.05878 ; skirt
G1 X93.586 Y88.462 E0.05820 ; skirt
G1 X94.248 Y86.713 E0.05863 ; skirt
G1 X95.146 Y84.954 E0.06192 ; skirt
G1 X96.130 Y83.448 E0.05641 ; skirt
G1 X97.231 Y82.085 E0.05492 ; skirt
G1 F9600
G1 X98.652 Y80.650 E-0.41966 ; wipe and retract
G1 F9600
G1 X99.919 Y79.614 E-0.34034 ; wipe and retract
G1 E-0.04000 F2100.00000 ; retract
G1 Z0.800 F12000.000 ; lift Z
G1 X121.993 Y80.832 F12000.000 ; move to first brim point
G1 Z0.200 F12000.000 ; restore layer Z
G1 E0.80000 F2100.00000 ; unretract
G1 F1800
G1 X123.157 Y80.079 E0.04347 ; brim
G1 X124.392 Y79.410 E0.04404 ; brim
G1 X125.809 Y78.791 E0.04847 ; brim
G1 X127.240 Y78.309 E0.04734 ; brim
G1 X128.607 Y77.969 E0.04419 ; brim
G1 X129.797 Y77.764 E0.03784 ; brim
G1 X130.919 Y77.645 E0.03538 ; brim
G1 X131.842 Y77.599 E0.02898 ; brim
G1 X133.152 Y77.614 E0.04108 ; brim
G1 X134.790 Y77.767 E0.05158 ; brim
G1 X136.423 Y78.072 E0.05210 ; brim
G1 X138.015 Y78.525 E0.05187 ; brim
G1 X139.494 Y79.096 E0.04970 ; brim
G1 X140.468 Y79.558 E0.03382 ; brim
G1 X141.426 Y80.090 E0.03435 ; brim
G1 X142.626 Y80.876 E0.04498 ; brim
G1 X143.782 Y81.784 E0.04608 ; brim
G1 X144.869 Y82.805 E0.04677 ; brim
G1 X145.867 Y83.933 E0.04722 ; brim
G1 X146.910 Y85.384 E0.05602 ; brim
G1 X147.701 Y86.778 E0.05026 ; brim
G1 X148.274 Y88.061 E0.04407 ; brim
G1 X148.603 Y89.056 E0.03286 ; brim
G1 X148.988 Y89.618 E0.02137 ; brim
G1 X149.767 Y91.303 E0.05818 ; brim
G1 X150.164 Y92.887 E0.05122 ; brim
G1 X150.283 Y94.328 E0.04532 ; brim
G1 X150.202 Y95.625 E0.04075 ; brim
G1 X149.972 Y96.937 E0.04176 ; brim
G1 X149.633 Y98.211 E0.04134 ; brim
G1 X149.195 Y99.432 E0.04068 ; brim
G1 X148.655 Y100.613 E0.04073 ; brim
G1 X147.996 Y101.783 E0.04210 ; brim
G1 X147.346 Y102.749 E0.03648 ; brim
G1 X146.987 Y103.202 E0.01812 ; brim
G1 X147.666 Y104.389 E0.04287 ; brim
G1 X148.316 Y105.849 E0.05012 ; brim
G1 X148.607 Y106.740 E0.02939 ; brim
G1 X148.973 Y107.265 E0.02005 ; brim
G1 X149.618 Y108.587 E0.04613 ; brim
G1 X150.133 Y110.387 E0.05869 ; brim
G1 X150.278 Y111.758 E0.04322 ; brim
G1 X150.218 Y113.161 E0.04404 ; brim
G1 X149.976 Y114.595 E0.04561 ; brim
G1 X149.637 Y115.878 E0.04159 ; brim
G1 X149.215 Y117.061 E0.03940 ; brim
G1 X148.697 Y118.209 E0.03948 ; brim
G1 X148.016 Y119.430 E0.04384 ; brim
G1 X147.295 Y120.499 E0.04046 ; brim
G1 X146.612 Y121.364 E0.03453 ; brim
G1 X145.872 Y122.181 E0.03459 ; brim
G1 X144.839 Y123.158 E0.04457 ; brim
G1 X143.870 Y123.939 E0.03902 ; brim
G1 X142.856 Y124.639 E0.03863 ; brim
G1 X141.882 Y125.216 E0.03549 ; brim
G1 X140.866 Y125.732 E0.03574 ; brim
G1 X139.884 Y126.155 E0.03352 ; brim
G1 X138.949 Y126.494 E0.03120 ; brim
G1 X137.974 Y126.787 E0.03192 ; brim
G1 X136.949 Y127.030 E0.03302 ; brim
G1 X136.043 Y127.194 E0.02887 ; brim
G1 X135.113 Y127.313 E0.02940 ; brim
G1 X134.204 Y127.383 E0.02859 ; brim
G1 X133.155 Y127.406 E0.03290 ; brim
G1 X132.212 Y127.376 E0.02957 ; brim
G1 X131.084 Y127.275 E0.03551 ; brim
G1 X130.158 Y127.138 E0.02935 ; brim
G1 X129.183 Y126.940 E0.03118 ; brim
G1 X128.230 Y126.691 E0.03091 ; brim
G1 X127.292 Y126.390 E0.03087 ; brim
G1 X126.312 Y126.013 E0.03292 ; brim
G1 X125.435 Y125.616 E0.03019 ; brim
G1 X124.582 Y125.172 E0.03014 ; brim
G1 X123.696 Y124.643 E0.03235 ; brim
G1 X122.899 Y124.096 E0.03032 ; brim
G1 X122.370 Y124.467 E0.02027 ; brim
G1 X121.403 Y125.041 E0.03528 ; brim
G1 X120.391 Y125.556 E0.03561 ; brim
G1 X119.330 Y126.011 E0.03618 ; brim
G1 X118.406 Y126.343 E0.03077 ; brim
G1 X117.471 Y126.622 E0.03061 ; brim
G1 X116.434 Y126.868 E0.03342 ; brim
G1 X115.482 Y127.037 E0.03032 ; brim
G1 X114.551 Y127.153 E0.02941 ; brim
G1 X113.668 Y127.218 E0.02773 ; brim
G1 X112.615 Y127.239 E0.03305 ; brim
G1 X111.724 Y127.209 E0.02795 ; brim
G1 X110.658 Y127.115 E0.03356 ; brim
G1 X109.698 Y126.976 E0.03040 ; brim
G1 X108.726 Y126.781 E0.03108 ; brim
G1 X107.754 Y126.529 E0.03150 ; brim
G1 X106.809 Y126.227 E0.03110 ; brim
G1 X105.878 Y125.871 E0.03126 ; brim
G1 X104.999 Y125.477 E0.03019 ; brim
G1 X104.052 Y124.985 E0.03348 ; brim
G1 X103.209 Y124.481 E0.03077 ; brim
G1 X102.352 Y123.897 E0.03254 ; brim
G1 X101.279 Y123.049 E0.04288 ; brim
G1 X100.544 Y122.379 E0.03119 ; brim
G1 X99.903 Y121.722 E0.02876 ; brim
G1 X99.087 Y120.767 E0.03939 ; brim
G1 X98.191 Y119.511 E0.04839 ; brim
G1 X97.514 Y118.353 E0.04203 ; brim
G1 X96.927 Y117.115 E0.04297 ; brim
G1 X96.438 Y115.768 E0.04495 ; brim
G1 X96.200 Y115.430 E0.01296 ; brim
G1 X95.474 Y114.006 E0.05012 ; brim
G1 X95.063 Y112.749 E0.04146 ; brim
G1 X94.828 Y111.428 E0.04204 ; brim
G1 X94.803 Y109.753 E0.05255 ; brim
G1 X95.014 Y108.259 E0.04730 ; brim
G1 X95.366 Y106.823 E0.04635 ; brim
G1 X95.849 Y105.443 E0.04586 ; brim
G1 X96.494 Y104.050 E0.04812 ; brim
G1 X97.284 Y102.706 E0.04889 ; brim
G1 X97.985 Y101.746 E0.03728 ; brim
G1 X97.478 Y100.887 E0.03124 ; brim
G1 X96.813 Y99.475 E0.04896 ; brim
G1 X96.361 Y98.210 E0.04211 ; brim
G1 X95.998 Y97.688 E0.01992 ; brim
G1 X95.420 Y96.508 E0.04120 ; brim
G1 X94.965 Y95.081 E0.04696 ; brim
G1 X94.742 Y93.632 E0.04597 ; brim
G1 X94.747 Y92.181 E0.04550 ; brim
G1 X94.955 Y90.738 E0.04572 ; brim
G1 X95.306 Y89.310 E0.04611 ; brim
G1 X95.780 Y87.951 E0.04513 ; brim
G1 X96.383 Y86.633 E0.04545 ; brim
G1 X97.261 Y85.136 E0.05439 ; brim
G1 X98.160 Y83.911 E0.04765 ; brim
G1 X99.178 Y82.768 E0.04799 ; brim
G1 X100.303 Y81.720 E0.04822 ; brim
G1 X101.521 Y80.778 E0.04827 ; brim
G1 X102.625 Y80.065 E0.04121 ; brim
G1 X103.790 Y79.433 E0.04154 ; brim
G1 X105.204 Y78.811 E0.04846 ; brim
G1 X106.683 Y78.310 E0.04894 ; brim
G1 X108.064 Y77.967 E0.04462 ; brim
G1 X109.278 Y77.759 E0.03861 ; brim
G1 X110.360 Y77.645 E0.03412 ; brim
G1 X111.289 Y77.599 E0.02916 ; brim
G1 X112.734 Y77.621 E0.04530 ; brim
G1 X114.442 Y77.797 E0.05386 ; brim
G1 X116.055 Y78.117 E0.05155 ; brim
G1 X117.611 Y78.576 E0.05084 ; brim
G1 X118.960 Y79.105 E0.04543 ; brim
G1 X119.904 Y79.554 E0.03279 ; brim
G1 X120.817 Y80.057 E0.03268 ; brim
G1 X121.943 Y80.799 E0.04230 ; brim
G1 F9600
G1 X123.157 Y80.079 E-0.29331 ; wipe and retract
G1 F9600
G1 X124.392 Y79.410 E-0.29191 ; wipe and retract
G1 F9600
G1 X125.163 Y79.073 E-0.17477 ; wipe and retract
G1 E-0.04000 F2100.00000 ; retract
G1 Z0.800 F12000.000 ; lift Z
G1 X146.533 Y103.167 F12000.000 ; move to first brim point
G1 Z0.200 F12000.000 ; restore layer Z
G1 E0.80000 F2100.00000 ; unretract
G1 F1800
G1 X147.325 Y104.551 E0.05000 ; brim
G1 X147.967 Y105.994 E0.04951 ; brim
G1 X148.266 Y106.911 E0.03026 ; brim
G1 X148.641 Y107.445 E0.02045 ; brim
G1 X149.260 Y108.707 E0.04409 ; brim
G1 X149.766 Y110.474 E0.05764 ; brim
G1 X149.901 Y111.782 E0.04123 ; brim
G1 X149.845 Y113.110 E0.04165 ; brim
G1 X149.606 Y114.524 E0.04497 ; brim
G1 X149.275 Y115.773 E0.04052 ; brim
G1 X148.863 Y116.927 E0.03841 ; brim
G1 X148.357 Y118.046 E0.03851 ; brim
G1 X147.699 Y119.226 E0.04234 ; brim
G1 X146.994 Y120.272 E0.03954 ; brim
G1 X146.329 Y121.115 E0.03370 ; brim
G1 X145.607 Y121.913 E0.03371 ; brim
G1 X144.597 Y122.870 E0.04363 ; brim
G1 X143.639 Y123.641 E0.03856 ; brim
G1 X142.658 Y124.318 E0.03736 ; brim
G1 X141.695 Y124.889 E0.03509 ; brim
G1 X140.701 Y125.393 E0.03497 ; brim
G1 X139.740 Y125.806 E0.03279 ; brim
G1 X138.825 Y126.138 E0.03052 ; brim
G1 X137.881 Y126.421 E0.03090 ; brim
G1 X136.867 Y126.662 E0.03268 ; brim
G1 X135.981 Y126.822 E0.02823 ; brim
G1 X135.070 Y126.938 E0.02879 ; brim
G1 X134.190 Y127.006 E0.02766 ; brim
G1 X133.151 Y127.029 E0.03258 ; brim
G1 X132.240 Y127.000 E0.02859 ; brim
G1 X131.134 Y126.901 E0.03483 ; brim
G1 X130.228 Y126.767 E0.02871 ; brim
G1 X129.273 Y126.574 E0.03053 ; brim
G1 X128.330 Y126.327 E0.03058 ; brim
G1 X127.412 Y126.033 E0.03022 ; brim
G1 X126.463 Y125.667 E0.03191 ; brim
G1 X125.604 Y125.279 E0.02953 ; brim
G1 X124.761 Y124.840 E0.02980 ; brim
G1 X123.895 Y124.323 E0.03165 ; brim
G1 X122.897 Y123.636 E0.03797 ; brim
G1 X122.171 Y124.146 E0.02782 ; brim
G1 X121.215 Y124.714 E0.03485 ; brim
G1 X120.225 Y125.217 E0.03483 ; brim
G1 X119.187 Y125.662 E0.03542 ; brim
G1 X118.293 Y125.983 E0.02976 ; brim
G1 X117.379 Y126.256 E0.02994 ; brim
G1 X116.352 Y126.500 E0.03308 ; brim
G1 X115.420 Y126.665 E0.02967 ; brim
G1 X114.509 Y126.778 E0.02880 ; brim
G1 X113.646 Y126.842 E0.02713 ; brim
G1 X112.612 Y126.862 E0.03242 ; brim
G1 X111.752 Y126.833 E0.02700 ; brim
G1 X110.696 Y126.740 E0.03323 ; brim
G1 X109.757 Y126.604 E0.02974 ; brim
G1 X108.816 Y126.415 E0.03011 ; brim
G1 X107.863 Y126.168 E0.03085 ; brim
G1 X106.939 Y125.873 E0.03043 ; brim
G1 X106.018 Y125.520 E0.03092 ; brim
G1 X105.159 Y125.135 E0.02952 ; brim
G1 X104.231 Y124.653 E0.03279 ; brim
G1 X103.408 Y124.160 E0.03007 ; brim
G1 X102.580 Y123.597 E0.03139 ; brim
G1 X101.518 Y122.757 E0.04246 ; brim
G1 X100.810 Y122.111 E0.03005 ; brim
G1 X100.186 Y121.473 E0.02799 ; brim
G1 X99.380 Y120.528 E0.03893 ; brim
G1 X98.512 Y119.313 E0.04682 ; brim
G1 X97.852 Y118.184 E0.04100 ; brim
G1 X97.279 Y116.978 E0.04188 ; brim
G1 X96.774 Y115.590 E0.04629 ; brim
G1 X96.529 Y115.245 E0.01327 ; brim
G1 X95.828 Y113.874 E0.04828 ; brim
G1 X95.426 Y112.644 E0.04058 ; brim
G1 X95.202 Y111.378 E0.04032 ; brim
G1 X95.178 Y109.791 E0.04976 ; brim
G1 X95.386 Y108.321 E0.04654 ; brim
G1 X95.725 Y106.939 E0.04462 ; brim
G1 X96.195 Y105.593 E0.04471 ; brim
G1 X96.832 Y104.217 E0.04754 ; brim
G1 X97.604 Y102.906 E0.04771 ; brim
G1 X98.436 Y101.767 E0.04421 ; brim
G1 X97.816 Y100.719 E0.03821 ; brim
G1 X97.157 Y99.321 E0.04845 ; brim
G1 X96.781 Y98.302 E0.03403 ; brim
G1 X96.710 Y98.051 E0.00821 ; brim
G1 X96.330 Y97.509 E0.02076 ; brim
G1 X95.775 Y96.380 E0.03944 ; brim
G1 X95.335 Y95.009 E0.04514 ; brim
G1 X95.120 Y93.618 E0.04413 ; brim
G1 X95.122 Y92.222 E0.04378 ; brim
G1 X95.327 Y90.801 E0.04501 ; brim
G1 X95.670 Y89.409 E0.04495 ; brim
G1 X96.133 Y88.084 E0.04402 ; brim
G1 X96.722 Y86.798 E0.04432 ; brim
G1 X97.581 Y85.336 E0.05319 ; brim
G1 X98.459 Y84.142 E0.04647 ; brim
G1 X99.454 Y83.025 E0.04688 ; brim
G1 X100.554 Y82.002 E0.04712 ; brim
G1 X101.733 Y81.091 E0.04671 ; brim
G1 X102.824 Y80.386 E0.04073 ; brim
G1 X103.963 Y79.768 E0.04062 ; brim
G1 X105.348 Y79.159 E0.04746 ; brim
G1 X106.796 Y78.669 E0.04792 ; brim
G1 X108.148 Y78.335 E0.04367 ; brim
G1 X109.336 Y78.132 E0.03778 ; brim
G1 X110.384 Y78.021 E0.03306 ; brim
G1 X111.289 Y77.976 E0.02842 ; brim
G1 X112.720 Y77.998 E0.04485 ; brim
G1 X114.395 Y78.172 E0.05280 ; brim
G1 X115.973 Y78.485 E0.05046 ; brim
G1 X117.496 Y78.935 E0.04978 ; brim
G1 X118.804 Y79.448 E0.04405 ; brim
G1 X119.737 Y79.892 E0.03240 ; brim
G1 X120.628 Y80.384 E0.03191 ; brim
G1 X122.015 Y81.298 E0.05209 ; brim
G1 X122.274 Y81.100 E0.01022 ; brim
G1 X123.343 Y80.407 E0.03997 ; brim
G1 X124.550 Y79.752 E0.04306 ; brim
G1 X125.952 Y79.140 E0.04796 ; brim
G1 X127.338 Y78.673 E0.04585 ; brim
G1 X128.692 Y78.337 E0.04373 ; brim
G1 X129.843 Y78.138 E0.03662 ; brim
G1 X130.953 Y78.020 E0.03502 ; brim
G1 X131.855 Y77.976 E0.02830 ; brim
G1 X133.140 Y77.991 E0.04029 ; brim
G1 X134.746 Y78.142 E0.05058 ; brim
G1 X136.345 Y78.441 E0.05102 ; brim
G1 X137.903 Y78.885 E0.05078 ; brim
G1 X139.351 Y79.445 E0.04867 ; brim
G1 X140.301 Y79.896 E0.03297 ; brim
G1 X141.225 Y80.409 E0.03316 ; brim
G1 X142.400 Y81.178 E0.04400 ; brim
G1 X143.542 Y82.075 E0.04556 ; brim
G1 X144.604 Y83.074 E0.04571 ; brim
G1 X145.579 Y84.175 E0.04611 ; brim
G1 X146.587 Y85.579 E0.05418 ; brim
G1 X147.360 Y86.940 E0.04909 ; brim
G1 X147.926 Y88.206 E0.04348 ; brim
G1 X148.262 Y89.226 E0.03368 ; brim
G1 X148.653 Y89.792 E0.02156 ; brim
G1 X149.417 Y91.444 E0.05709 ; brim
G1 X149.794 Y92.963 E0.04906 ; brim
G1 X149.906 Y94.345 E0.04346 ; brim
G1 X149.829 Y95.570 E0.03850 ; brim
G1 X149.605 Y96.848 E0.04068 ; brim
G1 X149.276 Y98.091 E0.04032 ; brim
G1 X148.842 Y99.297 E0.04017 ; brim
G1 X148.315 Y100.449 E0.03974 ; brim
G1 X147.679 Y101.579 E0.04066 ; brim
G1 X147.038 Y102.532 E0.03601 ; brim
G1 X146.570 Y103.120 E0.02355 ; brim
G1 X146.058 Y103.158 F12000.000 ; move to first brim point
G1 F1800
G1 X146.251 Y103.434 E0.01055 ; brim
G1 X146.985 Y104.713 E0.04624 ; brim
G1 X147.619 Y106.138 E0.04889 ; brim
G1 X147.925 Y107.083 E0.03114 ; brim
G1 X148.310 Y107.625 E0.02086 ; brim
G1 X148.903 Y108.828 E0.04204 ; brim
G1 X149.393 Y110.530 E0.05554 ; brim
G1 X149.525 Y111.807 E0.04027 ; brim
G1 X149.468 Y113.081 E0.03998 ; brim
G1 X149.236 Y114.452 E0.04361 ; brim
G1 X148.917 Y115.654 E0.03898 ; brim
G1 X148.510 Y116.793 E0.03792 ; brim
G1 X148.017 Y117.883 E0.03754 ; brim
