; generated by Slic3r 1.37.2.1-prusa3d-win64 on 2018-04-04 at 21:28:30

; 

; external perimeters extrusion width = 0.45mm
; perimeters extrusion width = 0.45mm
; infill extrusion width = 0.45mm
; solid infill extrusion width = 0.45mm
; top infill extrusion width = 0.40mm
; first layer extrusion width = 0.42mm

M107 ; disable fan
M115 U3.1.1-RC5 ; tell printer latest fw version
M83  ; extruder relative mode
M104 S215 ; set extruder temp
M140 S60 ; set bed temp
M190 S60 ; wait for bed temp
M109 S215 ; wait for extruder temp
G28 W ; home all without mesh bed level
G80 ; mesh bed leveling
G1 Y-3.0 F1000.0 ; go outside print area
G92 E0.0
G1 X60.0 E9.0  F1000.0 ; intro line
G1 X100.0 E12.5  F1000.0 ; intro line
G92 E0.0
M221 S95
M900 K30
G21 ; set units to millimeters
G90 ; use absolute coordinates
M83 ; use relative distances for extrusion
;BEFORE_LAYER_CHANGE
;0.2


G1 E-0.80000 F2100.00000 ; retract
G1 Z0.600 F12000.000 ; lift Z
;AFTER_LAYER_CHANGE
;0.2
G1 X153.323 Y89.781 F12000.000 ; move to first skirt point
G1 Z0.200 F12000.000 ; restore layer Z
G1 E0.80000 F2100.00000 ; unretract
M204 S1000 ; adjust acceleration
G1 F1800
G1 X153.477 Y90.894 E0.03524 ; skirt
G1 X153.471 Y116.585 E0.80552 ; skirt
G1 X153.147 Y118.400 E0.05780 ; skirt
G1 X152.606 Y120.035 E0.05400 ; skirt
G1 X151.886 Y121.528 E0.05198 ; skirt
G1 X150.829 Y123.131 E0.06020 ; skirt
G1 X149.728 Y124.406 E0.05280 ; skirt
G1 X148.497 Y125.534 E0.05236 ; skirt
G1 X147.130 Y126.528 E0.05299 ; skirt
G1 X145.821 Y127.286 E0.04744 ; skirt
G1 X144.224 Y128.003 E0.05489 ; skirt
G1 X142.542 Y128.550 E0.05544 ; skirt
G1 X140.793 Y128.918 E0.05605 ; skirt
G1 X139.029 Y129.098 E0.05559 ; skirt
G1 X108.419 Y129.119 E0.95976 ; skirt
G1 X106.977 Y129.066 E0.04523 ; skirt
G1 X104.577 Y128.702 E0.07612 ; skirt
G1 X102.473 Y128.078 E0.06882 ; skirt
G1 X100.475 Y127.179 E0.06867 ; skirt
G1 X98.470 Y125.900 E0.07458 ; skirt
G1 X97.407 Y125.020 E0.04327 ; skirt
G1 X96.496 Y124.114 E0.04030 ; skirt
G1 X95.631 Y123.079 E0.04227 ; skirt
G1 X94.865 Y121.956 E0.04264 ; skirt
G1 X94.287 Y120.908 E0.03752 ; skirt
G1 X91.886 Y115.774 E0.17769 ; skirt
G1 X91.656 Y115.146 E0.02098 ; skirt
G1 X91.537 Y114.473 E0.02144 ; skirt
G1 X91.535 Y88.349 E0.81909 ; skirt
G1 X91.856 Y86.589 E0.05610 ; skirt
G1 X92.397 Y84.958 E0.05388 ; skirt
G1 X93.114 Y83.472 E0.05174 ; skirt
G1 X94.171 Y81.869 E0.06020 ; skirt
G1 X95.060 Y80.817 E0.04317 ; skirt
G1 X96.256 Y79.673 E0.05192 ; skirt
G1 X97.343 Y78.828 E0.04315 ; skirt
G1 X98.751 Y77.943 E0.05214 ; skirt
G1 X100.114 Y77.269 E0.04768 ; skirt
G1 X101.457 Y76.751 E0.04512 ; skirt
G1 X103.128 Y76.286 E0.05438 ; skirt
G1 X104.550 Y76.033 E0.04529 ; skirt
G1 X106.715 Y75.881 E0.06807 ; skirt
G1 X136.585 Y75.881 E0.93655 ; skirt
G1 X138.027 Y75.934 E0.04523 ; skirt
G1 X139.480 Y76.112 E0.04591 ; skirt
G1 X140.802 Y76.388 E0.04236 ; skirt
G1 X142.187 Y76.800 E0.04529 ; skirt
G1 X143.525 Y77.331 E0.04514 ; skirt
G1 X144.750 Y77.944 E0.04293 ; skirt
G1 X145.947 Y78.682 E0.04411 ; skirt
G1 X147.071 Y79.528 E0.04410 ; skirt
G1 X148.732 Y81.139 E0.07255 ; skirt
G1 X150.133 Y83.041 E0.07407 ; skirt
G1 X150.838 Y84.352 E0.04665 ; skirt
G1 X153.298 Y89.726 E0.18534 ; skirt
G1 F9600
G1 X153.477 Y90.894 E-0.24556 ; wipe and retract
G1 F9600
G1 X153.477 Y93.370 E-0.51444 ; wipe and retract
G1 E-0.04000 F2100.00000 ; retract
G1 Z0.800 F12000.000 ; lift Z
G1 X113.469 Y95.243 F12000.000 ; move to first perimeter point
G1 Z0.200 F12000.000 ; restore layer Z
G1 E0.80000 F2100.00000 ; unretract
G1 F1800
G1 X111.370 Y95.979 E0.06974 ; perimeter
G1 X109.062 Y89.398 E0.21867 ; perimeter
G1 X112.341 Y88.248 E0.10893 ; perimeter
G1 X113.077 Y90.347 E0.06974 ; perimeter
G1 X111.897 Y90.760 E0.03919 ; perimeter
G1 X113.449 Y95.186 E0.14705 ; perimeter
G1 X112.988 Y95.012 F12000.000 ; move to first perimeter point
G1 F1800
G1 X111.601 Y95.498 E0.04609 ; perimeter
G1 X109.543 Y89.629 E0.19502 ; perimeter
G1 X112.110 Y88.728 E0.08528 ; perimeter
G1 X112.596 Y90.116 E0.04609 ; perimeter
G1 X111.416 Y90.529 E0.03919 ; perimeter
G1 X112.969 Y94.955 E0.14705 ; perimeter
G1 X113.088 Y95.399 F12000.000 ; move inwards before travel
G1 F9600
G1 X111.601 Y95.498 E-0.30574 ; wipe and retract
G1 F9600
G1 X110.878 Y93.435 E-0.45426 ; wipe and retract
G1 E-0.04000 F2100.00000 ; retract
G1 Z0.800 F12000.000 ; lift Z
G1 X103.161 Y91.949 F12000.000 ; move to first perimeter point
G1 Z0.200 F12000.000 ; restore layer Z
G1 E0.80000 F2100.00000 ; unretract
G1 F1800
G1 X101.062 Y92.685 E0.06974 ; perimeter
G1 X98.754 Y86.104 E0.21867 ; perimeter
G1 X102.032 Y84.954 E0.10893 ; perimeter
G1 X102.768 Y87.053 E0.06974 ; perimeter
G1 X101.589 Y87.466 E0.03919 ; perimeter
G1 X103.141 Y91.892 E0.14705 ; perimeter
G1 X102.680 Y91.718 F12000.000 ; move to first perimeter point
G1 F1800
G1 X101.293 Y92.204 E0.04609 ; perimeter
G1 X99.234 Y86.335 E0.19502 ; perimeter
G1 X101.801 Y85.434 E0.08528 ; perimeter
G1 X102.288 Y86.822 E0.04609 ; perimeter
G1 X101.108 Y87.235 E0.03919 ; perimeter
G1 X102.660 Y91.661 E0.14705 ; perimeter
G1 X102.779 Y92.105 F12000.000 ; move inwards before travel
G1 F9600
G1 X101.293 Y92.204 E-0.30574 ; wipe and retract
G1 F9600
G1 X100.569 Y90.141 E-0.45426 ; wipe and retract
G1 E-0.04000 F2100.00000 ; retract
G1 Z0.800 F12000.000 ; lift Z
G1 X94.680 Y89.194 F12000.000 ; move to first perimeter point
G1 Z0.200 F12000.000 ; restore layer Z
G1 E0.80000 F2100.00000 ; unretract
G1 F1800
G1 X94.553 Y88.975 E0.00793 ; perimeter
G1 X94.502 Y88.789 E0.00605 ; perimeter
G1 X94.489 Y88.609 E0.00565 ; perimeter
G1 X94.615 Y87.812 E0.02532 ; perimeter
G1 X94.795 Y87.081 E0.02360 ; perimeter
G1 X94.965 Y86.546 E0.01758 ; perimeter
G1 X95.142 Y86.077 E0.01574 ; perimeter
G1 X95.566 Y85.168 E0.03143 ; perimeter
G1 X95.948 Y84.504 E0.02402 ; perimeter
G1 X96.226 Y84.081 E0.01587 ; perimeter
G1 X96.853 Y83.261 E0.03237 ; perimeter
G1 X97.214 Y82.853 E0.01709 ; perimeter
G1 X97.589 Y82.469 E0.01681 ; perimeter
G1 X98.391 Y81.752 E0.03373 ; perimeter
G1 X99.262 Y81.105 E0.03405 ; perimeter
G1 X99.724 Y80.808 E0.01721 ; perimeter
G1 X100.201 Y80.529 E0.01733 ; perimeter
G1 X100.782 Y80.225 E0.02056 ; perimeter
G1 X101.307 Y79.983 E0.01811 ; perimeter
G1 X101.842 Y79.763 E0.01815 ; perimeter
G1 X102.387 Y79.566 E0.01818 ; perimeter
G1 X102.943 Y79.392 E0.01824 ; perimeter
G1 X104.082 Y79.114 E0.03676 ; perimeter
G1 X105.226 Y78.935 E0.03631 ; perimeter
G1 X105.822 Y78.880 E0.01876 ; perimeter
G1 X106.893 Y78.846 E0.03362 ; perimeter
G1 X107.636 Y78.868 E0.02329 ; perimeter
G1 X108.237 Y78.916 E0.01892 ; perimeter
G1 X108.840 Y78.990 E0.01905 ; perimeter
G1 X109.437 Y79.090 E0.01898 ; perimeter
G1 X110.512 Y79.339 E0.03459 ; perimeter
G1 X111.077 Y79.507 E0.01848 ; perimeter
G1 X111.638 Y79.700 E0.01860 ; perimeter
G1 X112.188 Y79.918 E0.01857 ; perimeter
G1 X112.723 Y80.158 E0.01837 ; perimeter
G1 X113.706 Y80.679 E0.03486 ; perimeter
G1 X114.186 Y80.975 E0.01769 ; perimeter
G1 X114.654 Y81.294 E0.01777 ; perimeter
G1 X115.105 Y81.633 E0.01768 ; perimeter
G1 X115.536 Y81.989 E0.01751 ; perimeter
G1 X116.152 Y82.565 E0.02644 ; perimeter
G1 X116.820 Y83.296 E0.03107 ; perimeter
G1 X117.149 Y83.709 E0.01655 ; perimeter
G1 X117.457 Y84.137 E0.01654 ; perimeter
G1 X117.881 Y84.811 E0.02495 ; perimeter
G1 X118.304 Y85.622 E0.02870 ; perimeter
G1 X118.505 Y86.084 E0.01578 ; perimeter
G1 X118.684 Y86.557 E0.01587 ; perimeter
G1 X118.837 Y87.037 E0.01581 ; perimeter
G1 X118.966 Y87.524 E0.01580 ; perimeter
G1 X119.070 Y88.020 E0.01586 ; perimeter
G1 X119.178 Y88.686 E0.02115 ; perimeter
G1 X119.304 Y89.084 E0.01310 ; perimeter
G1 X119.453 Y89.367 E0.01003 ; perimeter
G1 X119.716 Y89.703 E0.01338 ; perimeter
G1 X119.944 Y89.905 E0.00955 ; perimeter
G1 X120.344 Y90.180 E0.01521 ; perimeter
G1 X120.464 Y90.307 E0.00549 ; perimeter
G1 X120.605 Y90.566 E0.00924 ; perimeter
G1 X120.643 Y90.708 E0.00462 ; perimeter
G1 X120.656 Y90.900 E0.00603 ; perimeter
G1 X120.528 Y91.696 E0.02527 ; perimeter
G1 X120.418 Y92.172 E0.01533 ; perimeter
G1 X120.178 Y92.958 E0.02574 ; perimeter
G1 X119.803 Y93.881 E0.03126 ; perimeter
G1 X119.455 Y94.561 E0.02392 ; perimeter
G1 X119.199 Y94.994 E0.01577 ; perimeter
G1 X118.616 Y95.835 E0.03209 ; perimeter
G1 X118.293 Y96.237 E0.01616 ; perimeter
G1 X117.745 Y96.842 E0.02561 ; perimeter
G1 X117.161 Y97.401 E0.02535 ; perimeter
G1 X116.326 Y98.081 E0.03376 ; perimeter
G1 X115.424 Y98.691 E0.03415 ; perimeter
G1 X114.620 Y99.145 E0.02894 ; perimeter
G1 X113.835 Y99.519 E0.02728 ; perimeter
G1 X113.303 Y99.738 E0.01804 ; perimeter
G1 X112.757 Y99.935 E0.01818 ; perimeter
G1 X112.202 Y100.109 E0.01824 ; perimeter
G1 X111.640 Y100.258 E0.01823 ; perimeter
G1 X110.772 Y100.441 E0.02781 ; perimeter
G1 X109.916 Y100.565 E0.02714 ; perimeter
G1 X109.318 Y100.621 E0.01882 ; perimeter
G1 X108.716 Y100.650 E0.01889 ; perimeter
G1 X108.117 Y100.654 E0.01880 ; perimeter
G1 X107.206 Y100.612 E0.02860 ; perimeter
G1 X106.606 Y100.551 E0.01891 ; perimeter
G1 X106.005 Y100.464 E0.01903 ; perimeter
G1 X105.215 Y100.308 E0.02526 ; perimeter
G1 X104.640 Y100.164 E0.01856 ; perimeter
G1 X103.783 Y99.899 E0.02815 ; perimeter
G1 X103.230 Y99.694 E0.01848 ; perimeter
G1 X102.685 Y99.464 E0.01856 ; perimeter
G1 X102.152 Y99.211 E0.01848 ; perimeter
G1 X101.442 Y98.824 E0.02538 ; perimeter
G1 X100.958 Y98.526 E0.01780 ; perimeter
G1 X100.490 Y98.206 E0.01777 ; perimeter
G1 X100.039 Y97.868 E0.01768 ; perimeter
G1 X99.611 Y97.513 E0.01744 ; perimeter
G1 X98.864 Y96.805 E0.03226 ; perimeter
G1 X98.502 Y96.413 E0.01673 ; perimeter
G1 X98.159 Y96.002 E0.01679 ; perimeter
G1 X97.837 Y95.578 E0.01669 ; perimeter
G1 X97.539 Y95.140 E0.01662 ; perimeter
G1 X97.262 Y94.689 E0.01659 ; perimeter
G1 X97.010 Y94.225 E0.01655 ; perimeter
G1 X96.737 Y93.650 E0.01997 ; perimeter
G1 X96.547 Y93.181 E0.01585 ; perimeter
G1 X96.381 Y92.704 E0.01584 ; perimeter
G1 X96.240 Y92.224 E0.01568 ; perimeter
G1 X96.073 Y91.477 E0.02400 ; perimeter
G1 X95.967 Y90.815 E0.02103 ; perimeter
G1 X95.837 Y90.407 E0.01343 ; perimeter
G1 X95.619 Y90.027 E0.01372 ; perimeter
G1 X95.420 Y89.791 E0.00970 ; perimeter
G1 X95.201 Y89.595 E0.00922 ; perimeter
G1 X94.801 Y89.321 E0.01521 ; perimeter
G1 X94.721 Y89.237 E0.00361 ; perimeter
G1 X94.448 Y89.497 F12000.000 ; move to first perimeter point
G1 F1800
G1 X94.381 Y89.427 E0.00305 ; perimeter
G1 X94.243 Y89.208 E0.00810 ; perimeter
G1 X94.128 Y88.852 E0.01172 ; perimeter
G1 X94.111 Y88.599 E0.00796 ; perimeter
G1 X94.155 Y88.239 E0.01138 ; perimeter
G1 X94.246 Y87.733 E0.01612 ; perimeter
G1 X94.431 Y86.978 E0.02437 ; perimeter
G1 X94.608 Y86.422 E0.01830 ; perimeter
G1 X94.793 Y85.934 E0.01635 ; perimeter
G1 X95.001 Y85.457 E0.01635 ; perimeter
G1 X95.233 Y84.990 E0.01633 ; perimeter
G1 X95.626 Y84.306 E0.02473 ; perimeter
G1 X95.916 Y83.866 E0.01651 ; perimeter
G1 X96.229 Y83.436 E0.01668 ; perimeter
G1 X96.565 Y83.018 E0.01683 ; perimeter
G1 X96.938 Y82.596 E0.01765 ; perimeter
G1 X97.324 Y82.200 E0.01737 ; perimeter
G1 X97.729 Y81.821 E0.01739 ; perimeter
G1 X98.152 Y81.460 E0.01743 ; perimeter
G1 X99.051 Y80.792 E0.03510 ; perimeter
G1 X99.527 Y80.486 E0.01773 ; perimeter
G1 X100.019 Y80.199 E0.01787 ; perimeter
G1 X100.616 Y79.887 E0.02112 ; perimeter
G1 X101.156 Y79.637 E0.01865 ; perimeter
G1 X101.706 Y79.411 E0.01866 ; perimeter
G1 X102.267 Y79.208 E0.01869 ; perimeter
G1 X102.838 Y79.030 E0.01875 ; perimeter
G1 X103.418 Y78.875 E0.01883 ; perimeter
G1 X104.008 Y78.744 E0.01894 ; perimeter
G1 X105.183 Y78.561 E0.03730 ; perimeter
G1 X105.798 Y78.504 E0.01936 ; perimeter
G1 X106.893 Y78.469 E0.03434 ; perimeter
G1 X107.656 Y78.492 E0.02395 ; perimeter
G1 X108.275 Y78.541 E0.01947 ; perimeter
G1 X108.895 Y78.617 E0.01956 ; perimeter
G1 X109.511 Y78.720 E0.01960 ; perimeter
G1 X110.608 Y78.974 E0.03532 ; perimeter
G1 X111.193 Y79.148 E0.01911 ; perimeter
G1 X111.769 Y79.347 E0.01912 ; perimeter
G1 X112.335 Y79.571 E0.01909 ; perimeter
G1 X112.889 Y79.819 E0.01902 ; perimeter
G1 X113.893 Y80.351 E0.03564 ; perimeter
G1 X114.391 Y80.659 E0.01835 ; perimeter
G1 X114.874 Y80.988 E0.01831 ; perimeter
G1 X115.339 Y81.337 E0.01823 ; perimeter
G1 X115.785 Y81.706 E0.01814 ; perimeter
G1 X116.420 Y82.299 E0.02726 ; perimeter
G1 X117.107 Y83.051 E0.03194 ; perimeter
G1 X117.450 Y83.481 E0.01724 ; perimeter
G1 X117.770 Y83.926 E0.01719 ; perimeter
G1 X118.208 Y84.623 E0.02580 ; perimeter
G1 X118.644 Y85.460 E0.02959 ; perimeter
G1 X118.854 Y85.942 E0.01649 ; perimeter
G1 X119.040 Y86.433 E0.01646 ; perimeter
G1 X119.200 Y86.932 E0.01642 ; perimeter
G1 X119.333 Y87.437 E0.01641 ; perimeter
G1 X119.441 Y87.951 E0.01645 ; perimeter
G1 X119.545 Y88.598 E0.02055 ; perimeter
G1 X119.653 Y88.938 E0.01117 ; perimeter
G1 X119.771 Y89.161 E0.00791 ; perimeter
G1 X119.992 Y89.444 E0.01127 ; perimeter
G1 X120.177 Y89.608 E0.00774 ; perimeter
G1 X120.590 Y89.891 E0.01570 ; perimeter
G1 X120.763 Y90.074 E0.00790 ; perimeter
G1 X120.900 Y90.290 E0.00801 ; perimeter
G1 X120.964 Y90.446 E0.00529 ; perimeter
G1 X121.016 Y90.647 E0.00651 ; perimeter
G1 X121.034 Y90.905 E0.00810 ; perimeter
G1 X120.898 Y91.770 E0.02747 ; perimeter
G1 X120.782 Y92.270 E0.01610 ; perimeter
G1 X120.536 Y93.080 E0.02653 ; perimeter
G1 X120.352 Y93.566 E0.01631 ; perimeter
G1 X120.143 Y94.043 E0.01631 ; perimeter
G1 X119.785 Y94.743 E0.02465 ; perimeter
G1 X119.519 Y95.193 E0.01642 ; perimeter
G1 X119.229 Y95.634 E0.01655 ; perimeter
G1 X118.916 Y96.064 E0.01668 ; perimeter
G1 X118.580 Y96.482 E0.01679 ; perimeter
G1 X118.015 Y97.105 E0.02638 ; perimeter
G1 X117.414 Y97.681 E0.02611 ; perimeter
G1 X116.992 Y98.041 E0.01740 ; perimeter
G1 X116.551 Y98.384 E0.01751 ; perimeter
G1 X115.619 Y99.014 E0.03528 ; perimeter
G1 X114.794 Y99.480 E0.02970 ; perimeter
G1 X113.988 Y99.864 E0.02802 ; perimeter
G1 X113.438 Y100.090 E0.01863 ; perimeter
G1 X112.878 Y100.292 E0.01869 ; perimeter
G1 X112.307 Y100.471 E0.01875 ; perimeter
G1 X111.727 Y100.625 E0.01880 ; perimeter
G1 X110.838 Y100.812 E0.02849 ; perimeter
G1 X109.960 Y100.940 E0.02782 ; perimeter
G1 X109.345 Y100.997 E0.01939 ; perimeter
G1 X108.727 Y101.027 E0.01940 ; perimeter
G1 X108.109 Y101.032 E0.01936 ; perimeter
G1 X107.178 Y100.988 E0.02923 ; perimeter
G1 X106.559 Y100.925 E0.01949 ; perimeter
G1 X105.941 Y100.836 E0.01959 ; perimeter
G1 X105.132 Y100.676 E0.02586 ; perimeter
G1 X104.539 Y100.527 E0.01918 ; perimeter
G1 X103.661 Y100.256 E0.02880 ; perimeter
G1 X103.091 Y100.045 E0.01907 ; perimeter
G1 X102.530 Y99.808 E0.01909 ; perimeter
G1 X101.981 Y99.547 E0.01907 ; perimeter
G1 X101.252 Y99.150 E0.02601 ; perimeter
G1 X100.753 Y98.842 E0.01839 ; perimeter
G1 X100.271 Y98.513 E0.01831 ; perimeter
G1 X99.806 Y98.164 E0.01823 ; perimeter
G1 X99.360 Y97.795 E0.01812 ; perimeter
G1 X98.595 Y97.070 E0.03306 ; perimeter
G1 X98.219 Y96.662 E0.01742 ; perimeter
G1 X97.864 Y96.237 E0.01736 ; perimeter
G1 X97.531 Y95.798 E0.01727 ; perimeter
G1 X97.222 Y95.345 E0.01721 ; perimeter
G1 X96.936 Y94.877 E0.01718 ; perimeter
G1 X96.674 Y94.396 E0.01718 ; perimeter
G1 X96.392 Y93.801 E0.02064 ; perimeter
G1 X96.194 Y93.314 E0.01648 ; perimeter
G1 X96.022 Y92.819 E0.01644 ; perimeter
G1 X95.875 Y92.318 E0.01637 ; perimeter
G1 X95.703 Y91.548 E0.02474 ; perimeter
G1 X95.599 Y90.903 E0.02051 ; perimeter
G1 X95.490 Y90.559 E0.01129 ; perimeter
G1 X95.309 Y90.245 E0.01139 ; perimeter
G1 X95.149 Y90.054 E0.00779 ; perimeter
G1 X94.968 Y89.893 E0.00762 ; perimeter
G1 X94.555 Y89.609 E0.01570 ; perimeter
G1 X94.490 Y89.541 E0.00297 ; perimeter
G1 X94.471 Y89.403 F12000.000 ; move inwards before travel
G1 F9600
G1 X94.381 Y89.427 E-0.03270 ; wipe and retract
G1 F9600
