; generated by Slic3r 1.37.2.1-prusa3d on 2018-05-04 at 00:25:58

; 

; external perimeters extrusion width = 0.45mm
; perimeters extrusion width = 0.45mm
; infill extrusion width = 0.45mm
; solid infill extrusion width = 0.45mm
; top infill extrusion width = 0.40mm
; first layer extrusion width = 0.42mm

M107 ; disable fan
M115 U3.1.1-RC5 ; tell printer latest fw version
M83  ; extruder relative mode
M104 S215 ; set extruder temp
M140 S60 ; set bed temp
M190 S60 ; wait for bed temp
M109 S215 ; wait for extruder temp
G28 W ; home all without mesh bed level
G80 ; mesh bed leveling
G1 Y-3.0 F1000.0 ; go outside print area
G92 E0.0
G1 X60.0 E9.0  F1000.0 ; intro line
G1 X100.0 E12.5  F1000.0 ; intro line
G92 E0.0
M221 S95
M900 K30
G21 ; set units to millimeters
G90 ; use absolute coordinates
M83 ; use relative distances for extrusion
;BEFORE_LAYER_CHANGE
;0.2


G1 E-0.80000 F2100.00000 ; retract
G1 Z0.600 F12000.000 ; lift Z
;AFTER_LAYER_CHANGE
;0.2
G1 X10.263 Y9.613 F12000.000 ; move to first skirt point
G1 Z0.200 F12000.000 ; restore layer Z
G1 E0.80000 F2100.00000 ; unretract
M204 S1000 ; adjust acceleration
G1 F1800
G1 X11.065 Y9.472 E0.02555 ; skirt
G1 X240.671 Y9.472 E7.19912 ; skirt
G1 X241.573 Y9.651 E0.02884 ; skirt
G1 X242.339 Y10.160 E0.02884 ; skirt
G1 X242.855 Y10.921 E0.02884 ; skirt
G1 X243.044 Y11.821 E0.02884 ; skirt
G1 X243.763 Y88.650 E2.40902 ; skirt
G1 X243.764 Y199.216 E3.46672 ; skirt
G1 X243.706 Y199.734 E0.01633 ; skirt
G1 X243.538 Y200.227 E0.01633 ; skirt
G1 X243.264 Y200.674 E0.01645 ; skirt
G1 X242.902 Y201.048 E0.01633 ; skirt
G1 X242.194 Y201.452 E0.02555 ; skirt
G1 X241.391 Y201.593 E0.02555 ; skirt
G1 X11.383 Y201.593 E7.21176 ; skirt
G1 X10.865 Y201.535 E0.01633 ; skirt
G1 X10.373 Y201.366 E0.01633 ; skirt
G1 X9.929 Y201.094 E0.01633 ; skirt
G1 X9.555 Y200.731 E0.01633 ; skirt
G1 X9.152 Y200.027 E0.02543 ; skirt
G1 X9.009 Y199.229 E0.02543 ; skirt
G1 X8.693 Y122.351 E2.41046 ; skirt
G1 X8.693 Y11.849 E3.46472 ; skirt
G1 X8.750 Y11.332 E0.01633 ; skirt
G1 X8.918 Y10.839 E0.01633 ; skirt
G1 X9.192 Y10.391 E0.01645 ; skirt
G1 X9.555 Y10.018 E0.01633 ; skirt
G1 X10.210 Y9.643 E0.02367 ; skirt
G1 F9600
G1 X11.065 Y9.472 E-0.18113 ; wipe and retract
G1 F9600
G1 X13.851 Y9.472 E-0.57887 ; wipe and retract
G1 E-0.04000 F2100.00000 ; retract
G1 Z0.800 F12000.000 ; lift Z
G1 X11.974 Y126.803 F12000.000 ; move to first perimeter point
G1 Z0.200 F12000.000 ; restore layer Z
G1 E0.80000 F2100.00000 ; unretract
G1 F1800
G1 X13.799 Y126.803 E0.05725 ; perimeter
G1 X13.799 Y129.387 E0.08101 ; perimeter
G1 X184.546 Y99.280 E5.43623 ; perimeter
G1 X199.290 Y182.896 E2.66219 ; perimeter
G1 X225.018 Y178.360 E0.81913 ; perimeter
G1 X217.590 Y93.453 E2.67236 ; perimeter
G1 X240.799 Y89.361 E0.73895 ; perimeter
G1 X240.799 Y198.629 E3.42604 ; perimeter
G1 X186.837 Y198.629 E1.69195 ; perimeter
G1 X171.425 Y141.113 E1.86700 ; perimeter
G1 X122.874 Y149.674 E1.54580 ; perimeter
G1 X122.874 Y136.629 E0.40901 ; perimeter
G1 X113.699 Y136.629 E0.28765 ; perimeter
G1 X113.699 Y151.292 E0.45973 ; perimeter
G1 X35.706 Y165.044 E2.48314 ; perimeter
G1 X39.383 Y185.896 E0.66390 ; perimeter
G1 X75.190 Y179.583 E1.14001 ; perimeter
G1 X56.143 Y198.629 E0.84455 ; perimeter
G1 X11.974 Y198.629 E1.38491 ; perimeter
G1 X11.974 Y126.863 E2.25017 ; perimeter
G1 F9600
G1 X13.799 Y126.803 E-0.37964 ; wipe and retract
G1 F9600
G1 X13.799 Y128.634 E-0.38036 ; wipe and retract
G1 E-0.04000 F2100.00000 ; retract
G1 Z0.800 F12000.000 ; lift Z
G1 X171.151 Y141.544 F12000.000 ; move to first perimeter point
G1 Z0.200 F12000.000 ; restore layer Z
G1 E0.80000 F2100.00000 ; unretract
G1 F1800
G1 X122.496 Y150.123 E1.54905 ; perimeter
G1 X122.496 Y137.006 E0.41128 ; perimeter
G1 X114.076 Y137.006 E0.26400 ; perimeter
G1 X114.076 Y151.608 E0.45783 ; perimeter
G1 X36.143 Y165.350 E2.48124 ; perimeter
G1 X39.689 Y185.459 E0.64025 ; perimeter
G1 X76.302 Y179.004 E1.16568 ; perimeter
G1 X56.299 Y199.006 E0.88695 ; perimeter
G1 X11.596 Y199.006 E1.40163 ; perimeter
G1 X11.596 Y126.426 E2.27569 ; perimeter
G1 X14.176 Y126.426 E0.08089 ; perimeter
G1 X14.176 Y128.938 E0.07874 ; perimeter
G1 X184.852 Y98.843 E5.43397 ; perimeter
G1 X199.596 Y182.459 E2.66219 ; perimeter
G1 X224.612 Y178.048 E0.79648 ; perimeter
G1 X217.184 Y93.142 E2.67236 ; perimeter
G1 X241.176 Y88.911 E0.76387 ; perimeter
G1 X241.176 Y199.006 E3.45195 ; perimeter
G1 X186.548 Y199.006 E1.71285 ; perimeter
G1 X171.166 Y141.602 E1.86335 ; perimeter
G1 X170.991 Y141.178 F12000.000 ; move inwards before travel
G1 X171.399 Y141.003 F12000.000 ; move to first infill point
G1 F1800
G1 X138.145 Y107.749 E1.47515 ; infill
G1 X137.692 Y107.828 E0.01445 ; infill
G1 X170.799 Y140.936 E1.46865 ; infill
G1 X170.346 Y141.016 E0.01445 ; infill
G1 X137.238 Y107.908 E1.46865 ; infill
G1 X136.785 Y107.988 E0.01445 ; infill
G1 X169.892 Y141.096 E1.46865 ; infill
G1 X169.439 Y141.176 E0.01445 ; infill
G1 X136.331 Y108.068 E1.46865 ; infill
G1 X135.878 Y108.148 E0.01445 ; infill
G1 X168.985 Y141.256 E1.46865 ; infill
G1 X168.532 Y141.336 E0.01445 ; infill
G1 X135.424 Y108.228 E1.46865 ; infill
G1 X134.971 Y108.308 E0.01445 ; infill
G1 X168.078 Y141.416 E1.46865 ; infill
G1 X167.625 Y141.496 E0.01445 ; infill
G1 X134.517 Y108.388 E1.46865 ; infill
G1 X134.064 Y108.468 E0.01445 ; infill
G1 X167.171 Y141.576 E1.46865 ; infill
G1 X166.718 Y141.656 E0.01445 ; infill
G1 X133.610 Y108.548 E1.46865 ; infill
G1 X133.156 Y108.628 E0.01445 ; infill
G1 X166.264 Y141.736 E1.46865 ; infill
G1 X165.811 Y141.816 E0.01445 ; infill
G1 X132.703 Y108.708 E1.46865 ; infill
G1 X132.249 Y108.788 E0.01445 ; infill
G1 X165.357 Y141.896 E1.46865 ; infill
G1 X164.904 Y141.976 E0.01445 ; infill
G1 X131.796 Y108.868 E1.46865 ; infill
G1 X131.342 Y108.948 E0.01445 ; infill
G1 X164.450 Y142.056 E1.46865 ; infill
G1 X163.997 Y142.136 E0.01445 ; infill
G1 X130.889 Y109.028 E1.46865 ; infill
G1 X130.435 Y109.108 E0.01445 ; infill
G1 X163.543 Y142.216 E1.46865 ; infill
G1 X163.089 Y142.296 E0.01445 ; infill
G1 X129.982 Y109.188 E1.46865 ; infill
G1 X129.528 Y109.268 E0.01445 ; infill
G1 X162.636 Y142.376 E1.46865 ; infill
G1 X162.182 Y142.456 E0.01445 ; infill
G1 X129.075 Y109.348 E1.46865 ; infill
G1 X128.621 Y109.428 E0.01445 ; infill
G1 X161.729 Y142.536 E1.46865 ; infill
G1 X161.275 Y142.615 E0.01445 ; infill
G1 X128.168 Y109.508 E1.46865 ; infill
G1 X127.714 Y109.588 E0.01445 ; infill
G1 X160.822 Y142.695 E1.46865 ; infill
G1 X160.368 Y142.775 E0.01445 ; infill
G1 X127.261 Y109.668 E1.46865 ; infill
G1 X126.807 Y109.748 E0.01445 ; infill
G1 X159.915 Y142.855 E1.46865 ; infill
G1 X159.461 Y142.935 E0.01445 ; infill
G1 X126.354 Y109.828 E1.46865 ; infill
G1 X125.900 Y109.908 E0.01445 ; infill
G1 X159.008 Y143.015 E1.46865 ; infill
G1 X158.554 Y143.095 E0.01445 ; infill
G1 X125.447 Y109.988 E1.46865 ; infill
G1 X124.993 Y110.068 E0.01445 ; infill
G1 X158.101 Y143.175 E1.46865 ; infill
G1 X157.647 Y143.255 E0.01445 ; infill
G1 X124.540 Y110.148 E1.46865 ; infill
G1 X124.086 Y110.228 E0.01445 ; infill
G1 X157.194 Y143.335 E1.46865 ; infill
G1 X156.740 Y143.415 E0.01445 ; infill
G1 X123.633 Y110.307 E1.46865 ; infill
G1 X123.179 Y110.387 E0.01445 ; infill
G1 X156.287 Y143.495 E1.46865 ; infill
G1 X155.833 Y143.575 E0.01445 ; infill
G1 X122.725 Y110.467 E1.46865 ; infill
G1 X122.272 Y110.547 E0.01445 ; infill
G1 X155.380 Y143.655 E1.46865 ; infill
G1 X154.926 Y143.735 E0.01445 ; infill
G1 X121.818 Y110.627 E1.46865 ; infill
G1 X121.365 Y110.707 E0.01445 ; infill
G1 X154.473 Y143.815 E1.46865 ; infill
G1 X154.019 Y143.895 E0.01445 ; infill
G1 X120.911 Y110.787 E1.46865 ; infill
G1 X120.458 Y110.867 E0.01445 ; infill
G1 X153.566 Y143.975 E1.46865 ; infill
G1 X153.112 Y144.055 E0.01445 ; infill
G1 X120.004 Y110.947 E1.46865 ; infill
G1 X119.551 Y111.027 E0.01445 ; infill
G1 X152.659 Y144.135 E1.46865 ; infill
G1 X152.205 Y144.215 E0.01445 ; infill
G1 X119.097 Y111.107 E1.46865 ; infill
G1 X118.644 Y111.187 E0.01445 ; infill
G1 X151.751 Y144.295 E1.46865 ; infill
G1 X151.298 Y144.375 E0.01445 ; infill
G1 X118.190 Y111.267 E1.46865 ; infill
G1 X117.737 Y111.347 E0.01445 ; infill
G1 X150.844 Y144.455 E1.46865 ; infill
G1 X150.391 Y144.535 E0.01445 ; infill
G1 X117.283 Y111.427 E1.46865 ; infill
G1 X116.830 Y111.507 E0.01445 ; infill
G1 X149.937 Y144.615 E1.46865 ; infill
G1 X149.484 Y144.695 E0.01445 ; infill
G1 X116.376 Y111.587 E1.46865 ; infill
G1 X115.923 Y111.667 E0.01445 ; infill
G1 X149.030 Y144.775 E1.46865 ; infill
G1 X148.577 Y144.855 E0.01445 ; infill
G1 X115.469 Y111.747 E1.46865 ; infill
G1 X115.016 Y111.827 E0.01445 ; infill
G1 X148.123 Y144.935 E1.46865 ; infill
G1 X147.670 Y145.015 E0.01445 ; infill
G1 X114.562 Y111.907 E1.46865 ; infill
G1 X114.109 Y111.987 E0.01445 ; infill
G1 X147.216 Y145.094 E1.46865 ; infill
G1 X146.763 Y145.174 E0.01445 ; infill
G1 X113.655 Y112.067 E1.46865 ; infill
G1 X113.202 Y112.147 E0.01445 ; infill
G1 X146.309 Y145.254 E1.46865 ; infill
G1 X145.856 Y145.334 E0.01445 ; infill
G1 X112.748 Y112.227 E1.46865 ; infill
G1 X112.294 Y112.307 E0.01445 ; infill
G1 X145.402 Y145.414 E1.46865 ; infill
G1 X144.949 Y145.494 E0.01445 ; infill
G1 X111.841 Y112.387 E1.46865 ; infill
G1 X111.387 Y112.467 E0.01445 ; infill
G1 X144.495 Y145.574 E1.46865 ; infill
G1 X144.042 Y145.654 E0.01445 ; infill
G1 X110.934 Y112.547 E1.46865 ; infill
G1 X110.480 Y112.627 E0.01445 ; infill
G1 X143.588 Y145.734 E1.46865 ; infill
G1 X143.135 Y145.814 E0.01445 ; infill
G1 X110.027 Y112.707 E1.46865 ; infill
G1 X109.573 Y112.786 E0.01445 ; infill
G1 X142.681 Y145.894 E1.46865 ; infill
G1 X142.228 Y145.974 E0.01445 ; infill
G1 X109.120 Y112.866 E1.46865 ; infill
G1 X108.666 Y112.946 E0.01445 ; infill
G1 X141.774 Y146.054 E1.46865 ; infill
G1 X141.320 Y146.134 E0.01445 ; infill
G1 X108.213 Y113.026 E1.46865 ; infill
G1 X107.759 Y113.106 E0.01445 ; infill
G1 X140.867 Y146.214 E1.46865 ; infill
G1 X140.413 Y146.294 E0.01445 ; infill
G1 X107.306 Y113.186 E1.46865 ; infill
G1 X106.852 Y113.266 E0.01445 ; infill
G1 X139.960 Y146.374 E1.46865 ; infill
G1 X139.506 Y146.454 E0.01445 ; infill
G1 X106.399 Y113.346 E1.46865 ; infill
G1 X105.945 Y113.426 E0.01445 ; infill
G1 X139.053 Y146.534 E1.46865 ; infill
G1 X138.599 Y146.614 E0.01445 ; infill
G1 X105.492 Y113.506 E1.46865 ; infill
G1 X105.038 Y113.586 E0.01445 ; infill
G1 X138.146 Y146.694 E1.46865 ; infill
G1 X137.692 Y146.774 E0.01445 ; infill
G1 X104.585 Y113.666 E1.46865 ; infill
G1 X104.131 Y113.746 E0.01445 ; infill
G1 X137.239 Y146.854 E1.46865 ; infill
G1 X136.785 Y146.934 E0.01445 ; infill
G1 X103.678 Y113.826 E1.46865 ; infill
G1 X103.224 Y113.906 E0.01445 ; infill
G1 X136.332 Y147.014 E1.46865 ; infill
G1 X135.878 Y147.094 E0.01445 ; infill
G1 X102.771 Y113.986 E1.46865 ; infill
G1 X102.317 Y114.066 E0.01445 ; infill
G1 X135.425 Y147.174 E1.46865 ; infill
G1 X134.971 Y147.254 E0.01445 ; infill
G1 X101.863 Y114.146 E1.46865 ; infill
G1 X101.410 Y114.226 E0.01445 ; infill
G1 X134.518 Y147.334 E1.46865 ; infill
G1 X134.064 Y147.414 E0.01445 ; infill
G1 X100.956 Y114.306 E1.46865 ; infill
G1 X100.503 Y114.386 E0.01445 ; infill
G1 X122.463 Y136.346 E0.97416 ; infill
G1 X121.930 Y136.346 E0.01673 ; infill
G1 X100.049 Y114.466 E0.97062 ; infill
G1 X99.596 Y114.546 E0.01445 ; infill
G1 X121.396 Y136.346 E0.96707 ; infill
G1 X120.863 Y136.346 E0.01673 ; infill
G1 X99.142 Y114.626 E0.96352 ; infill
G1 X98.689 Y114.706 E0.01445 ; infill
G1 X120.329 Y136.346 E0.95997 ; infill
G1 X119.796 Y136.346 E0.01673 ; infill
G1 X98.235 Y114.786 E0.95643 ; infill
G1 X97.782 Y114.866 E0.01445 ; infill
G1 X119.262 Y136.346 E0.95288 ; infill
G1 X118.729 Y136.346 E0.01673 ; infill
G1 X97.328 Y114.946 E0.94933 ; infill
G1 X96.875 Y115.026 E0.01445 ; infill
G1 X118.196 Y136.346 E0.94578 ; infill
G1 X117.662 Y136.346 E0.01673 ; infill
G1 X96.421 Y115.106 E0.94224 ; infill
G1 X95.968 Y115.186 E0.01445 ; infill
G1 X117.129 Y136.346 E0.93869 ; infill
G1 X116.595 Y136.346 E0.01673 ; infill
G1 X95.514 Y115.266 E0.93514 ; infill
G1 X95.061 Y115.345 E0.01445 ; infill
G1 X116.062 Y136.346 E0.93160 ; infill
G1 X115.528 Y136.346 E0.01673 ; infill
G1 X94.607 Y115.425 E0.92805 ; infill
G1 X94.154 Y115.505 E0.01445 ; infill
G1 X114.995 Y136.346 E0.92450 ; infill
G1 X114.461 Y136.346 E0.01673 ; infill
G1 X93.700 Y115.585 E0.92095 ; infill
G1 X93.247 Y115.665 E0.01445 ; infill
G1 X113.928 Y136.346 E0.91741 ; infill
G1 X113.417 Y136.346 E0.01603 ; infill
G1 X113.417 Y136.369 E0.00070 ; infill
G1 X92.793 Y115.745 E0.91486 ; infill
G1 X92.340 Y115.825 E0.01445 ; infill
G1 X113.417 Y136.902 E0.93497 ; infill
G1 X113.417 Y137.436 E0.01673 ; infill
G1 X91.886 Y115.905 E0.95509 ; infill
G1 X91.433 Y115.985 E0.01445 ; infill
G1 X113.417 Y137.969 E0.97521 ; infill
G1 X113.417 Y138.503 E0.01673 ; infill
G1 X90.979 Y116.065 E0.99533 ; infill
G1 X90.525 Y116.145 E0.01445 ; infill
G1 X113.417 Y139.036 E1.01545 ; infill
G1 X113.417 Y139.570 E0.01673 ; infill
G1 X90.072 Y116.225 E1.03556 ; infill
G1 X89.618 Y116.305 E0.01445 ; infill
G1 X113.417 Y140.103 E1.05568 ; infill
G1 X113.417 Y140.637 E0.01673 ; infill
G1 X89.165 Y116.385 E1.07580 ; infill
G1 X88.711 Y116.465 E0.01445 ; infill
G1 X113.417 Y141.170 E1.09592 ; infill
G1 X113.417 Y141.704 E0.01673 ; infill
G1 X88.258 Y116.545 E1.11604 ; infill
G1 X87.804 Y116.625 E0.01445 ; infill
G1 X113.417 Y142.237 E1.13615 ; infill
G1 X113.417 Y142.771 E0.01673 ; infill
G1 X87.351 Y116.705 E1.15627 ; infill
G1 X86.897 Y116.785 E0.01445 ; infill
G1 X113.417 Y143.304 E1.17639 ; infill
G1 X113.417 Y143.838 E0.01673 ; infill
G1 X86.444 Y116.865 E1.19651 ; infill
G1 X85.990 Y116.945 E0.01445 ; infill
G1 X113.417 Y144.371 E1.21663 ; infill
G1 X113.417 Y144.905 E0.01673 ; infill
G1 X85.537 Y117.025 E1.23675 ; infill
G1 X85.083 Y117.105 E0.01445 ; infill
G1 X113.417 Y145.438 E1.25686 ; infill
G1 X113.417 Y145.972 E0.01673 ; infill
G1 X84.630 Y117.185 E1.27698 ; infill
G1 X84.176 Y117.265 E0.01445 ; infill
G1 X113.417 Y146.505 E1.29710 ; infill
G1 X113.417 Y147.039 E0.01673 ; infill
G1 X83.723 Y117.345 E1.31722 ; infill
G1 X83.269 Y117.425 E0.01445 ; infill
G1 X113.417 Y147.572 E1.33734 ; infill
G1 X113.417 Y148.106 E0.01673 ; infill
G1 X82.816 Y117.505 E1.35745 ; infill
G1 X82.362 Y117.585 E0.01445 ; infill
G1 X113.417 Y148.639 E1.37757 ; infill
G1 X113.417 Y149.173 E0.01673 ; infill
G1 X81.909 Y117.665 E1.39769 ; infill
G1 X81.455 Y117.745 E0.01445 ; infill
G1 X113.417 Y149.706 E1.41781 ; infill
G1 X113.417 Y150.240 E0.01673 ; infill
G1 X81.002 Y117.824 E1.43793 ; infill
G1 X80.548 Y117.904 E0.01445 ; infill
G1 X113.417 Y150.773 E1.45804 ; infill
G1 X113.417 Y151.054 E0.00882 ; infill
G1 X113.202 Y151.092 E0.00683 ; infill
G1 X80.094 Y117.984 E1.46865 ; infill
G1 X79.641 Y118.064 E0.01445 ; infill
G1 X112.749 Y151.172 E1.46865 ; infill
G1 X112.295 Y151.252 E0.01445 ; infill
G1 X79.187 Y118.144 E1.46865 ; infill
G1 X78.734 Y118.224 E0.01445 ; infill
G1 X111.842 Y151.332 E1.46865 ; infill
G1 X111.388 Y151.412 E0.01445 ; infill
G1 X78.280 Y118.304 E1.46865 ; infill
G1 X77.827 Y118.384 E0.01445 ; infill
G1 X110.935 Y151.492 E1.46865 ; infill
G1 X110.481 Y151.572 E0.01445 ; infill
G1 X77.373 Y118.464 E1.46865 ; infill
G1 X76.920 Y118.544 E0.01445 ; infill
G1 X110.027 Y151.652 E1.46865 ; infill
G1 X109.574 Y151.732 E0.01445 ; infill
G1 X76.466 Y118.624 E1.46865 ; infill
G1 X76.013 Y118.704 E0.01445 ; infill
G1 X109.120 Y151.812 E1.46865 ; infill
G1 X108.667 Y151.892 E0.01445 ; infill
G1 X75.559 Y118.784 E1.46865 ; infill
G1 X75.106 Y118.864 E0.01445 ; infill
G1 X108.213 Y151.972 E1.46865 ; infill
G1 X107.760 Y152.052 E0.01445 ; infill
G1 X74.652 Y118.944 E1.46865 ; infill
G1 X74.199 Y119.024 E0.01445 ; infill
G1 X107.306 Y152.132 E1.46865 ; infill
G1 X106.853 Y152.212 E0.01445 ; infill
G1 X73.745 Y119.104 E1.46865 ; infill
G1 X73.292 Y119.184 E0.01445 ; infill
G1 X106.399 Y152.292 E1.46865 ; infill
G1 X105.946 Y152.372 E0.01445 ; infill
G1 X72.838 Y119.264 E1.46865 ; infill
G1 X72.385 Y119.344 E0.01445 ; infill
G1 X105.492 Y152.452 E1.46865 ; infill
