; generated by Slic3r 1.37.2.1-prusa3d on 2019-01-06 at 18:42:54

; 

; external perimeters extrusion width = 0.45mm
; perimeters extrusion width = 0.45mm
; infill extrusion width = 0.45mm
; solid infill extrusion width = 0.45mm
; top infill extrusion width = 0.40mm
; first layer extrusion width = 0.42mm

M107 ; disable fan
M115 U3.4.0 ; tell printer latest fw version
M83  ; extruder relative mode
M104 S215 ; set extruder temp
M140 S60 ; set bed temp
M190 S60 ; wait for bed temp
M109 S215 ; wait for extruder temp
G28 W ; home all without mesh bed level
G80 ; mesh bed leveling
G1 Y-3.0 F1000.0 ; go outside print area
G92 E0.0
G1 X60.0 E9.0  F1000.0 ; intro line
G1 X100.0 E12.5  F1000.0 ; intro line
G92 E0.0
M221 S95
M900 K30
G21 ; set units to millimeters
G90 ; use absolute coordinates
M83 ; use relative distances for extrusion
;BEFORE_LAYER_CHANGE
G92 E0.0
;0.2


G1 E-0.80000 F2100.00000 ; retract
G1 Z0.600 F10800.000 ; lift Z
;AFTER_LAYER_CHANGE
;0.2
G1 X27.890 Y55.751 F10800.000 ; move to first skirt point
G1 Z0.200 F10800.000 ; restore layer Z
G1 E0.80000 F2100.00000 ; unretract
M204 S1000 ; adjust acceleration
G1 F1200
G1 X28.420 Y55.382 E0.02024 ; skirt
G1 X28.940 Y55.190 E0.01740 ; skirt
G1 X29.495 Y55.123 E0.01752 ; skirt
G1 X220.504 Y55.123 E5.98894 ; skirt
G1 X221.406 Y55.302 E0.02884 ; skirt
G1 X222.172 Y55.811 E0.02884 ; skirt
G1 X222.688 Y56.572 E0.02884 ; skirt
G1 X222.877 Y57.476 E0.02896 ; skirt
G1 X222.877 Y152.530 E2.98036 ; skirt
G1 X222.782 Y153.165 E0.02012 ; skirt
G1 X222.519 Y153.755 E0.02024 ; skirt
G1 X222.110 Y154.249 E0.02012 ; skirt
G1 X221.580 Y154.618 E0.02024 ; skirt
G1 X221.060 Y154.810 E0.01740 ; skirt
G1 X220.505 Y154.877 E0.01752 ; skirt
G1 X29.489 Y154.877 E5.98918 ; skirt
G1 X28.846 Y154.785 E0.02036 ; skirt
G1 X28.252 Y154.523 E0.02036 ; skirt
G1 X27.754 Y154.113 E0.02024 ; skirt
G1 X27.382 Y153.580 E0.02036 ; skirt
G1 X27.190 Y153.060 E0.01740 ; skirt
G1 X27.123 Y152.505 E0.01752 ; skirt
G1 X27.123 Y57.477 E2.97953 ; skirt
G1 X27.217 Y56.838 E0.02024 ; skirt
G1 X27.479 Y56.249 E0.02024 ; skirt
G1 X27.852 Y55.797 E0.01836 ; skirt
G1 F8640
G1 X28.420 Y55.382 E-0.16244 ; wipe and retract
G1 F8640
G1 X28.940 Y55.190 E-0.12812 ; wipe and retract
G1 F8640
G1 X29.495 Y55.123 E-0.12899 ; wipe and retract
G1 F8640
G1 X30.970 Y55.123 E-0.34045 ; wipe and retract
G1 E-0.04000 F2100.00000 ; retract
G1 Z0.800 F10800.000 ; lift Z
G1 X152.783 Y113.482 F10800.000 ; move to first perimeter point
G1 Z0.200 F10800.000 ; restore layer Z
G1 E0.80000 F2100.00000 ; unretract
G1 F1200
G1 X153.932 Y111.573 E0.06986 ; perimeter
G1 X157.902 Y104.744 E0.24769 ; perimeter
G1 X158.663 Y103.459 E0.04681 ; perimeter
G1 X158.916 Y103.064 E0.01471 ; perimeter
G1 X159.291 Y102.376 E0.02456 ; perimeter
G1 X159.634 Y101.839 E0.01998 ; perimeter
G1 X159.816 Y101.607 E0.00923 ; perimeter
G1 X160.112 Y101.328 E0.01276 ; perimeter
G1 X160.471 Y101.192 E0.01203 ; perimeter
G1 X164.260 Y101.194 E0.11880 ; perimeter
G1 X164.618 Y101.302 E0.01174 ; perimeter
G1 X164.890 Y101.525 E0.01103 ; perimeter
G1 X165.079 Y101.835 E0.01140 ; perimeter
G1 X165.189 Y102.220 E0.01253 ; perimeter
G1 X165.189 Y122.059 E0.62205 ; perimeter
G1 X165.087 Y122.419 E0.01174 ; perimeter
G1 X164.985 Y122.624 E0.00717 ; perimeter
G1 X164.753 Y122.893 E0.01114 ; perimeter
G1 X164.465 Y123.046 E0.01022 ; perimeter
G1 X164.204 Y123.087 E0.00829 ; perimeter
G1 X160.882 Y123.085 E0.10415 ; perimeter
G1 X160.659 Y123.039 E0.00715 ; perimeter
G1 X160.393 Y122.906 E0.00932 ; perimeter
G1 X160.181 Y122.694 E0.00939 ; perimeter
G1 X160.043 Y122.432 E0.00928 ; perimeter
G1 X159.991 Y122.139 E0.00933 ; perimeter
G1 X159.991 Y112.609 E0.29880 ; perimeter
G1 X154.675 Y121.691 E0.32993 ; perimeter
G1 X154.132 Y122.555 E0.03201 ; perimeter
G1 X153.978 Y122.760 E0.00803 ; perimeter
G1 X152.802 Y123.964 E0.05279 ; perimeter
G1 X152.783 Y113.542 E0.32678 ; perimeter
G1 X153.160 Y113.586 F10800.000 ; move to first perimeter point
G1 F1200
G1 X154.257 Y111.765 E0.06665 ; perimeter
G1 X158.228 Y104.934 E0.24773 ; perimeter
G1 X158.984 Y103.657 E0.04655 ; perimeter
G1 X159.241 Y103.256 E0.01492 ; perimeter
G1 X159.615 Y102.568 E0.02457 ; perimeter
G1 X159.942 Y102.057 E0.01899 ; perimeter
G1 X160.095 Y101.862 E0.00777 ; perimeter
G1 X160.316 Y101.654 E0.00953 ; perimeter
G1 X160.540 Y101.569 E0.00751 ; perimeter
G1 X164.204 Y101.571 E0.11489 ; perimeter
G1 X164.437 Y101.641 E0.00764 ; perimeter
G1 X164.601 Y101.776 E0.00665 ; perimeter
G1 X164.731 Y101.988 E0.00779 ; perimeter
G1 X164.812 Y102.272 E0.00927 ; perimeter
G1 X164.812 Y122.006 E0.61875 ; perimeter
G1 X164.734 Y122.282 E0.00899 ; perimeter
G1 X164.669 Y122.413 E0.00459 ; perimeter
G1 X164.513 Y122.593 E0.00746 ; perimeter
G1 X164.344 Y122.684 E0.00601 ; perimeter
G1 X164.175 Y122.710 E0.00537 ; perimeter
G1 X160.920 Y122.708 E0.10205 ; perimeter
G1 X160.783 Y122.680 E0.00439 ; perimeter
G1 X160.617 Y122.596 E0.00583 ; perimeter
G1 X160.488 Y122.467 E0.00572 ; perimeter
G1 X160.404 Y122.308 E0.00564 ; perimeter
G1 X160.368 Y122.106 E0.00643 ; perimeter
G1 X160.368 Y111.219 E0.34137 ; perimeter
G1 X154.353 Y121.495 E0.37335 ; perimeter
G1 X153.821 Y122.341 E0.03132 ; perimeter
G1 X153.691 Y122.513 E0.00677 ; perimeter
G1 X153.177 Y123.040 E0.02308 ; perimeter
G1 X153.160 Y113.646 E0.29453 ; perimeter
G1 X152.901 Y113.282 F10800.000 ; move inwards before travel
G1 F8640
G1 X154.257 Y111.765 E-0.50276 ; wipe and retract
G1 F8640
G1 X154.817 Y110.802 E-0.25724 ; wipe and retract
G1 E-0.04000 F2100.00000 ; retract
G1 Z0.800 F10800.000 ; lift Z
G1 X174.156 Y101.319 F10800.000 ; move to first perimeter point
G1 Z0.200 F10800.000 ; restore layer Z
G1 E0.80000 F2100.00000 ; unretract
G1 F1200
G1 X174.156 Y123.087 E0.68254 ; perimeter
G1 X169.259 Y123.085 E0.15353 ; perimeter
G1 X168.903 Y122.957 E0.01187 ; perimeter
G1 X168.651 Y122.731 E0.01061 ; perimeter
G1 X168.458 Y122.409 E0.01176 ; perimeter
G1 X168.324 Y121.990 E0.01382 ; perimeter
G1 X168.324 Y102.325 E0.61658 ; perimeter
G1 X168.467 Y101.933 E0.01308 ; perimeter
G1 X168.673 Y101.623 E0.01167 ; perimeter
G1 X168.998 Y101.388 E0.01258 ; perimeter
G1 X169.344 Y101.319 E0.01107 ; perimeter
G1 X174.096 Y101.319 E0.14898 ; perimeter
G1 X173.779 Y101.696 F10800.000 ; move to first perimeter point
G1 F1200
G1 X173.779 Y122.710 E0.65889 ; perimeter
G1 X169.325 Y122.708 E0.13965 ; perimeter
G1 X169.100 Y122.627 E0.00750 ; perimeter
G1 X168.945 Y122.489 E0.00650 ; perimeter
G1 X168.804 Y122.253 E0.00861 ; perimeter
G1 X168.701 Y121.931 E0.01060 ; perimeter
G1 X168.701 Y102.391 E0.61264 ; perimeter
G1 X168.806 Y102.104 E0.00958 ; perimeter
G1 X168.949 Y101.889 E0.00813 ; perimeter
G1 X169.153 Y101.741 E0.00787 ; perimeter
G1 X169.381 Y101.696 E0.00732 ; perimeter
G1 X173.719 Y101.696 E0.13599 ; perimeter
G1 X174.179 Y101.694 F10800.000 ; move inwards before travel
G1 F8640
G1 X173.728 Y104.987 E-0.76000 ; wipe and retract
G1 E-0.04000 F2100.00000 ; retract
G1 Z0.800 F10800.000 ; lift Z
G1 X175.297 Y101.335 F10800.000 ; move to first perimeter point
G1 Z0.200 F10800.000 ; restore layer Z
G1 E0.80000 F2100.00000 ; unretract
G1 F1200
G1 X185.322 Y101.335 E0.31434 ; perimeter
G1 X185.630 Y101.384 E0.00977 ; perimeter
G1 X185.906 Y101.525 E0.00974 ; perimeter
G1 X186.129 Y101.750 E0.00992 ; perimeter
G1 X186.262 Y102.030 E0.00970 ; perimeter
G1 X186.304 Y102.256 E0.00723 ; perimeter
G1 X186.306 Y105.587 E0.10444 ; perimeter
G1 X186.247 Y105.905 E0.01014 ; perimeter
G1 X186.088 Y106.172 E0.00975 ; perimeter
G1 X185.858 Y106.382 E0.00977 ; perimeter
G1 X185.366 Y106.596 E0.01680 ; perimeter
G1 X175.133 Y106.596 E0.32085 ; perimeter
G1 X175.295 Y101.394 E0.16316 ; perimeter
G1 X175.662 Y101.712 F10800.000 ; move to first perimeter point
G1 F1200
G1 X185.292 Y101.712 E0.30195 ; perimeter
G1 X185.511 Y101.746 E0.00695 ; perimeter
G1 X185.680 Y101.833 E0.00596 ; perimeter
G1 X185.816 Y101.970 E0.00604 ; perimeter
G1 X185.900 Y102.147 E0.00614 ; perimeter
G1 X185.927 Y102.291 E0.00460 ; perimeter
G1 X185.929 Y105.553 E0.10226 ; perimeter
G1 X185.889 Y105.769 E0.00691 ; perimeter
G1 X185.793 Y105.930 E0.00588 ; perimeter
G1 X185.649 Y106.061 E0.00608 ; perimeter
G1 X185.288 Y106.219 E0.01237 ; perimeter
G1 X175.522 Y106.219 E0.30619 ; perimeter
G1 X175.660 Y101.772 E0.13951 ; perimeter
G1 X175.515 Y101.340 F10800.000 ; move inwards before travel
G1 F8640
G1 X178.952 Y101.751 E-0.76000 ; wipe and retract
G1 E-0.04000 F2100.00000 ; retract
G1 Z0.800 F10800.000 ; lift Z
G1 X175.296 Y109.636 F10800.000 ; move to first perimeter point
G1 Z0.200 F10800.000 ; restore layer Z
G1 E0.80000 F2100.00000 ; unretract
G1 F1200
G1 X184.894 Y109.636 E0.30094 ; perimeter
G1 X185.278 Y109.718 E0.01231 ; perimeter
G1 X185.546 Y109.889 E0.00998 ; perimeter
G1 X185.716 Y110.073 E0.00784 ; perimeter
G1 X185.858 Y110.349 E0.00974 ; perimeter
G1 X185.907 Y110.594 E0.00783 ; perimeter
G1 X185.910 Y113.935 E0.10475 ; perimeter
G1 X185.852 Y114.255 E0.01021 ; perimeter
G1 X185.703 Y114.533 E0.00990 ; perimeter
G1 X185.478 Y114.760 E0.01000 ; perimeter
G1 X185.179 Y114.914 E0.01056 ; perimeter
G1 X184.877 Y114.960 E0.00957 ; perimeter
G1 X175.134 Y114.960 E0.30549 ; perimeter
G1 X175.294 Y109.696 E0.16515 ; perimeter
G1 X175.662 Y110.013 F10800.000 ; move to first perimeter point
G1 F1200
G1 X184.854 Y110.013 E0.28822 ; perimeter
G1 X185.132 Y110.072 E0.00892 ; perimeter
G1 X185.303 Y110.181 E0.00633 ; perimeter
G1 X185.404 Y110.291 E0.00469 ; perimeter
G1 X185.498 Y110.475 E0.00648 ; perimeter
G1 X185.530 Y110.632 E0.00503 ; perimeter
G1 X185.533 Y113.901 E0.10249 ; perimeter
G1 X185.492 Y114.129 E0.00728 ; perimeter
G1 X185.396 Y114.307 E0.00632 ; perimeter
G1 X185.252 Y114.452 E0.00641 ; perimeter
G1 X185.061 Y114.551 E0.00676 ; perimeter
G1 X184.848 Y114.583 E0.00674 ; perimeter
G1 X175.522 Y114.583 E0.29240 ; perimeter
G1 X175.660 Y110.073 E0.14149 ; perimeter
G1 X175.517 Y109.640 F10800.000 ; move inwards before travel
G1 F8640
G1 X178.952 Y110.051 E-0.76000 ; wipe and retract
G1 E-0.04000 F2100.00000 ; retract
G1 Z0.800 F10800.000 ; lift Z
G1 X175.296 Y117.778 F10800.000 ; move to first perimeter point
G1 Z0.200 F10800.000 ; restore layer Z
G1 E0.80000 F2100.00000 ; unretract
G1 F1200
G1 X184.973 Y117.778 E0.30340 ; perimeter
G1 X185.352 Y117.902 E0.01250 ; perimeter
G1 X185.603 Y118.051 E0.00917 ; perimeter
G1 X185.807 Y118.260 E0.00913 ; perimeter
G1 X185.926 Y118.480 E0.00785 ; perimeter
G1 X185.987 Y118.741 E0.00843 ; perimeter
G1 X185.989 Y122.078 E0.10463 ; perimeter
G1 X185.931 Y122.396 E0.01013 ; perimeter
G1 X185.771 Y122.663 E0.00975 ; perimeter
G1 X185.541 Y122.873 E0.00977 ; perimeter
G1 X185.050 Y123.087 E0.01680 ; perimeter
G1 X175.134 Y123.087 E0.31091 ; perimeter
G1 X175.294 Y117.838 E0.16465 ; perimeter
G1 X175.662 Y118.155 F10800.000 ; move to first perimeter point
G1 F1200
G1 X184.913 Y118.155 E0.29006 ; perimeter
G1 X185.195 Y118.247 E0.00931 ; perimeter
G1 X185.368 Y118.350 E0.00629 ; perimeter
G1 X185.500 Y118.485 E0.00592 ; perimeter
G1 X185.570 Y118.615 E0.00464 ; perimeter
G1 X185.610 Y118.785 E0.00549 ; perimeter
G1 X185.612 Y122.044 E0.10217 ; perimeter
G1 X185.572 Y122.261 E0.00691 ; perimeter
G1 X185.476 Y122.422 E0.00588 ; perimeter
G1 X185.333 Y122.552 E0.00608 ; perimeter
G1 X184.971 Y122.710 E0.01237 ; perimeter
G1 X175.522 Y122.710 E0.29625 ; perimeter
G1 X175.660 Y118.215 E0.14099 ; perimeter
G1 X175.517 Y117.783 F10800.000 ; move inwards before travel
G1 F8640
G1 X178.952 Y118.194 E-0.76000 ; wipe and retract
G1 E-0.04000 F2100.00000 ; retract
G1 Z0.800 F10800.000 ; lift Z
G1 X194.814 Y123.088 F10800.000 ; move to first perimeter point
G1 Z0.200 F10800.000 ; restore layer Z
G1 E0.80000 F2100.00000 ; unretract
G1 F1200
G1 X189.813 Y123.080 E0.15678 ; perimeter
G1 X189.505 Y122.998 E0.01001 ; perimeter
G1 X189.198 Y122.781 E0.01176 ; perimeter
G1 X189.022 Y122.526 E0.00974 ; perimeter
G1 X188.887 Y122.162 E0.01218 ; perimeter
G1 X188.887 Y102.276 E0.62349 ; perimeter
G1 X188.955 Y101.927 E0.01118 ; perimeter
G1 X189.196 Y101.596 E0.01282 ; perimeter
G1 X189.520 Y101.392 E0.01200 ; perimeter
G1 X189.907 Y101.271 E0.01272 ; perimeter
G1 X193.703 Y101.271 E0.11903 ; perimeter
G1 X194.092 Y101.356 E0.01246 ; perimeter
G1 X194.375 Y101.493 E0.00987 ; perimeter
G1 X194.631 Y101.725 E0.01084 ; perimeter
G1 X194.804 Y102.112 E0.01328 ; perimeter
G1 X194.814 Y123.028 E0.65582 ; perimeter
G1 X194.436 Y122.710 F10800.000 ; move to first perimeter point
G1 F1200
G1 X189.863 Y122.703 E0.14339 ; perimeter
G1 X189.667 Y122.651 E0.00635 ; perimeter
G1 X189.471 Y122.512 E0.00756 ; perimeter
G1 X189.359 Y122.351 E0.00616 ; perimeter
G1 X189.264 Y122.094 E0.00857 ; perimeter
G1 X189.264 Y102.313 E0.62022 ; perimeter
G1 X189.309 Y102.081 E0.00741 ; perimeter
G1 X189.458 Y101.876 E0.00794 ; perimeter
G1 X189.679 Y101.737 E0.00818 ; perimeter
G1 X189.965 Y101.648 E0.00938 ; perimeter
G1 X193.663 Y101.648 E0.11595 ; perimeter
G1 X193.968 Y101.715 E0.00979 ; perimeter
G1 X194.162 Y101.808 E0.00676 ; perimeter
G1 X194.319 Y101.951 E0.00666 ; perimeter
G1 X194.427 Y102.193 E0.00829 ; perimeter
G1 X194.436 Y122.650 E0.64144 ; perimeter
G1 X194.437 Y123.110 F10800.000 ; move inwards before travel
G1 F8640
G1 X191.145 Y122.688 E-0.76000 ; wipe and retract
G1 E-0.04000 F2100.00000 ; retract
G1 Z0.800 F10800.000 ; lift Z
G1 X195.904 Y123.086 F10800.000 ; move to first perimeter point
G1 Z0.200 F10800.000 ; restore layer Z
G1 E0.80000 F2100.00000 ; unretract
G1 F1200
G1 X195.762 Y117.778 E0.16650 ; perimeter
G1 X199.524 Y117.778 E0.11797 ; perimeter
G1 X200.070 Y117.762 E0.01713 ; perimeter
G1 X200.605 Y117.712 E0.01684 ; perimeter
G1 X201.109 Y117.634 E0.01600 ; perimeter
G1 X201.314 Y117.569 E0.00672 ; perimeter
G1 X201.498 Y117.476 E0.00646 ; perimeter
G1 X201.708 Y117.318 E0.00825 ; perimeter
G1 X201.827 Y117.199 E0.00528 ; perimeter
G1 X201.953 Y117.027 E0.00667 ; perimeter
G1 X202.049 Y116.838 E0.00667 ; perimeter
G1 X202.115 Y116.635 E0.00667 ; perimeter
G1 X202.147 Y116.424 E0.00669 ; perimeter
G1 X202.146 Y115.762 E0.02076 ; perimeter
G1 X202.086 Y115.337 E0.01346 ; perimeter
G1 X201.973 Y114.985 E0.01161 ; perimeter
G1 X201.856 Y114.765 E0.00782 ; perimeter
G1 X201.626 Y114.534 E0.01020 ; perimeter
G1 X201.395 Y114.393 E0.00848 ; perimeter
G1 X201.094 Y114.274 E0.01016 ; perimeter
G1 X200.719 Y114.182 E0.01210 ; perimeter
G1 X200.271 Y114.125 E0.01415 ; perimeter
G1 X199.744 Y114.105 E0.01655 ; perimeter
G1 X195.825 Y114.105 E0.12286 ; perimeter
G1 X195.825 Y108.733 E0.16844 ; perimeter
G1 X198.897 Y108.733 E0.09631 ; perimeter
G1 X199.786 Y107.078 E0.05890 ; perimeter
G1 X202.336 Y102.480 E0.16486 ; perimeter
G1 X202.522 Y102.077 E0.01390 ; perimeter
G1 X202.671 Y101.844 E0.00868 ; perimeter
G1 X202.983 Y101.514 E0.01423 ; perimeter
G1 X203.320 Y101.328 E0.01208 ; perimeter
G1 X203.649 Y101.271 E0.01046 ; perimeter
G1 X207.836 Y101.271 E0.13127 ; perimeter
G1 X208.149 Y101.324 E0.00995 ; perimeter
G1 X208.441 Y101.471 E0.01027 ; perimeter
G1 X208.716 Y101.762 E0.01256 ; perimeter
G1 X208.848 Y102.097 E0.01127 ; perimeter
G1 X208.872 Y102.574 E0.01500 ; perimeter
G1 X208.272 Y103.723 E0.04065 ; perimeter
G1 X206.579 Y106.705 E0.10751 ; perimeter
G1 X204.628 Y110.071 E0.12200 ; perimeter
G1 X205.200 Y110.392 E0.02057 ; perimeter
G1 X205.752 Y110.810 E0.02171 ; perimeter
G1 X206.285 Y111.353 E0.02387 ; perimeter
G1 X206.750 Y111.943 E0.02353 ; perimeter
G1 X207.149 Y112.578 E0.02353 ; perimeter
G1 X207.476 Y113.254 E0.02353 ; perimeter
G1 X207.728 Y113.960 E0.02353 ; perimeter
G1 X207.902 Y114.690 E0.02353 ; perimeter
G1 X207.997 Y115.435 E0.02353 ; perimeter
G1 X208.014 Y116.895 E0.04580 ; perimeter
G1 X207.934 Y117.659 E0.02409 ; perimeter
G1 X207.770 Y118.410 E0.02409 ; perimeter
G1 X207.524 Y119.138 E0.02409 ; perimeter
G1 X207.198 Y119.834 E0.02409 ; perimeter
G1 X206.783 Y120.513 E0.02497 ; perimeter
G1 X206.250 Y121.080 E0.02438 ; perimeter
G1 X205.685 Y121.568 E0.02342 ; perimeter
G1 X205.073 Y121.996 E0.02342 ; perimeter
