; generated by Slic3r 1.37.2.1-prusa3d on 2019-01-03 at 21:19:51

; 

; external perimeters extrusion width = 0.45mm
; perimeters extrusion width = 0.45mm
; infill extrusion width = 0.45mm
; solid infill extrusion width = 0.45mm
; top infill extrusion width = 0.40mm
; first layer extrusion width = 0.42mm

M107 ; disable fan
M115 U3.4.0 ; tell printer latest fw version
M83  ; extruder relative mode
M104 S215 ; set extruder temp
M140 S60 ; set bed temp
M190 S60 ; wait for bed temp
M109 S215 ; wait for extruder temp
G28 W ; home all without mesh bed level
G80 ; mesh bed leveling
G1 Y-3.0 F1000.0 ; go outside print area
G92 E0.0
G1 X60.0 E9.0  F1000.0 ; intro line
G1 X100.0 E12.5  F1000.0 ; intro line
G92 E0.0
M221 S95
M900 K30
G21 ; set units to millimeters
G90 ; use absolute coordinates
M83 ; use relative distances for extrusion
;BEFORE_LAYER_CHANGE
G92 E0.0
;0.2


G1 E-0.80000 F2100.00000 ; retract
G1 Z0.600 F10800.000 ; lift Z
;AFTER_LAYER_CHANGE
;0.2
G1 X36.390 Y57.898 F10800.000 ; move to first skirt point
G1 Z0.200 F10800.000 ; restore layer Z
G1 E0.80000 F2100.00000 ; unretract
M204 S1000 ; adjust acceleration
G1 F1200
G1 X36.926 Y57.693 E0.01799 ; skirt
G1 X37.495 Y57.623 E0.01799 ; skirt
G1 X212.504 Y57.623 E5.48727 ; skirt
G1 X213.406 Y57.802 E0.02884 ; skirt
G1 X214.172 Y58.311 E0.02884 ; skirt
G1 X214.688 Y59.072 E0.02884 ; skirt
G1 X214.877 Y59.972 E0.02884 ; skirt
G1 X214.877 Y150.030 E2.82371 ; skirt
G1 X214.784 Y150.658 E0.01989 ; skirt
G1 X214.529 Y151.238 E0.01989 ; skirt
G1 X214.129 Y151.731 E0.01989 ; skirt
G1 X213.610 Y152.102 E0.02000 ; skirt
G1 X213.074 Y152.307 E0.01799 ; skirt
G1 X212.505 Y152.377 E0.01799 ; skirt
G1 X37.489 Y152.377 E5.48751 ; skirt
G1 X36.853 Y152.287 E0.02012 ; skirt
G1 X36.268 Y152.033 E0.02000 ; skirt
G1 X35.772 Y151.632 E0.02000 ; skirt
G1 X35.398 Y151.110 E0.02012 ; skirt
G1 X35.194 Y150.578 E0.01787 ; skirt
G1 X35.123 Y150.009 E0.01799 ; skirt
G1 X35.123 Y59.977 E2.82288 ; skirt
G1 X35.215 Y59.346 E0.02000 ; skirt
G1 X35.469 Y58.765 E0.01989 ; skirt
G1 X35.871 Y58.269 E0.02000 ; skirt
G1 X36.341 Y57.933 E0.01812 ; skirt
G1 F8640
G1 X36.926 Y57.693 E-0.14593 ; wipe and retract
G1 F8640
G1 X37.495 Y57.623 E-0.13248 ; wipe and retract
G1 F8640
G1 X39.581 Y57.623 E-0.48159 ; wipe and retract
G1 E-0.04000 F2100.00000 ; retract
G1 Z0.800 F10800.000 ; lift Z
G1 X102.891 Y94.582 F10800.000 ; move to first perimeter point
G1 Z0.200 F10800.000 ; restore layer Z
G1 E0.80000 F2100.00000 ; unretract
G1 F1200
G1 X106.131 Y94.583 E0.10159 ; perimeter
G1 X106.433 Y94.666 E0.00980 ; perimeter
G1 X106.674 Y94.834 E0.00924 ; perimeter
G1 X106.850 Y95.068 E0.00916 ; perimeter
G1 X106.949 Y95.358 E0.00962 ; perimeter
G1 X106.957 Y109.703 E0.44977 ; perimeter
G1 X106.902 Y109.907 E0.00662 ; perimeter
G1 X106.794 Y110.157 E0.00854 ; perimeter
G1 X106.622 Y110.376 E0.00875 ; perimeter
G1 X106.331 Y110.550 E0.01061 ; perimeter
G1 X106.084 Y110.587 E0.00784 ; perimeter
G1 X103.632 Y110.585 E0.07689 ; perimeter
G1 X103.212 Y110.431 E0.01400 ; perimeter
G1 X102.933 Y110.019 E0.01562 ; perimeter
G1 X102.936 Y103.475 E0.20518 ; perimeter
G1 X99.747 Y108.897 E0.19724 ; perimeter
G1 X99.265 Y109.760 E0.03099 ; perimeter
G1 X99.007 Y110.152 E0.01469 ; perimeter
G1 X98.868 Y110.323 E0.00691 ; perimeter
G1 X97.730 Y111.314 E0.04734 ; perimeter
G1 X97.744 Y103.522 E0.24432 ; perimeter
G1 X99.060 Y101.314 E0.08060 ; perimeter
G1 X101.276 Y97.484 E0.13872 ; perimeter
G1 X102.141 Y96.034 E0.05295 ; perimeter
G1 X102.419 Y95.525 E0.01819 ; perimeter
G1 X102.799 Y94.970 E0.02110 ; perimeter
G1 X102.891 Y94.883 E0.00398 ; perimeter
G1 X102.891 Y94.642 E0.00756 ; perimeter
G1 X103.268 Y94.959 F10800.000 ; move to first perimeter point
G1 F1200
G1 X106.080 Y94.960 E0.08817 ; perimeter
G1 X106.270 Y95.012 E0.00618 ; perimeter
G1 X106.409 Y95.109 E0.00531 ; perimeter
G1 X106.513 Y95.246 E0.00538 ; perimeter
G1 X106.572 Y95.421 E0.00577 ; perimeter
G1 X106.580 Y109.653 E0.44626 ; perimeter
G1 X106.545 Y109.783 E0.00420 ; perimeter
G1 X106.467 Y109.962 E0.00613 ; perimeter
G1 X106.368 Y110.089 E0.00504 ; perimeter
G1 X106.202 Y110.188 E0.00608 ; perimeter
G1 X106.056 Y110.210 E0.00461 ; perimeter
G1 X103.699 Y110.208 E0.07392 ; perimeter
G1 X103.457 Y110.119 E0.00809 ; perimeter
G1 X103.310 Y109.903 E0.00818 ; perimeter
G1 X103.313 Y102.089 E0.24502 ; perimeter
G1 X99.420 Y108.710 E0.24083 ; perimeter
G1 X98.943 Y109.564 E0.03069 ; perimeter
G1 X98.596 Y110.059 E0.01895 ; perimeter
G1 X98.108 Y110.484 E0.02028 ; perimeter
G1 X98.121 Y103.626 E0.21503 ; perimeter
G1 X99.386 Y101.505 E0.07743 ; perimeter
G1 X101.601 Y97.675 E0.13872 ; perimeter
G1 X102.468 Y96.221 E0.05309 ; perimeter
G1 X102.741 Y95.723 E0.01782 ; perimeter
G1 X103.088 Y95.216 E0.01925 ; perimeter
G1 X103.268 Y95.049 E0.00772 ; perimeter
G1 X103.268 Y95.019 E0.00094 ; perimeter
G1 X103.349 Y94.567 F10800.000 ; move inwards before travel
G1 F8640
G1 X106.080 Y94.960 E-0.64944 ; wipe and retract
G1 F8640
G1 X106.270 Y95.012 E-0.04551 ; wipe and retract
G1 F8640
G1 X106.409 Y95.109 E-0.03914 ; wipe and retract
G1 F8640
G1 X106.477 Y95.199 E-0.02591 ; wipe and retract
G1 E-0.04000 F2100.00000 ; retract
G1 Z0.800 F10800.000 ; lift Z
G1 X97.296 Y110.587 F10800.000 ; move to first perimeter point
G1 Z0.200 F10800.000 ; restore layer Z
G1 E0.80000 F2100.00000 ; unretract
G1 F1200
G1 X93.873 Y110.585 E0.10733 ; perimeter
G1 X93.550 Y110.483 E0.01062 ; perimeter
G1 X93.311 Y110.279 E0.00987 ; perimeter
G1 X93.145 Y110.003 E0.01010 ; perimeter
G1 X93.038 Y109.659 E0.01129 ; perimeter
G1 X93.038 Y95.614 E0.44036 ; perimeter
G1 X93.117 Y95.260 E0.01140 ; perimeter
G1 X93.316 Y94.925 E0.01221 ; perimeter
G1 X93.655 Y94.696 E0.01283 ; perimeter
G1 X93.996 Y94.639 E0.01081 ; perimeter
G1 X96.380 Y94.639 E0.07475 ; perimeter
G1 X96.683 Y94.709 E0.00978 ; perimeter
G1 X96.914 Y94.823 E0.00805 ; perimeter
G1 X97.131 Y95.017 E0.00914 ; perimeter
G1 X97.290 Y95.348 E0.01151 ; perimeter
G1 X97.296 Y110.527 E0.47593 ; perimeter
G1 X96.919 Y110.210 F10800.000 ; move to first perimeter point
G1 F1200
G1 X93.931 Y110.208 E0.09368 ; perimeter
G1 X93.737 Y110.147 E0.00640 ; perimeter
G1 X93.603 Y110.032 E0.00552 ; perimeter
G1 X93.492 Y109.847 E0.00676 ; perimeter
G1 X93.415 Y109.601 E0.00808 ; perimeter
G1 X93.415 Y95.656 E0.43725 ; perimeter
G1 X93.472 Y95.401 E0.00820 ; perimeter
G1 X93.597 Y95.190 E0.00769 ; perimeter
G1 X93.799 Y95.054 E0.00762 ; perimeter
G1 X94.027 Y95.016 E0.00726 ; perimeter
G1 X96.336 Y95.016 E0.07241 ; perimeter
G1 X96.555 Y95.067 E0.00706 ; perimeter
G1 X96.701 Y95.138 E0.00508 ; perimeter
G1 X96.823 Y95.248 E0.00517 ; perimeter
G1 X96.913 Y95.434 E0.00647 ; perimeter
G1 X96.919 Y110.150 E0.46141 ; perimeter
G1 X96.920 Y110.610 F10800.000 ; move inwards before travel
G1 F8640
G1 X93.931 Y110.208 E-0.69000 ; wipe and retract
G1 F8640
G1 X93.737 Y110.147 E-0.04716 ; wipe and retract
G1 F8640
G1 X93.661 Y110.083 E-0.02284 ; wipe and retract
G1 E-0.04000 F2100.00000 ; retract
G1 Z0.800 F10800.000 ; lift Z
G1 X85.123 Y98.741 F10800.000 ; move to first perimeter point
G1 Z0.200 F10800.000 ; restore layer Z
G1 E0.80000 F2100.00000 ; unretract
G1 F1200
G1 X85.123 Y94.639 E0.12860 ; perimeter
G1 X86.431 Y94.711 E0.04106 ; perimeter
G1 X87.084 Y94.817 E0.02075 ; perimeter
G1 X87.723 Y94.986 E0.02071 ; perimeter
G1 X88.341 Y95.218 E0.02071 ; perimeter
G1 X88.933 Y95.511 E0.02071 ; perimeter
G1 X89.493 Y95.861 E0.02071 ; perimeter
G1 X90.028 Y96.274 E0.02120 ; perimeter
G1 X90.582 Y96.857 E0.02521 ; perimeter
G1 X91.067 Y97.477 E0.02467 ; perimeter
G1 X91.490 Y98.140 E0.02467 ; perimeter
G1 X91.848 Y98.841 E0.02467 ; perimeter
G1 X92.138 Y99.573 E0.02467 ; perimeter
G1 X92.356 Y100.329 E0.02467 ; perimeter
G1 X92.501 Y101.102 E0.02467 ; perimeter
G1 X92.572 Y101.882 E0.02455 ; perimeter
G1 X92.583 Y103.413 E0.04801 ; perimeter
G1 X92.518 Y104.216 E0.02526 ; perimeter
G1 X92.371 Y105.012 E0.02538 ; perimeter
G1 X92.146 Y105.790 E0.02538 ; perimeter
G1 X91.844 Y106.541 E0.02538 ; perimeter
G1 X91.468 Y107.257 E0.02538 ; perimeter
G1 X91.021 Y107.932 E0.02538 ; perimeter
G1 X90.509 Y108.560 E0.02538 ; perimeter
G1 X89.919 Y109.150 E0.02619 ; perimeter
G1 X89.279 Y109.585 E0.02425 ; perimeter
G1 X88.618 Y109.937 E0.02350 ; perimeter
G1 X87.922 Y110.216 E0.02350 ; perimeter
G1 X87.201 Y110.419 E0.02350 ; perimeter
G1 X86.462 Y110.544 E0.02350 ; perimeter
G1 X85.130 Y110.622 E0.04181 ; perimeter
G1 X85.083 Y106.512 E0.12890 ; perimeter
G1 X85.902 Y106.409 E0.02588 ; perimeter
G1 X86.144 Y106.343 E0.00787 ; perimeter
G1 X86.602 Y106.128 E0.01586 ; perimeter
G1 X86.746 Y106.038 E0.00532 ; perimeter
G1 X87.059 Y105.778 E0.01278 ; perimeter
G1 X87.174 Y105.653 E0.00531 ; perimeter
G1 X87.419 Y105.308 E0.01326 ; perimeter
G1 X87.624 Y104.895 E0.01447 ; perimeter
G1 X87.703 Y104.682 E0.00712 ; perimeter
G1 X87.849 Y104.147 E0.01740 ; perimeter
G1 X87.900 Y103.872 E0.00875 ; perimeter
G1 X87.973 Y103.231 E0.02023 ; perimeter
G1 X87.992 Y102.451 E0.02447 ; perimeter
G1 X87.972 Y101.854 E0.01873 ; perimeter
G1 X87.885 Y101.281 E0.01817 ; perimeter
G1 X87.730 Y100.722 E0.01817 ; perimeter
G1 X87.512 Y100.186 E0.01817 ; perimeter
G1 X87.241 Y99.695 E0.01758 ; perimeter
G1 X87.050 Y99.462 E0.00945 ; perimeter
G1 X86.819 Y99.253 E0.00975 ; perimeter
G1 X86.560 Y99.081 E0.00975 ; perimeter
G1 X86.279 Y98.949 E0.00975 ; perimeter
G1 X85.980 Y98.861 E0.00975 ; perimeter
G1 X85.183 Y98.749 E0.02525 ; perimeter
G1 X85.500 Y98.413 F10800.000 ; move to first perimeter point
G1 F1200
G1 X85.500 Y95.038 E0.10583 ; perimeter
G1 X86.390 Y95.087 E0.02795 ; perimeter
G1 X87.006 Y95.186 E0.01954 ; perimeter
G1 X87.608 Y95.346 E0.01953 ; perimeter
G1 X88.191 Y95.565 E0.01953 ; perimeter
G1 X88.749 Y95.840 E0.01953 ; perimeter
G1 X89.278 Y96.170 E0.01953 ; perimeter
G1 X89.775 Y96.555 E0.01971 ; perimeter
G1 X90.296 Y97.104 E0.02373 ; perimeter
G1 X90.759 Y97.695 E0.02354 ; perimeter
G1 X91.163 Y98.328 E0.02354 ; perimeter
G1 X91.504 Y98.996 E0.02354 ; perimeter
G1 X91.781 Y99.695 E0.02354 ; perimeter
G1 X91.989 Y100.416 E0.02354 ; perimeter
G1 X92.128 Y101.154 E0.02354 ; perimeter
G1 X92.195 Y101.900 E0.02350 ; perimeter
G1 X92.206 Y103.399 E0.04700 ; perimeter
G1 X92.143 Y104.167 E0.02415 ; perimeter
G1 X92.004 Y104.925 E0.02419 ; perimeter
G1 X91.789 Y105.666 E0.02419 ; perimeter
G1 X91.501 Y106.382 E0.02419 ; perimeter
G1 X91.143 Y107.065 E0.02419 ; perimeter
G1 X91.015 Y107.258 E0.00725 ; perimeter
G1 X90.717 Y107.709 E0.01694 ; perimeter
G1 X90.229 Y108.306 E0.02419 ; perimeter
G1 X89.677 Y108.859 E0.02448 ; perimeter
G1 X89.084 Y109.262 E0.02249 ; perimeter
G1 X88.458 Y109.595 E0.02223 ; perimeter
G1 X87.800 Y109.859 E0.02223 ; perimeter
G1 X87.118 Y110.051 E0.02222 ; perimeter
G1 X86.419 Y110.168 E0.02223 ; perimeter
G1 X85.503 Y110.223 E0.02878 ; perimeter
G1 X85.464 Y106.844 E0.10594 ; perimeter
G1 X85.976 Y106.780 E0.01617 ; perimeter
G1 X86.275 Y106.698 E0.00973 ; perimeter
G1 X86.783 Y106.460 E0.01758 ; perimeter
G1 X86.967 Y106.344 E0.00682 ; perimeter
G1 X87.320 Y106.052 E0.01436 ; perimeter
G1 X87.468 Y105.891 E0.00685 ; perimeter
G1 X87.743 Y105.502 E0.01494 ; perimeter
G1 X87.970 Y105.045 E0.01600 ; perimeter
G1 X88.063 Y104.798 E0.00827 ; perimeter
G1 X88.217 Y104.231 E0.01842 ; perimeter
G1 X88.273 Y103.928 E0.00965 ; perimeter
G1 X88.350 Y103.257 E0.02118 ; perimeter
G1 X88.369 Y102.449 E0.02534 ; perimeter
G1 X88.348 Y101.819 E0.01977 ; perimeter
G1 X88.254 Y101.202 E0.01957 ; perimeter
G1 X88.088 Y100.601 E0.01957 ; perimeter
G1 X87.853 Y100.023 E0.01957 ; perimeter
G1 X87.554 Y99.483 E0.01936 ; perimeter
G1 X87.324 Y99.201 E0.01141 ; perimeter
G1 X87.051 Y98.955 E0.01152 ; perimeter
G1 X86.745 Y98.751 E0.01152 ; perimeter
G1 X86.413 Y98.596 E0.01152 ; perimeter
G1 X86.061 Y98.491 E0.01152 ; perimeter
G1 X85.560 Y98.421 E0.01585 ; perimeter
G1 X85.101 Y98.387 F10800.000 ; move inwards before travel
G1 F8640
G1 X85.502 Y95.130 E-0.76000 ; wipe and retract
G1 E-0.04000 F2100.00000 ; retract
G1 Z0.800 F10800.000 ; lift Z
G1 X84.721 Y94.665 F10800.000 ; move to first perimeter point
G1 Z0.200 F10800.000 ; restore layer Z
G1 E0.80000 F2100.00000 ; unretract
G1 F1200
G1 X84.721 Y98.779 E0.12900 ; perimeter
G1 X83.835 Y98.858 E0.02792 ; perimeter
G1 X83.523 Y98.923 E0.00999 ; perimeter
G1 X83.258 Y99.013 E0.00877 ; perimeter
G1 X82.882 Y99.256 E0.01404 ; perimeter
G1 X82.726 Y99.385 E0.00635 ; perimeter
G1 X82.402 Y99.725 E0.01472 ; perimeter
G1 X82.281 Y99.887 E0.00635 ; perimeter
G1 X82.035 Y100.312 E0.01538 ; perimeter
G1 X81.944 Y100.519 E0.00710 ; perimeter
G1 X81.779 Y101.033 E0.01693 ; perimeter
G1 X81.666 Y101.615 E0.01859 ; perimeter
G1 X81.633 Y101.912 E0.00937 ; perimeter
G1 X81.604 Y102.899 E0.03095 ; perimeter
G1 X81.627 Y103.472 E0.01801 ; perimeter
G1 X81.708 Y104.032 E0.01773 ; perimeter
G1 X81.844 Y104.581 E0.01773 ; perimeter
G1 X82.032 Y105.106 E0.01749 ; perimeter
G1 X82.205 Y105.445 E0.01191 ; perimeter
G1 X82.424 Y105.740 E0.01154 ; perimeter
G1 X82.690 Y105.995 E0.01154 ; perimeter
G1 X82.994 Y106.202 E0.01154 ; perimeter
G1 X83.329 Y106.355 E0.01154 ; perimeter
G1 X83.681 Y106.450 E0.01144 ; perimeter
G1 X84.687 Y106.535 E0.03167 ; perimeter
G1 X84.687 Y110.618 E0.12802 ; perimeter
G1 X83.322 Y110.548 E0.04286 ; perimeter
G1 X82.554 Y110.434 E0.02436 ; perimeter
G1 X81.800 Y110.247 E0.02436 ; perimeter
G1 X81.048 Y109.982 E0.02498 ; perimeter
G1 X80.552 Y109.710 E0.01775 ; perimeter
G1 X80.108 Y109.426 E0.01653 ; perimeter
G1 X79.693 Y109.114 E0.01628 ; perimeter
G1 X79.307 Y108.776 E0.01610 ; perimeter
G1 X78.951 Y108.411 E0.01598 ; perimeter
G1 X78.625 Y108.020 E0.01595 ; perimeter
G1 X78.331 Y107.604 E0.01598 ; perimeter
G1 X78.068 Y107.163 E0.01609 ; perimeter
G1 X77.837 Y106.699 E0.01627 ; perimeter
G1 X77.638 Y106.211 E0.01652 ; perimeter
G1 X77.471 Y105.700 E0.01684 ; perimeter
G1 X77.335 Y105.168 E0.01723 ; perimeter
G1 X77.229 Y104.614 E0.01768 ; perimeter
G1 X77.155 Y104.038 E0.01820 ; perimeter
G1 X77.110 Y103.441 E0.01877 ; perimeter
G1 X77.095 Y102.826 E0.01931 ; perimeter
G1 X77.110 Y101.743 E0.03393 ; perimeter
G1 X77.184 Y101.015 E0.02296 ; perimeter
G1 X77.316 Y100.297 E0.02289 ; perimeter
G1 X77.506 Y99.592 E0.02289 ; perimeter
G1 X77.752 Y98.904 E0.02289 ; perimeter
G1 X78.056 Y98.233 E0.02310 ; perimeter
G1 X78.430 Y97.591 E0.02330 ; perimeter
G1 X78.877 Y96.993 E0.02341 ; perimeter
G1 X79.390 Y96.450 E0.02341 ; perimeter
G1 X79.961 Y95.969 E0.02341 ; perimeter
G1 X80.583 Y95.556 E0.02341 ; perimeter
G1 X81.248 Y95.217 E0.02341 ; perimeter
G1 X81.948 Y94.957 E0.02341 ; perimeter
G1 X82.673 Y94.777 E0.02341 ; perimeter
G1 X83.413 Y94.682 E0.02341 ; perimeter
G1 X84.661 Y94.665 E0.03913 ; perimeter
G1 X84.344 Y95.047 F10800.000 ; move to first perimeter point
G1 F1200
G1 X84.344 Y98.434 E0.10620 ; perimeter
G1 X83.779 Y98.484 E0.01780 ; perimeter
G1 X83.423 Y98.559 E0.01139 ; perimeter
G1 X83.092 Y98.670 E0.01095 ; perimeter
G1 X82.659 Y98.951 E0.01620 ; perimeter
G1 X82.468 Y99.108 E0.00774 ; perimeter
G1 X82.113 Y99.481 E0.01614 ; perimeter
G1 X81.965 Y99.679 E0.00775 ; perimeter
G1 X81.698 Y100.141 E0.01672 ; perimeter
G1 X81.591 Y100.385 E0.00836 ; perimeter
G1 X81.413 Y100.939 E0.01824 ; perimeter
G1 X81.293 Y101.558 E0.01977 ; perimeter
G1 X81.257 Y101.885 E0.01032 ; perimeter
G1 X81.226 Y102.901 E0.03186 ; perimeter
G1 X81.251 Y103.507 E0.01903 ; perimeter
G1 X81.337 Y104.105 E0.01893 ; perimeter
G1 X81.483 Y104.691 E0.01893 ; perimeter
G1 X81.686 Y105.256 E0.01884 ; perimeter
G1 X81.883 Y105.644 E0.01365 ; perimeter
G1 X82.140 Y105.991 E0.01352 ; perimeter
G1 X82.452 Y106.289 E0.01352 ; perimeter
G1 X82.808 Y106.532 E0.01352 ; perimeter
G1 X83.200 Y106.711 E0.01352 ; perimeter
G1 X83.616 Y106.823 E0.01349 ; perimeter
G1 X84.310 Y106.882 E0.02186 ; perimeter
G1 X84.310 Y110.221 E0.10471 ; perimeter
G1 X83.360 Y110.172 E0.02985 ; perimeter
G1 X82.627 Y110.064 E0.02323 ; perimeter
G1 X81.908 Y109.885 E0.02323 ; perimeter
G1 X81.202 Y109.637 E0.02345 ; perimeter
G1 X80.744 Y109.386 E0.01637 ; perimeter
