; generated by Slic3r 1.37.2.1-prusa3d on 2019-01-03 at 17:45:48

; 

; external perimeters extrusion width = 0.45mm
; perimeters extrusion width = 0.45mm
; infill extrusion width = 0.45mm
; solid infill extrusion width = 0.45mm
; top infill extrusion width = 0.40mm
; first layer extrusion width = 0.42mm

M107 ; disable fan
M115 U3.4.0 ; tell printer latest fw version
M83  ; extruder relative mode
M104 S215 ; set extruder temp
M140 S60 ; set bed temp
M190 S60 ; wait for bed temp
M109 S215 ; wait for extruder temp
G28 W ; home all without mesh bed level
G80 ; mesh bed leveling
G1 Y-3.0 F1000.0 ; go outside print area
G92 E0.0
G1 X60.0 E9.0  F1000.0 ; intro line
G1 X100.0 E12.5  F1000.0 ; intro line
G92 E0.0
M221 S95
M900 K30
G21 ; set units to millimeters
G90 ; use absolute coordinates
M83 ; use relative distances for extrusion
;BEFORE_LAYER_CHANGE
G92 E0.0
;0.2


G1 E-0.80000 F2100.00000 ; retract
G1 Z0.600 F10800.000 ; lift Z
;AFTER_LAYER_CHANGE
;0.2
G1 X36.756 Y57.879 F10800.000 ; move to first skirt point
G1 Z0.200 F10800.000 ; restore layer Z
G1 E0.80000 F2100.00000 ; unretract
M204 S1000 ; adjust acceleration
G1 F1200
G1 X37.292 Y57.674 E0.01799 ; skirt
G1 X37.862 Y57.604 E0.01799 ; skirt
G1 X212.870 Y57.604 E5.48727 ; skirt
G1 X213.772 Y57.783 E0.02884 ; skirt
G1 X214.539 Y58.292 E0.02884 ; skirt
G1 X215.055 Y59.053 E0.02884 ; skirt
G1 X215.243 Y59.953 E0.02884 ; skirt
G1 X215.243 Y150.011 E2.82371 ; skirt
G1 X215.151 Y150.639 E0.01989 ; skirt
G1 X214.895 Y151.219 E0.01989 ; skirt
G1 X214.496 Y151.712 E0.01989 ; skirt
G1 X213.977 Y152.083 E0.02000 ; skirt
G1 X213.441 Y152.287 E0.01799 ; skirt
G1 X212.871 Y152.358 E0.01799 ; skirt
G1 X37.855 Y152.358 E5.48751 ; skirt
G1 X37.220 Y152.268 E0.02012 ; skirt
G1 X36.635 Y152.014 E0.02000 ; skirt
G1 X36.138 Y151.613 E0.02000 ; skirt
G1 X35.765 Y151.091 E0.02012 ; skirt
G1 X35.561 Y150.559 E0.01787 ; skirt
G1 X35.489 Y149.989 E0.01799 ; skirt
G1 X35.490 Y59.958 E2.82288 ; skirt
G1 X35.581 Y59.327 E0.02000 ; skirt
G1 X35.836 Y58.746 E0.01989 ; skirt
G1 X36.237 Y58.250 E0.02000 ; skirt
G1 X36.707 Y57.914 E0.01812 ; skirt
G1 F8640
G1 X37.292 Y57.674 E-0.14593 ; wipe and retract
G1 F8640
G1 X37.862 Y57.604 E-0.13248 ; wipe and retract
G1 F8640
G1 X39.947 Y57.604 E-0.48159 ; wipe and retract
G1 E-0.04000 F2100.00000 ; retract
G1 Z0.800 F10800.000 ; lift Z
G1 X127.694 Y97.443 F10800.000 ; move to first perimeter point
G1 Z0.200 F10800.000 ; restore layer Z
G1 E0.80000 F2100.00000 ; unretract
G1 F1200
G1 X128.010 Y98.361 E0.03044 ; perimeter
G1 X128.572 Y100.126 E0.05806 ; perimeter
G1 X131.267 Y100.126 E0.08448 ; perimeter
G1 X131.794 Y98.481 E0.05417 ; perimeter
G1 X131.979 Y97.803 E0.02204 ; perimeter
G1 X132.210 Y97.420 E0.01400 ; perimeter
G1 X132.450 Y97.235 E0.00949 ; perimeter
G1 X132.735 Y97.158 E0.00928 ; perimeter
G1 X135.188 Y97.163 E0.07691 ; perimeter
G1 X135.488 Y97.266 E0.00994 ; perimeter
G1 X135.748 Y97.502 E0.01099 ; perimeter
G1 X135.876 Y97.816 E0.01066 ; perimeter
G1 X135.892 Y98.131 E0.00988 ; perimeter
G1 X135.118 Y100.592 E0.08090 ; perimeter
G1 X132.229 Y109.379 E0.29002 ; perimeter
G1 X132.130 Y109.746 E0.01191 ; perimeter
G1 X131.981 Y110.081 E0.01148 ; perimeter
G1 X131.844 Y110.275 E0.00745 ; perimeter
G1 X131.599 Y110.480 E0.01002 ; perimeter
G1 X130.813 Y110.725 E0.02581 ; perimeter
G1 X130.767 Y110.568 E0.00513 ; perimeter
G1 X128.516 Y110.568 E0.07059 ; perimeter
G1 X128.139 Y110.410 E0.01280 ; perimeter
G1 X127.892 Y110.134 E0.01161 ; perimeter
G1 X126.913 Y107.304 E0.09391 ; perimeter
G1 X123.924 Y98.117 E0.30289 ; perimeter
G1 X123.967 Y97.721 E0.01250 ; perimeter
G1 X124.143 Y97.418 E0.01100 ; perimeter
G1 X124.436 Y97.212 E0.01122 ; perimeter
G1 X124.731 Y97.158 E0.00939 ; perimeter
G1 X127.082 Y97.158 E0.07374 ; perimeter
G1 X127.349 Y97.226 E0.00861 ; perimeter
G1 X127.643 Y97.411 E0.01092 ; perimeter
G1 X127.381 Y97.692 F10800.000 ; move to first perimeter point
G1 F1200
G1 X127.652 Y98.480 E0.02614 ; perimeter
G1 X128.335 Y100.660 E0.07164 ; perimeter
G1 X128.291 Y100.503 E0.00512 ; perimeter
G1 X131.542 Y100.503 E0.10191 ; perimeter
G1 X132.156 Y98.588 E0.06305 ; perimeter
G1 X132.329 Y97.953 E0.02065 ; perimeter
G1 X132.497 Y97.676 E0.01015 ; perimeter
G1 X132.621 Y97.580 E0.00491 ; perimeter
G1 X132.785 Y97.536 E0.00533 ; perimeter
G1 X135.125 Y97.540 E0.07337 ; perimeter
G1 X135.292 Y97.597 E0.00555 ; perimeter
G1 X135.431 Y97.723 E0.00588 ; perimeter
G1 X135.503 Y97.900 E0.00597 ; perimeter
G1 X135.512 Y98.083 E0.00574 ; perimeter
G1 X134.759 Y100.477 E0.07870 ; perimeter
G1 X131.868 Y109.271 E0.29026 ; perimeter
G1 X131.773 Y109.619 E0.01132 ; perimeter
G1 X131.652 Y109.894 E0.00940 ; perimeter
G1 X131.565 Y110.017 E0.00473 ; perimeter
G1 X131.415 Y110.142 E0.00612 ; perimeter
G1 X131.066 Y110.251 E0.01146 ; perimeter
G1 X131.048 Y110.191 E0.00196 ; perimeter
G1 X128.591 Y110.191 E0.07704 ; perimeter
G1 X128.363 Y110.095 E0.00776 ; perimeter
G1 X128.224 Y109.939 E0.00656 ; perimeter
G1 X127.270 Y107.184 E0.09142 ; perimeter
G1 X124.307 Y98.078 E0.30025 ; perimeter
G1 X124.333 Y97.841 E0.00746 ; perimeter
G1 X124.427 Y97.679 E0.00589 ; perimeter
G1 X124.585 Y97.569 E0.00603 ; perimeter
G1 X124.765 Y97.536 E0.00574 ; perimeter
G1 X127.035 Y97.536 E0.07119 ; perimeter
G1 X127.198 Y97.577 E0.00527 ; perimeter
G1 X127.330 Y97.660 E0.00489 ; perimeter
G1 X127.780 Y97.660 F10800.000 ; move inwards before travel
G1 F8640
G1 X127.652 Y98.480 E-0.20347 ; wipe and retract
G1 F8640
G1 X128.335 Y100.660 E-0.52754 ; wipe and retract
G1 F8640
G1 X128.302 Y100.539 E-0.02898 ; wipe and retract
G1 E-0.04000 F2100.00000 ; retract
G1 Z0.800 F10800.000 ; lift Z
G1 X136.303 Y97.418 F10800.000 ; move to first perimeter point
G1 Z0.200 F10800.000 ; restore layer Z
G1 E0.80000 F2100.00000 ; unretract
G1 F1200
G1 X136.596 Y97.212 E0.01122 ; perimeter
G1 X136.891 Y97.158 E0.00941 ; perimeter
G1 X139.368 Y97.163 E0.07766 ; perimeter
G1 X139.745 Y97.335 E0.01300 ; perimeter
G1 X139.940 Y97.582 E0.00986 ; perimeter
G1 X140.033 Y97.846 E0.00878 ; perimeter
G1 X140.038 Y109.757 E0.37344 ; perimeter
G1 X139.983 Y110.035 E0.00891 ; perimeter
G1 X139.788 Y110.307 E0.01048 ; perimeter
G1 X139.540 Y110.469 E0.00929 ; perimeter
G1 X139.247 Y110.568 E0.00969 ; perimeter
G1 X136.879 Y110.568 E0.07426 ; perimeter
G1 X136.486 Y110.412 E0.01324 ; perimeter
G1 X136.239 Y110.187 E0.01050 ; perimeter
G1 X136.099 Y109.874 E0.01076 ; perimeter
G1 X136.094 Y97.962 E0.37348 ; perimeter
G1 X136.134 Y97.708 E0.00807 ; perimeter
G1 X136.273 Y97.469 E0.00864 ; perimeter
G1 X136.587 Y97.679 F10800.000 ; move to first perimeter point
G1 F1200
G1 X136.745 Y97.569 E0.00603 ; perimeter
G1 X136.925 Y97.536 E0.00575 ; perimeter
G1 X139.286 Y97.540 E0.07402 ; perimeter
G1 X139.506 Y97.640 E0.00759 ; perimeter
G1 X139.605 Y97.766 E0.00502 ; perimeter
G1 X139.655 Y97.910 E0.00479 ; perimeter
G1 X139.661 Y109.720 E0.37028 ; perimeter
G1 X139.629 Y109.882 E0.00518 ; perimeter
G1 X139.522 Y110.029 E0.00571 ; perimeter
G1 X139.373 Y110.127 E0.00559 ; perimeter
G1 X139.185 Y110.191 E0.00623 ; perimeter
G1 X136.951 Y110.191 E0.07006 ; perimeter
G1 X136.689 Y110.087 E0.00883 ; perimeter
G1 X136.551 Y109.961 E0.00586 ; perimeter
G1 X136.476 Y109.793 E0.00576 ; perimeter
G1 X136.471 Y97.992 E0.37003 ; perimeter
G1 X136.496 Y97.836 E0.00494 ; perimeter
G1 X136.557 Y97.731 E0.00383 ; perimeter
G1 X136.532 Y97.494 F10800.000 ; move inwards before travel
G1 F8640
G1 X136.745 Y97.569 E-0.05727 ; wipe and retract
G1 F8640
G1 X136.925 Y97.536 E-0.04233 ; wipe and retract
G1 F8640
G1 X139.286 Y97.540 E-0.54510 ; wipe and retract
G1 F8640
G1 X139.506 Y97.640 E-0.05587 ; wipe and retract
G1 F8640
G1 X139.605 Y97.766 E-0.03699 ; wipe and retract
G1 F8640
G1 X139.637 Y97.858 E-0.02245 ; wipe and retract
G1 E-0.04000 F2100.00000 ; retract
G1 Z0.800 F10800.000 ; lift Z
G1 X148.001 Y96.407 F10800.000 ; move to first perimeter point
G1 Z0.200 F10800.000 ; restore layer Z
G1 E0.80000 F2100.00000 ; unretract
G1 F1200
G1 X148.001 Y97.159 E0.02356 ; perimeter
G1 X150.157 Y97.160 E0.06762 ; perimeter
G1 X150.405 Y97.217 E0.00797 ; perimeter
G1 X150.674 Y97.396 E0.01014 ; perimeter
G1 X150.852 Y97.650 E0.00971 ; perimeter
G1 X150.959 Y97.956 E0.01015 ; perimeter
G1 X150.959 Y109.790 E0.37105 ; perimeter
G1 X150.771 Y110.235 E0.01515 ; perimeter
G1 X150.509 Y110.465 E0.01095 ; perimeter
G1 X150.237 Y110.563 E0.00906 ; perimeter
G1 X147.956 Y110.567 E0.07151 ; perimeter
G1 X147.575 Y110.414 E0.01288 ; perimeter
G1 X147.368 Y110.180 E0.00979 ; perimeter
G1 X147.254 Y109.896 E0.00962 ; perimeter
G1 X147.252 Y104.503 E0.16907 ; perimeter
G1 X144.685 Y109.610 E0.17920 ; perimeter
G1 X144.385 Y110.147 E0.01928 ; perimeter
G1 X143.942 Y110.704 E0.02232 ; perimeter
G1 X143.553 Y110.568 E0.01290 ; perimeter
G1 X140.985 Y110.566 E0.08052 ; perimeter
G1 X140.669 Y110.468 E0.01038 ; perimeter
G1 X140.419 Y110.236 E0.01070 ; perimeter
G1 X140.294 Y110.008 E0.00817 ; perimeter
G1 X140.207 Y109.707 E0.00983 ; perimeter
G1 X140.207 Y98.056 E0.36530 ; perimeter
G1 X140.279 Y97.736 E0.01029 ; perimeter
G1 X140.463 Y97.425 E0.01133 ; perimeter
G1 X140.781 Y97.211 E0.01202 ; perimeter
G1 X141.092 Y97.158 E0.00990 ; perimeter
G1 X143.087 Y97.158 E0.06253 ; perimeter
G1 X143.361 Y97.222 E0.00883 ; perimeter
G1 X143.574 Y97.328 E0.00747 ; perimeter
G1 X143.780 Y97.511 E0.00863 ; perimeter
G1 X143.930 Y97.824 E0.01088 ; perimeter
G1 X143.932 Y103.072 E0.16454 ; perimeter
G1 X146.588 Y97.852 E0.18363 ; perimeter
G1 X146.868 Y97.442 E0.01557 ; perimeter
G1 X147.957 Y96.448 E0.04624 ; perimeter
G1 X147.624 Y97.262 F10800.000 ; move to first perimeter point
G1 F1200
G1 X147.624 Y102.924 E0.17752 ; perimeter
G1 X144.352 Y109.433 E0.22844 ; perimeter
G1 X144.071 Y109.936 E0.01805 ; perimeter
G1 X143.814 Y110.260 E0.01296 ; perimeter
G1 X143.558 Y110.170 E0.00849 ; perimeter
G1 X143.558 Y110.191 E0.00065 ; perimeter
G1 X141.042 Y110.189 E0.07887 ; perimeter
G1 X140.863 Y110.134 E0.00590 ; perimeter
G1 X140.720 Y110.001 E0.00610 ; perimeter
G1 X140.644 Y109.863 E0.00494 ; perimeter
G1 X140.584 Y109.654 E0.00684 ; perimeter
G1 X140.584 Y98.098 E0.36232 ; perimeter
G1 X140.633 Y97.877 E0.00710 ; perimeter
G1 X140.744 Y97.691 E0.00680 ; perimeter
G1 X140.924 Y97.569 E0.00681 ; perimeter
G1 X141.124 Y97.536 E0.00635 ; perimeter
G1 X143.043 Y97.536 E0.06019 ; perimeter
G1 X143.233 Y97.580 E0.00610 ; perimeter
G1 X143.361 Y97.643 E0.00449 ; perimeter
G1 X143.472 Y97.742 E0.00466 ; perimeter
G1 X143.553 Y97.910 E0.00584 ; perimeter
G1 X143.556 Y104.692 E0.21263 ; perimeter
G1 X143.899 Y103.972 E0.02501 ; perimeter
G1 X146.915 Y98.042 E0.20859 ; perimeter
G1 X147.154 Y97.691 E0.01333 ; perimeter
G1 X147.579 Y97.302 E0.01805 ; perimeter
G1 X148.008 Y97.152 F10800.000 ; move inwards before travel
G1 X147.626 Y97.535 F10800.000 ; move to first perimeter point
G1 F1200
G1 X150.114 Y97.537 E0.07802 ; perimeter
G1 X150.254 Y97.569 E0.00448 ; perimeter
G1 X150.406 Y97.670 E0.00574 ; perimeter
G1 X150.513 Y97.823 E0.00585 ; perimeter
G1 X150.582 Y98.020 E0.00652 ; perimeter
G1 X150.582 Y109.713 E0.36665 ; perimeter
G1 X150.457 Y110.009 E0.01005 ; perimeter
G1 X150.314 Y110.135 E0.00598 ; perimeter
G1 X150.171 Y110.186 E0.00476 ; perimeter
G1 X148.028 Y110.189 E0.06718 ; perimeter
G1 X147.798 Y110.097 E0.00778 ; perimeter
G1 X147.694 Y109.979 E0.00494 ; perimeter
G1 X147.631 Y109.823 E0.00529 ; perimeter
G1 X147.626 Y97.595 E0.38338 ; perimeter
G1 X147.626 Y97.135 F10800.000 ; move inwards before travel
G1 F8640
G1 X150.114 Y97.537 E-0.57468 ; wipe and retract
G1 F8640
G1 X150.254 Y97.569 E-0.03297 ; wipe and retract
G1 F8640
G1 X150.406 Y97.670 E-0.04228 ; wipe and retract
G1 F8640
G1 X150.513 Y97.823 E-0.04309 ; wipe and retract
G1 F8640
G1 X150.582 Y98.020 E-0.04805 ; wipe and retract
G1 F8640
G1 X150.582 Y98.102 E-0.01893 ; wipe and retract
G1 E-0.04000 F2100.00000 ; retract
G1 Z0.800 F10800.000 ; lift Z
G1 X161.046 Y97.519 F10800.000 ; move to first perimeter point
G1 Z0.200 F10800.000 ; restore layer Z
G1 E0.80000 F2100.00000 ; unretract
G1 F1200
G1 X161.183 Y97.915 E0.01312 ; perimeter
G1 X161.185 Y99.978 E0.06468 ; perimeter
G1 X161.129 Y100.276 E0.00950 ; perimeter
G1 X160.850 Y100.613 E0.01372 ; perimeter
G1 X160.438 Y100.793 E0.01411 ; perimeter
G1 X154.912 Y100.793 E0.17327 ; perimeter
G1 X154.912 Y102.116 E0.04150 ; perimeter
G1 X160.131 Y102.116 E0.16364 ; perimeter
G1 X160.423 Y102.167 E0.00929 ; perimeter
G1 X160.805 Y102.453 E0.01497 ; perimeter
G1 X160.948 Y102.858 E0.01348 ; perimeter
G1 X160.950 Y104.934 E0.06508 ; perimeter
G1 X160.878 Y105.272 E0.01085 ; perimeter
G1 X160.555 Y105.646 E0.01550 ; perimeter
G1 X160.157 Y105.751 E0.01289 ; perimeter
G1 X154.912 Y105.751 E0.16446 ; perimeter
G1 X154.912 Y106.943 E0.03738 ; perimeter
G1 X160.165 Y106.943 E0.16470 ; perimeter
G1 X160.486 Y107.048 E0.01059 ; perimeter
G1 X160.833 Y107.316 E0.01375 ; perimeter
G1 X160.967 Y107.691 E0.01250 ; perimeter
G1 X160.969 Y109.752 E0.06462 ; perimeter
G1 X160.913 Y110.055 E0.00965 ; perimeter
G1 X160.625 Y110.397 E0.01404 ; perimeter
G1 X160.205 Y110.568 E0.01420 ; perimeter
G1 X151.748 Y110.567 E0.26517 ; perimeter
G1 X151.445 Y110.476 E0.00992 ; perimeter
G1 X151.187 Y110.265 E0.01043 ; perimeter
G1 X151.011 Y109.897 E0.01281 ; perimeter
G1 X150.968 Y109.682 E0.00686 ; perimeter
G1 X150.968 Y97.987 E0.36669 ; perimeter
G1 X151.068 Y97.692 E0.00978 ; perimeter
G1 X151.227 Y97.443 E0.00926 ; perimeter
G1 X151.497 Y97.244 E0.01052 ; perimeter
G1 X151.777 Y97.187 E0.00897 ; perimeter
G1 X160.381 Y97.196 E0.26976 ; perimeter
G1 X160.668 Y97.242 E0.00910 ; perimeter
G1 X160.998 Y97.484 E0.01285 ; perimeter
G1 X160.728 Y97.754 F10800.000 ; move to first perimeter point
G1 F1200
G1 X160.806 Y97.978 E0.00745 ; perimeter
G1 X160.807 Y99.943 E0.06161 ; perimeter
G1 X160.776 Y100.111 E0.00535 ; perimeter
G1 X160.617 Y100.303 E0.00783 ; perimeter
G1 X160.359 Y100.416 E0.00882 ; perimeter
G1 X154.535 Y100.416 E0.18263 ; perimeter
G1 X154.535 Y102.494 E0.06515 ; perimeter
G1 X160.099 Y102.494 E0.17446 ; perimeter
G1 X160.270 Y102.523 E0.00544 ; perimeter
G1 X160.488 Y102.686 E0.00853 ; perimeter
G1 X160.571 Y102.923 E0.00787 ; perimeter
G1 X160.573 Y104.895 E0.06182 ; perimeter
G1 X160.529 Y105.099 E0.00655 ; perimeter
G1 X160.346 Y105.311 E0.00879 ; perimeter
G1 X160.108 Y105.374 E0.00770 ; perimeter
G1 X154.535 Y105.374 E0.17475 ; perimeter
G1 X154.535 Y107.320 E0.06102 ; perimeter
G1 X160.105 Y107.320 E0.17465 ; perimeter
G1 X160.307 Y107.386 E0.00666 ; perimeter
G1 X160.515 Y107.547 E0.00825 ; perimeter
G1 X160.590 Y107.757 E0.00700 ; perimeter
G1 X160.591 Y109.718 E0.06149 ; perimeter
G1 X160.560 Y109.889 E0.00544 ; perimeter
G1 X160.396 Y110.083 E0.00798 ; perimeter
G1 X160.131 Y110.191 E0.00896 ; perimeter
G1 X151.803 Y110.189 E0.26113 ; perimeter
G1 X151.625 Y110.136 E0.00582 ; perimeter
G1 X151.491 Y110.027 E0.00542 ; perimeter
G1 X151.371 Y109.777 E0.00870 ; perimeter
G1 X151.345 Y109.645 E0.00421 ; perimeter
G1 X151.345 Y98.049 E0.36358 ; perimeter
G1 X151.410 Y97.856 E0.00638 ; perimeter
G1 X151.507 Y97.705 E0.00563 ; perimeter
G1 X151.654 Y97.597 E0.00573 ; perimeter
G1 X151.815 Y97.564 E0.00516 ; perimeter
G1 X154.535 Y97.564 E0.08527 ; perimeter
G1 X160.351 Y97.573 E0.18236 ; perimeter
G1 X160.518 Y97.600 E0.00531 ; perimeter
G1 X160.680 Y97.718 E0.00629 ; perimeter
G1 X160.965 Y97.737 F10800.000 ; move inwards before travel
G1 X161.294 Y97.839 F10800.000 ; move to first perimeter point
G1 F1200
G1 X161.324 Y97.688 E0.00482 ; perimeter
G1 X161.525 Y97.412 E0.01070 ; perimeter
G1 X161.782 Y97.250 E0.00953 ; perimeter
G1 X162.076 Y97.158 E0.00966 ; perimeter
G1 X164.341 Y97.158 E0.07101 ; perimeter
G1 X164.622 Y97.219 E0.00902 ; perimeter
G1 X164.860 Y97.331 E0.00822 ; perimeter
G1 X165.098 Y97.562 E0.01041 ; perimeter
G1 X165.216 Y97.856 E0.00994 ; perimeter
G1 X165.218 Y101.581 E0.11680 ; perimeter
G1 X166.400 Y101.581 E0.03705 ; perimeter
G1 X168.355 Y98.007 E0.12773 ; perimeter
G1 X168.476 Y97.744 E0.00909 ; perimeter
