; generated by Slic3r 1.37.2.1-prusa3d on 2019-01-06 at 18:59:09

; 

; external perimeters extrusion width = 0.45mm
; perimeters extrusion width = 0.45mm
; infill extrusion width = 0.45mm
; solid infill extrusion width = 0.45mm
; top infill extrusion width = 0.40mm
; first layer extrusion width = 0.42mm

M107 ; disable fan
M115 U3.4.0 ; tell printer latest fw version
M83  ; extruder relative mode
M104 S215 ; set extruder temp
M140 S60 ; set bed temp
M190 S60 ; wait for bed temp
M109 S215 ; wait for extruder temp
G28 W ; home all without mesh bed level
G80 ; mesh bed leveling
G1 Y-3.0 F1000.0 ; go outside print area
G92 E0.0
G1 X60.0 E9.0  F1000.0 ; intro line
G1 X100.0 E12.5  F1000.0 ; intro line
G92 E0.0
M221 S95
M900 K30
G21 ; set units to millimeters
G90 ; use absolute coordinates
M83 ; use relative distances for extrusion
;BEFORE_LAYER_CHANGE
G92 E0.0
;0.2


G1 E-0.80000 F2100.00000 ; retract
G1 Z0.600 F10800.000 ; lift Z
;AFTER_LAYER_CHANGE
;0.2
G1 X29.813 Y21.500 F10800.000 ; move to first skirt point
G1 Z0.200 F10800.000 ; restore layer Z
G1 E0.80000 F2100.00000 ; unretract
M204 S1000 ; adjust acceleration
G1 F1200
G1 X30.661 Y21.340 E0.02708 ; skirt
G1 X220.674 Y21.340 E5.95771 ; skirt
G1 X221.565 Y21.515 E0.02849 ; skirt
G1 X222.329 Y22.014 E0.02860 ; skirt
G1 X222.847 Y22.761 E0.02849 ; skirt
G1 X223.046 Y23.651 E0.02860 ; skirt
G1 X223.043 Y106.854 E2.60877 ; skirt
G1 X211.884 Y185.314 E2.48482 ; skirt
G1 X211.627 Y186.088 E0.02555 ; skirt
G1 X211.125 Y186.729 E0.02555 ; skirt
G1 X210.389 Y187.182 E0.02708 ; skirt
G1 X209.540 Y187.341 E0.02708 ; skirt
G1 X39.529 Y187.341 E5.33059 ; skirt
G1 X39.037 Y187.289 E0.01550 ; skirt
G1 X38.567 Y187.136 E0.01550 ; skirt
G1 X38.139 Y186.890 E0.01550 ; skirt
G1 X37.768 Y186.557 E0.01562 ; skirt
G1 X37.369 Y185.948 E0.02284 ; skirt
G1 X37.172 Y185.246 E0.02284 ; skirt
G1 X28.296 Y106.844 E2.47395 ; skirt
G1 X28.293 Y23.694 E2.60711 ; skirt
G1 X28.348 Y23.207 E0.01538 ; skirt
G1 X28.503 Y22.741 E0.01538 ; skirt
G1 X28.749 Y22.317 E0.01538 ; skirt
G1 X29.077 Y21.953 E0.01538 ; skirt
G1 X29.762 Y21.531 E0.02520 ; skirt
G1 F8640
G1 X30.661 Y21.340 E-0.21241 ; wipe and retract
G1 F8640
G1 X33.033 Y21.340 E-0.54759 ; wipe and retract
G1 E-0.04000 F2100.00000 ; retract
G1 Z0.800 F10800.000 ; lift Z
G1 X151.034 Y76.995 F10800.000 ; move to first perimeter point
G1 Z0.200 F10800.000 ; restore layer Z
G1 E0.80000 F2100.00000 ; unretract
G1 F1200
G1 X152.342 Y74.813 E0.07978 ; perimeter
G1 X155.983 Y68.544 E0.22731 ; perimeter
G1 X156.946 Y66.927 E0.05900 ; perimeter
G1 X157.321 Y66.252 E0.02422 ; perimeter
G1 X157.655 Y65.735 E0.01930 ; perimeter
G1 X157.829 Y65.513 E0.00885 ; perimeter
G1 X158.111 Y65.241 E0.01228 ; perimeter
G1 X158.459 Y65.102 E0.01176 ; perimeter
G1 X162.135 Y65.104 E0.11525 ; perimeter
G1 X162.478 Y65.213 E0.01127 ; perimeter
G1 X162.729 Y65.420 E0.01022 ; perimeter
G1 X162.920 Y65.717 E0.01105 ; perimeter
G1 X163.049 Y66.098 E0.01261 ; perimeter
G1 X163.049 Y85.289 E0.60172 ; perimeter
G1 X162.986 Y85.522 E0.00758 ; perimeter
G1 X162.859 Y85.819 E0.01010 ; perimeter
G1 X162.673 Y86.062 E0.00961 ; perimeter
G1 X162.355 Y86.260 E0.01174 ; perimeter
G1 X162.079 Y86.304 E0.00878 ; perimeter
G1 X158.864 Y86.302 E0.10079 ; perimeter
G1 X158.643 Y86.257 E0.00705 ; perimeter
G1 X158.381 Y86.125 E0.00919 ; perimeter
G1 X158.173 Y85.916 E0.00927 ; perimeter
G1 X158.036 Y85.658 E0.00916 ; perimeter
G1 X157.985 Y85.370 E0.00917 ; perimeter
G1 X157.985 Y76.232 E0.28651 ; perimeter
G1 X153.370 Y84.126 E0.28671 ; perimeter
G1 X152.714 Y85.287 E0.04182 ; perimeter
G1 X152.378 Y85.798 E0.01918 ; perimeter
G1 X152.212 Y86.005 E0.00830 ; perimeter
G1 X151.034 Y87.060 E0.04958 ; perimeter
G1 X151.034 Y77.055 E0.31368 ; perimeter
G1 X151.411 Y77.100 F10800.000 ; move to first perimeter point
G1 F1200
G1 X152.667 Y75.004 E0.07659 ; perimeter
G1 X156.308 Y68.735 E0.22733 ; perimeter
G1 X157.272 Y67.115 E0.05910 ; perimeter
G1 X157.645 Y66.446 E0.02400 ; perimeter
G1 X157.963 Y65.954 E0.01838 ; perimeter
G1 X158.109 Y65.766 E0.00747 ; perimeter
G1 X158.319 Y65.564 E0.00914 ; perimeter
G1 X158.532 Y65.479 E0.00718 ; perimeter
G1 X162.076 Y65.481 E0.11113 ; perimeter
G1 X162.294 Y65.551 E0.00717 ; perimeter
G1 X162.444 Y65.674 E0.00610 ; perimeter
G1 X162.578 Y65.881 E0.00773 ; perimeter
G1 X162.672 Y66.160 E0.00921 ; perimeter
G1 X162.672 Y85.239 E0.59822 ; perimeter
G1 X162.629 Y85.399 E0.00518 ; perimeter
G1 X162.531 Y85.627 E0.00777 ; perimeter
G1 X162.415 Y85.778 E0.00599 ; perimeter
G1 X162.220 Y85.900 E0.00720 ; perimeter
G1 X162.049 Y85.927 E0.00544 ; perimeter
G1 X158.902 Y85.925 E0.09868 ; perimeter
G1 X158.768 Y85.898 E0.00429 ; perimeter
G1 X158.605 Y85.816 E0.00570 ; perimeter
G1 X158.479 Y85.690 E0.00559 ; perimeter
G1 X158.397 Y85.534 E0.00552 ; perimeter
G1 X158.362 Y85.337 E0.00627 ; perimeter
G1 X158.362 Y74.840 E0.32913 ; perimeter
G1 X153.043 Y83.938 E0.33045 ; perimeter
G1 X152.392 Y85.091 E0.04150 ; perimeter
G1 X152.073 Y85.576 E0.01822 ; perimeter
G1 X151.937 Y85.744 E0.00677 ; perimeter
G1 X151.411 Y86.216 E0.02216 ; perimeter
G1 X151.411 Y77.160 E0.28395 ; perimeter
G1 X151.151 Y76.795 F10800.000 ; move inwards before travel
G1 F8640
G1 X152.667 Y75.004 E-0.57595 ; wipe and retract
G1 F8640
G1 X153.067 Y74.315 E-0.18405 ; wipe and retract
G1 E-0.04000 F2100.00000 ; retract
G1 Z0.800 F10800.000 ; lift Z
G1 X171.761 Y65.224 F10800.000 ; move to first perimeter point
G1 Z0.200 F10800.000 ; restore layer Z
G1 E0.80000 F2100.00000 ; unretract
G1 F1200
G1 X171.761 Y86.304 E0.66095 ; perimeter
G1 X167.011 Y86.302 E0.14894 ; perimeter
G1 X166.639 Y86.191 E0.01216 ; perimeter
G1 X166.360 Y85.963 E0.01130 ; perimeter
G1 X166.168 Y85.634 E0.01194 ; perimeter
G1 X166.100 Y85.422 E0.00699 ; perimeter
G1 X166.055 Y85.194 E0.00730 ; perimeter
G1 X166.055 Y66.224 E0.59479 ; perimeter
G1 X166.179 Y65.841 E0.01261 ; perimeter
G1 X166.384 Y65.524 E0.01184 ; perimeter
G1 X166.715 Y65.290 E0.01269 ; perimeter
G1 X167.061 Y65.224 E0.01106 ; perimeter
G1 X171.701 Y65.224 E0.14548 ; perimeter
G1 X171.384 Y65.601 F10800.000 ; move to first perimeter point
G1 F1200
G1 X171.384 Y85.927 E0.63730 ; perimeter
G1 X167.066 Y85.925 E0.13539 ; perimeter
G1 X166.820 Y85.851 E0.00806 ; perimeter
G1 X166.652 Y85.714 E0.00680 ; perimeter
G1 X166.515 Y85.480 E0.00850 ; perimeter
G1 X166.432 Y85.156 E0.01049 ; perimeter
G1 X166.432 Y66.283 E0.59174 ; perimeter
G1 X166.523 Y66.005 E0.00919 ; perimeter
G1 X166.661 Y65.790 E0.00802 ; perimeter
G1 X166.866 Y65.645 E0.00784 ; perimeter
G1 X167.097 Y65.601 E0.00737 ; perimeter
G1 X171.324 Y65.601 E0.13255 ; perimeter
G1 X171.784 Y65.600 F10800.000 ; move inwards before travel
G1 F8640
G1 X171.334 Y68.893 E-0.76000 ; wipe and retract
G1 E-0.04000 F2100.00000 ; retract
G1 Z0.800 F10800.000 ; lift Z
G1 X172.761 Y65.240 F10800.000 ; move to first perimeter point
G1 Z0.200 F10800.000 ; restore layer Z
G1 E0.80000 F2100.00000 ; unretract
G1 F1200
G1 X182.628 Y65.240 E0.30936 ; perimeter
G1 X182.930 Y65.288 E0.00960 ; perimeter
G1 X183.203 Y65.428 E0.00961 ; perimeter
G1 X183.422 Y65.650 E0.00980 ; perimeter
G1 X183.553 Y65.925 E0.00956 ; perimeter
G1 X183.595 Y66.149 E0.00713 ; perimeter
G1 X183.597 Y69.371 E0.10104 ; perimeter
G1 X183.539 Y69.688 E0.01009 ; perimeter
G1 X183.377 Y69.955 E0.00981 ; perimeter
G1 X183.156 Y70.152 E0.00929 ; perimeter
G1 X182.858 Y70.296 E0.01036 ; perimeter
G1 X182.618 Y70.364 E0.00783 ; perimeter
G1 X172.761 Y70.364 E0.30905 ; perimeter
G1 X172.761 Y65.300 E0.15880 ; perimeter
G1 X173.138 Y65.617 F10800.000 ; move to first perimeter point
G1 F1200
G1 X182.598 Y65.617 E0.29660 ; perimeter
G1 X182.811 Y65.651 E0.00677 ; perimeter
G1 X182.977 Y65.736 E0.00583 ; perimeter
G1 X183.109 Y65.870 E0.00591 ; perimeter
G1 X183.192 Y66.043 E0.00600 ; perimeter
G1 X183.218 Y66.183 E0.00449 ; perimeter
G1 X183.220 Y69.337 E0.09888 ; perimeter
G1 X183.181 Y69.552 E0.00684 ; perimeter
G1 X183.084 Y69.711 E0.00585 ; perimeter
G1 X182.945 Y69.835 E0.00586 ; perimeter
G1 X182.723 Y69.942 E0.00770 ; perimeter
G1 X182.565 Y69.987 E0.00516 ; perimeter
G1 X173.138 Y69.987 E0.29557 ; perimeter
G1 X173.138 Y65.677 E0.13515 ; perimeter
G1 X172.990 Y65.245 F10800.000 ; move inwards before travel
G1 F8640
G1 X176.430 Y65.656 E-0.76000 ; wipe and retract
G1 E-0.04000 F2100.00000 ; retract
G1 Z0.800 F10800.000 ; lift Z
G1 X172.761 Y73.263 F10800.000 ; move to first perimeter point
G1 Z0.200 F10800.000 ; restore layer Z
G1 E0.80000 F2100.00000 ; unretract
G1 F1200
G1 X182.187 Y73.263 E0.29555 ; perimeter
G1 X182.498 Y73.317 E0.00988 ; perimeter
G1 X182.775 Y73.463 E0.00982 ; perimeter
G1 X182.998 Y73.691 E0.01000 ; perimeter
G1 X183.136 Y73.975 E0.00992 ; perimeter
G1 X183.181 Y74.211 E0.00751 ; perimeter
G1 X183.184 Y77.449 E0.10152 ; perimeter
G1 X183.105 Y77.823 E0.01199 ; perimeter
G1 X182.932 Y78.099 E0.01022 ; perimeter
G1 X182.686 Y78.309 E0.01012 ; perimeter
G1 X182.385 Y78.427 E0.01015 ; perimeter
G1 X182.167 Y78.449 E0.00685 ; perimeter
G1 X172.761 Y78.449 E0.29492 ; perimeter
G1 X172.761 Y73.323 E0.16072 ; perimeter
G1 X173.138 Y73.640 F10800.000 ; move to first perimeter point
G1 F1200
G1 X182.155 Y73.640 E0.28272 ; perimeter
G1 X182.375 Y73.678 E0.00698 ; perimeter
G1 X182.547 Y73.769 E0.00610 ; perimeter
G1 X182.686 Y73.911 E0.00623 ; perimeter
G1 X182.775 Y74.095 E0.00642 ; perimeter
G1 X182.804 Y74.247 E0.00484 ; perimeter
G1 X182.807 Y77.409 E0.09916 ; perimeter
G1 X182.750 Y77.679 E0.00865 ; perimeter
G1 X182.643 Y77.850 E0.00631 ; perimeter
G1 X182.489 Y77.981 E0.00633 ; perimeter
G1 X182.295 Y78.057 E0.00654 ; perimeter
G1 X182.148 Y78.072 E0.00463 ; perimeter
G1 X173.138 Y78.072 E0.28249 ; perimeter
G1 X173.138 Y73.700 E0.13707 ; perimeter
G1 X172.993 Y73.267 F10800.000 ; move inwards before travel
G1 F8640
G1 X176.430 Y73.678 E-0.76000 ; wipe and retract
G1 E-0.04000 F2100.00000 ; retract
G1 Z0.800 F10800.000 ; lift Z
G1 X172.761 Y81.134 F10800.000 ; move to first perimeter point
G1 Z0.200 F10800.000 ; restore layer Z
G1 E0.80000 F2100.00000 ; unretract
G1 F1200
G1 X182.154 Y81.134 E0.29450 ; perimeter
G1 X182.525 Y81.255 E0.01225 ; perimeter
G1 X182.773 Y81.401 E0.00901 ; perimeter
G1 X182.982 Y81.616 E0.00939 ; perimeter
G1 X183.111 Y81.881 E0.00924 ; perimeter
G1 X183.151 Y82.095 E0.00684 ; perimeter
G1 X183.153 Y85.311 E0.10084 ; perimeter
G1 X183.095 Y85.624 E0.00996 ; perimeter
G1 X182.937 Y85.887 E0.00962 ; perimeter
G1 X182.711 Y86.094 E0.00963 ; perimeter
G1 X182.229 Y86.304 E0.01647 ; perimeter
G1 X172.761 Y86.304 E0.29686 ; perimeter
G1 X172.761 Y81.194 E0.16024 ; perimeter
G1 X173.138 Y81.511 F10800.000 ; move to first perimeter point
G1 F1200
G1 X182.094 Y81.511 E0.28080 ; perimeter
G1 X182.369 Y81.600 E0.00906 ; perimeter
G1 X182.537 Y81.700 E0.00613 ; perimeter
G1 X182.669 Y81.835 E0.00592 ; perimeter
G1 X182.749 Y82.000 E0.00576 ; perimeter
G1 X182.774 Y82.131 E0.00416 ; perimeter
G1 X182.776 Y85.277 E0.09865 ; perimeter
G1 X182.737 Y85.488 E0.00674 ; perimeter
G1 X182.642 Y85.646 E0.00576 ; perimeter
G1 X182.503 Y85.774 E0.00594 ; perimeter
G1 X182.151 Y85.927 E0.01204 ; perimeter
G1 X173.138 Y85.927 E0.28257 ; perimeter
G1 X173.138 Y81.571 E0.13659 ; perimeter
G1 X172.993 Y81.138 F10800.000 ; move inwards before travel
G1 F8640
G1 X176.430 Y81.549 E-0.76000 ; wipe and retract
G1 E-0.04000 F2100.00000 ; retract
G1 Z0.800 F10800.000 ; lift Z
G1 X191.621 Y86.305 F10800.000 ; move to first perimeter point
G1 Z0.200 F10800.000 ; restore layer Z
G1 E0.80000 F2100.00000 ; unretract
G1 F1200
G1 X186.756 Y86.297 E0.15255 ; perimeter
G1 X186.414 Y86.168 E0.01147 ; perimeter
G1 X186.187 Y85.963 E0.00959 ; perimeter
G1 X186.040 Y85.725 E0.00877 ; perimeter
G1 X185.930 Y85.380 E0.01137 ; perimeter
G1 X185.930 Y66.157 E0.60271 ; perimeter
G1 X186.023 Y65.757 E0.01289 ; perimeter
G1 X186.288 Y65.419 E0.01345 ; perimeter
G1 X186.658 Y65.221 E0.01316 ; perimeter
G1 X186.966 Y65.178 E0.00977 ; perimeter
G1 X190.514 Y65.178 E0.11125 ; perimeter
G1 X190.893 Y65.260 E0.01216 ; perimeter
G1 X191.186 Y65.398 E0.01014 ; perimeter
G1 X191.474 Y65.678 E0.01258 ; perimeter
G1 X191.611 Y66.018 E0.01151 ; perimeter
G1 X191.621 Y86.245 E0.63421 ; perimeter
G1 X191.244 Y85.927 F10800.000 ; move to first perimeter point
G1 F1200
G1 X186.825 Y85.920 E0.13855 ; perimeter
G1 X186.614 Y85.840 E0.00709 ; perimeter
G1 X186.479 Y85.719 E0.00567 ; perimeter
G1 X186.385 Y85.566 E0.00563 ; perimeter
G1 X186.307 Y85.321 E0.00808 ; perimeter
G1 X186.307 Y66.201 E0.59951 ; perimeter
G1 X186.372 Y65.924 E0.00892 ; perimeter
G1 X186.536 Y65.714 E0.00835 ; perimeter
G1 X186.776 Y65.585 E0.00855 ; perimeter
G1 X186.992 Y65.556 E0.00684 ; perimeter
G1 X190.474 Y65.556 E0.10918 ; perimeter
G1 X190.772 Y65.620 E0.00955 ; perimeter
G1 X190.969 Y65.712 E0.00682 ; perimeter
G1 X191.154 Y65.893 E0.00810 ; perimeter
G1 X191.234 Y66.091 E0.00673 ; perimeter
G1 X191.244 Y85.867 E0.62006 ; perimeter
G1 X191.244 Y86.327 F10800.000 ; move inwards before travel
G1 F8640
G1 X187.952 Y85.907 E-0.76000 ; wipe and retract
G1 E-0.04000 F2100.00000 ; retract
G1 Z0.800 F10800.000 ; lift Z
G1 X184.147 Y57.247 F10800.000 ; move to first perimeter point
G1 Z0.200 F10800.000 ; restore layer Z
G1 E0.80000 F2100.00000 ; unretract
G1 F1200
G1 X190.967 Y57.247 E0.21385 ; perimeter
G1 X191.301 Y57.367 E0.01112 ; perimeter
G1 X191.652 Y57.635 E0.01385 ; perimeter
G1 X191.803 Y58.015 E0.01282 ; perimeter
G1 X191.805 Y60.435 E0.07588 ; perimeter
G1 X191.740 Y60.749 E0.01006 ; perimeter
G1 X191.587 Y60.995 E0.00906 ; perimeter
G1 X191.344 Y61.202 E0.01004 ; perimeter
G1 X190.971 Y61.300 E0.01208 ; perimeter
G1 X184.190 Y61.300 E0.21261 ; perimeter
G1 X184.148 Y57.307 E0.12520 ; perimeter
G1 X184.528 Y57.624 F10800.000 ; move to first perimeter point
G1 F1200
G1 X190.902 Y57.624 E0.19984 ; perimeter
G1 X191.119 Y57.702 E0.00723 ; perimeter
G1 X191.340 Y57.871 E0.00874 ; perimeter
G1 X191.426 Y58.087 E0.00729 ; perimeter
G1 X191.427 Y60.397 E0.07242 ; perimeter
G1 X191.384 Y60.608 E0.00674 ; perimeter
G1 X191.298 Y60.746 E0.00511 ; perimeter
G1 X191.165 Y60.859 E0.00548 ; perimeter
G1 X190.923 Y60.923 E0.00785 ; perimeter
G1 X184.563 Y60.923 E0.19940 ; perimeter
G1 X184.529 Y57.684 E0.10155 ; perimeter
G1 X184.385 Y57.250 F10800.000 ; move inwards before travel
G1 F8640
G1 X187.820 Y57.653 E-0.76000 ; wipe and retract
G1 E-0.04000 F2100.00000 ; retract
G1 Z0.800 F10800.000 ; lift Z
G1 X184.184 Y51.796 F10800.000 ; move to first perimeter point
G1 Z0.200 F10800.000 ; restore layer Z
G1 E0.80000 F2100.00000 ; unretract
G1 F1200
G1 X190.956 Y51.796 E0.21235 ; perimeter
G1 X191.306 Y51.869 E0.01119 ; perimeter
G1 X191.666 Y52.157 E0.01446 ; perimeter
G1 X191.818 Y52.575 E0.01394 ; perimeter
G1 X191.820 Y54.930 E0.07386 ; perimeter
G1 X191.774 Y55.188 E0.00821 ; perimeter
G1 X191.646 Y55.428 E0.00854 ; perimeter
G1 X191.448 Y55.624 E0.00872 ; perimeter
G1 X191.187 Y55.752 E0.00911 ; perimeter
G1 X190.937 Y55.787 E0.00792 ; perimeter
G1 X184.184 Y55.787 E0.21175 ; perimeter
G1 X184.184 Y51.856 E0.12327 ; perimeter
G1 X184.561 Y52.173 F10800.000 ; move to first perimeter point
G1 F1200
G1 X190.917 Y52.173 E0.19930 ; perimeter
G1 X191.141 Y52.219 E0.00715 ; perimeter
G1 X191.348 Y52.385 E0.00832 ; perimeter
G1 X191.441 Y52.641 E0.00854 ; perimeter
G1 X191.443 Y54.897 E0.07074 ; perimeter
G1 X191.413 Y55.063 E0.00528 ; perimeter
G1 X191.340 Y55.200 E0.00487 ; perimeter
G1 X191.227 Y55.312 E0.00500 ; perimeter
G1 X191.075 Y55.387 E0.00531 ; perimeter
G1 X190.911 Y55.410 E0.00520 ; perimeter
G1 X184.561 Y55.410 E0.19909 ; perimeter
G1 X184.561 Y52.233 E0.09963 ; perimeter
G1 X184.418 Y51.799 F10800.000 ; move inwards before travel
G1 F8640
G1 X187.852 Y52.202 E-0.76000 ; wipe and retract
G1 E-0.04000 F2100.00000 ; retract
G1 Z0.800 F10800.000 ; lift Z
G1 X184.184 Y46.146 F10800.000 ; move to first perimeter point
G1 Z0.200 F10800.000 ; restore layer Z
G1 E0.80000 F2100.00000 ; unretract
G1 F1200
G1 X191.327 Y46.146 E0.22398 ; perimeter
G1 X191.589 Y46.189 E0.00833 ; perimeter
