; generated by Slic3r 1.37.2.1-prusa3d on 2018-06-11 at 14:35:35

; 

; external perimeters extrusion width = 0.45mm
; perimeters extrusion width = 0.45mm
; infill extrusion width = 0.45mm
; solid infill extrusion width = 0.45mm
; top infill extrusion width = 0.40mm
; first layer extrusion width = 0.42mm

M107 ; disable fan
M115 U3.1.1-RC5 ; tell printer latest fw version
M83  ; extruder relative mode
M104 S215 ; set extruder temp
M140 S60 ; set bed temp
M190 S60 ; wait for bed temp
M109 S215 ; wait for extruder temp
G28 W ; home all without mesh bed level
G80 ; mesh bed leveling
G1 Y-3.0 F1000.0 ; go outside print area
G92 E0.0
G1 X60.0 E9.0  F1000.0 ; intro line
G1 X100.0 E12.5  F1000.0 ; intro line
G92 E0.0
M221 S95
M900 K30
G21 ; set units to millimeters
G90 ; use absolute coordinates
M83 ; use relative distances for extrusion
;BEFORE_LAYER_CHANGE
;0.2


G1 E-0.80000 F2100.00000 ; retract
G1 Z0.600 F12000.000 ; lift Z
;AFTER_LAYER_CHANGE
;0.2
G1 X118.260 Y98.789 F12000.000 ; move to first skirt point
G1 Z0.200 F12000.000 ; restore layer Z
G1 E0.80000 F2100.00000 ; unretract
M204 S1000 ; adjust acceleration
G1 F1800
G1 X119.154 Y97.946 E0.03853 ; skirt
G1 X120.066 Y97.328 E0.03456 ; skirt
G1 X121.181 Y96.813 E0.03853 ; skirt
G1 X122.304 Y96.506 E0.03649 ; skirt
G1 X123.819 Y96.384 E0.04766 ; skirt
G1 X125.049 Y96.521 E0.03878 ; skirt
G1 X137.866 Y99.104 E0.40995 ; skirt
G1 X138.891 Y99.545 E0.03500 ; skirt
G1 X139.886 Y100.227 E0.03781 ; skirt
G1 X140.869 Y101.283 E0.04526 ; skirt
G1 X141.462 Y102.291 E0.03666 ; skirt
G1 X141.875 Y103.510 E0.04037 ; skirt
G1 X142.016 Y105.004 E0.04705 ; skirt
G1 X141.234 Y119.024 E0.44026 ; skirt
G1 X140.758 Y120.631 E0.05254 ; skirt
G1 X139.888 Y122.129 E0.05433 ; skirt
G1 X138.693 Y123.372 E0.05407 ; skirt
G1 X137.236 Y124.295 E0.05407 ; skirt
G1 X135.578 Y124.850 E0.05484 ; skirt
G1 X134.537 Y124.984 E0.03289 ; skirt
G1 X133.830 Y124.990 E0.02217 ; skirt
G1 X122.081 Y123.592 E0.37097 ; skirt
G1 X120.664 Y123.146 E0.04660 ; skirt
G1 X119.579 Y122.506 E0.03947 ; skirt
G1 X118.471 Y121.435 E0.04833 ; skirt
G1 X117.779 Y120.350 E0.04037 ; skirt
G1 X117.382 Y119.320 E0.03462 ; skirt
G1 X117.175 Y118.160 E0.03692 ; skirt
G1 X116.433 Y103.675 E0.45477 ; skirt
G1 X116.464 Y102.912 E0.02397 ; skirt
G1 X116.645 Y101.845 E0.03391 ; skirt
G1 X117.011 Y100.754 E0.03610 ; skirt
G1 X117.558 Y99.717 E0.03674 ; skirt
G1 X118.224 Y98.837 E0.03460 ; skirt
G1 X118.523 Y99.064 F12000.000 ; move to first skirt point
G1 F1800
G1 X119.381 Y98.247 E0.03711 ; skirt
G1 X120.248 Y97.658 E0.03290 ; skirt
G1 X121.305 Y97.169 E0.03650 ; skirt
G1 X122.718 Y96.821 E0.04563 ; skirt
G1 X123.819 Y96.761 E0.03456 ; skirt
G1 X124.979 Y96.891 E0.03659 ; skirt
G1 X137.732 Y99.456 E0.40788 ; skirt
G1 X138.701 Y99.871 E0.03304 ; skirt
G1 X139.631 Y100.505 E0.03530 ; skirt
G1 X140.565 Y101.507 E0.04295 ; skirt
G1 X141.116 Y102.440 E0.03399 ; skirt
G1 X141.505 Y103.585 E0.03791 ; skirt
G1 X141.638 Y105.002 E0.04461 ; skirt
G1 X140.865 Y118.943 E0.43778 ; skirt
G1 X140.414 Y120.474 E0.05006 ; skirt
G1 X139.592 Y121.896 E0.05149 ; skirt
G1 X138.457 Y123.077 E0.05137 ; skirt
G1 X137.087 Y123.948 E0.05089 ; skirt
G1 X135.502 Y124.481 E0.05243 ; skirt
G1 X133.843 Y124.613 E0.05220 ; skirt
G1 X122.168 Y123.225 E0.36863 ; skirt
G1 X120.819 Y122.802 E0.04433 ; skirt
G1 X119.813 Y122.210 E0.03660 ; skirt
G1 X118.764 Y121.198 E0.04568 ; skirt
G1 X118.125 Y120.199 E0.03720 ; skirt
G1 X117.747 Y119.227 E0.03269 ; skirt
G1 X117.551 Y118.138 E0.03470 ; skirt
G1 X116.810 Y103.665 E0.45438 ; skirt
G1 X116.839 Y102.956 E0.02225 ; skirt
G1 X117.005 Y101.959 E0.03171 ; skirt
G1 X117.355 Y100.909 E0.03469 ; skirt
G1 X117.872 Y99.927 E0.03481 ; skirt
G1 X118.487 Y99.111 E0.03203 ; skirt
G1 F9600
G1 X119.381 Y98.247 E-0.25829 ; wipe and retract
G1 F9600
G1 X120.248 Y97.658 E-0.21805 ; wipe and retract
G1 F9600
G1 X121.305 Y97.169 E-0.24191 ; wipe and retract
G1 F9600
G1 X121.500 Y97.121 E-0.04174 ; wipe and retract
G1 E-0.04000 F2100.00000 ; retract
G1 Z0.800 F12000.000 ; lift Z
G1 X121.324 Y101.464 F12000.000 ; move to first perimeter point
G1 Z0.200 F12000.000 ; restore layer Z
G1 E0.80000 F2100.00000 ; unretract
G1 F1800
G1 X121.570 Y101.223 E0.01077 ; perimeter
G1 X121.832 Y101.017 E0.01047 ; perimeter
G1 X122.115 Y100.840 E0.01047 ; perimeter
G1 X122.416 Y100.694 E0.01047 ; perimeter
G1 X122.730 Y100.581 E0.01047 ; perimeter
G1 X123.055 Y100.501 E0.01047 ; perimeter
G1 X123.386 Y100.457 E0.01047 ; perimeter
G1 X123.713 Y100.448 E0.01028 ; perimeter
G1 X124.052 Y100.475 E0.01064 ; perimeter
G1 X124.381 Y100.537 E0.01049 ; perimeter
G1 X124.700 Y100.633 E0.01047 ; perimeter
G1 X125.008 Y100.763 E0.01047 ; perimeter
G1 X125.300 Y100.925 E0.01047 ; perimeter
G1 X125.574 Y101.117 E0.01047 ; perimeter
G1 X125.825 Y101.337 E0.01047 ; perimeter
G1 X126.052 Y101.582 E0.01047 ; perimeter
G1 X126.251 Y101.850 E0.01047 ; perimeter
G1 X126.420 Y102.138 E0.01047 ; perimeter
G1 X126.558 Y102.442 E0.01047 ; perimeter
G1 X126.663 Y102.759 E0.01047 ; perimeter
G1 X126.734 Y103.086 E0.01047 ; perimeter
G1 X126.769 Y103.418 E0.01047 ; perimeter
G1 X126.769 Y103.752 E0.01047 ; perimeter
G1 X126.734 Y104.084 E0.01047 ; perimeter
G1 X126.663 Y104.410 E0.01047 ; perimeter
G1 X126.558 Y104.728 E0.01047 ; perimeter
G1 X126.420 Y105.032 E0.01047 ; perimeter
G1 X126.251 Y105.319 E0.01047 ; perimeter
G1 X126.052 Y105.588 E0.01047 ; perimeter
G1 X125.825 Y105.833 E0.01047 ; perimeter
G1 X125.574 Y106.053 E0.01047 ; perimeter
G1 X125.300 Y106.245 E0.01047 ; perimeter
G1 X125.008 Y106.407 E0.01047 ; perimeter
G1 X124.700 Y106.537 E0.01047 ; perimeter
G1 X124.381 Y106.633 E0.01047 ; perimeter
G1 X124.052 Y106.695 E0.01047 ; perimeter
G1 X123.719 Y106.722 E0.01047 ; perimeter
G1 X123.386 Y106.713 E0.01047 ; perimeter
G1 X123.055 Y106.668 E0.01047 ; perimeter
G1 X122.730 Y106.589 E0.01047 ; perimeter
G1 X122.416 Y106.476 E0.01047 ; perimeter
G1 X122.115 Y106.330 E0.01047 ; perimeter
G1 X121.832 Y106.153 E0.01047 ; perimeter
G1 X121.570 Y105.946 E0.01047 ; perimeter
G1 X121.330 Y105.713 E0.01047 ; perimeter
G1 X121.117 Y105.456 E0.01047 ; perimeter
G1 X120.932 Y105.178 E0.01047 ; perimeter
G1 X120.778 Y104.881 E0.01047 ; perimeter
G1 X120.657 Y104.570 E0.01047 ; perimeter
G1 X120.569 Y104.248 E0.01047 ; perimeter
G1 X120.516 Y103.918 E0.01047 ; perimeter
G1 X120.498 Y103.585 E0.01047 ; perimeter
G1 X120.516 Y103.251 E0.01047 ; perimeter
G1 X120.569 Y102.922 E0.01047 ; perimeter
G1 X120.657 Y102.599 E0.01047 ; perimeter
G1 X120.778 Y102.288 E0.01047 ; perimeter
G1 X120.932 Y101.992 E0.01047 ; perimeter
G1 X121.117 Y101.714 E0.01047 ; perimeter
G1 X121.286 Y101.510 E0.00830 ; perimeter
G1 X121.576 Y101.750 F12000.000 ; move to first perimeter point
G1 F1800
G1 X121.818 Y101.508 E0.01075 ; perimeter
G1 X122.049 Y101.326 E0.00921 ; perimeter
G1 X122.298 Y101.170 E0.00921 ; perimeter
G1 X122.563 Y101.042 E0.00921 ; perimeter
G1 X122.839 Y100.942 E0.00921 ; perimeter
G1 X123.124 Y100.872 E0.00921 ; perimeter
G1 X123.416 Y100.833 E0.00921 ; perimeter
G1 X123.704 Y100.826 E0.00904 ; perimeter
G1 X124.002 Y100.849 E0.00938 ; perimeter
G1 X124.291 Y100.903 E0.00922 ; perimeter
G1 X124.572 Y100.988 E0.00921 ; perimeter
G1 X124.843 Y101.102 E0.00921 ; perimeter
G1 X125.100 Y101.245 E0.00921 ; perimeter
G1 X125.340 Y101.414 E0.00921 ; perimeter
G1 X125.562 Y101.607 E0.00921 ; perimeter
G1 X125.761 Y101.823 E0.00921 ; perimeter
G1 X125.936 Y102.059 E0.00921 ; perimeter
G1 X126.085 Y102.312 E0.00921 ; perimeter
G1 X126.207 Y102.580 E0.00921 ; perimeter
G1 X126.299 Y102.859 E0.00921 ; perimeter
G1 X126.361 Y103.146 E0.00921 ; perimeter
G1 X126.392 Y103.438 E0.00921 ; perimeter
G1 X126.392 Y103.732 E0.00921 ; perimeter
G1 X126.361 Y104.024 E0.00921 ; perimeter
G1 X126.299 Y104.311 E0.00921 ; perimeter
G1 X126.207 Y104.590 E0.00921 ; perimeter
G1 X126.085 Y104.858 E0.00921 ; perimeter
G1 X125.936 Y105.111 E0.00921 ; perimeter
G1 X125.761 Y105.347 E0.00921 ; perimeter
G1 X125.562 Y105.562 E0.00921 ; perimeter
G1 X125.340 Y105.756 E0.00921 ; perimeter
G1 X125.100 Y105.925 E0.00921 ; perimeter
G1 X124.843 Y106.067 E0.00921 ; perimeter
G1 X124.572 Y106.181 E0.00921 ; perimeter
G1 X124.291 Y106.266 E0.00921 ; perimeter
G1 X124.002 Y106.321 E0.00921 ; perimeter
G1 X123.709 Y106.344 E0.00921 ; perimeter
G1 X123.416 Y106.336 E0.00921 ; perimeter
G1 X123.124 Y106.297 E0.00921 ; perimeter
G1 X122.839 Y106.228 E0.00921 ; perimeter
G1 X122.563 Y106.128 E0.00921 ; perimeter
G1 X122.298 Y105.999 E0.00921 ; perimeter
G1 X122.049 Y105.844 E0.00921 ; perimeter
G1 X121.818 Y105.662 E0.00921 ; perimeter
G1 X121.608 Y105.457 E0.00921 ; perimeter
G1 X121.420 Y105.231 E0.00921 ; perimeter
G1 X121.258 Y104.986 E0.00921 ; perimeter
G1 X121.122 Y104.725 E0.00921 ; perimeter
G1 X121.015 Y104.452 E0.00921 ; perimeter
G1 X120.938 Y104.168 E0.00921 ; perimeter
G1 X120.891 Y103.878 E0.00921 ; perimeter
G1 X120.876 Y103.585 E0.00921 ; perimeter
G1 X120.891 Y103.291 E0.00921 ; perimeter
G1 X120.938 Y103.001 E0.00921 ; perimeter
G1 X121.015 Y102.718 E0.00921 ; perimeter
G1 X121.122 Y102.444 E0.00921 ; perimeter
G1 X121.258 Y102.184 E0.00921 ; perimeter
G1 X121.538 Y101.797 E0.01498 ; perimeter
G1 X121.465 Y101.426 F12000.000 ; move inwards before travel
G1 F9600
G1 X121.818 Y101.508 E-0.08368 ; wipe and retract
G1 F9600
G1 X122.049 Y101.326 E-0.06106 ; wipe and retract
G1 F9600
G1 X122.298 Y101.170 E-0.06106 ; wipe and retract
G1 F9600
G1 X122.563 Y101.042 E-0.06106 ; wipe and retract
G1 F9600
G1 X122.839 Y100.942 E-0.06106 ; wipe and retract
G1 F9600
G1 X123.124 Y100.872 E-0.06106 ; wipe and retract
G1 F9600
G1 X123.416 Y100.833 E-0.06106 ; wipe and retract
G1 F9600
G1 X123.704 Y100.826 E-0.05989 ; wipe and retract
G1 F9600
G1 X124.002 Y100.849 E-0.06218 ; wipe and retract
G1 F9600
G1 X124.291 Y100.903 E-0.06110 ; wipe and retract
G1 F9600
G1 X124.572 Y100.988 E-0.06106 ; wipe and retract
G1 F9600
G1 X124.843 Y101.102 E-0.06106 ; wipe and retract
G1 F9600
G1 X124.863 Y101.113 E-0.00468 ; wipe and retract
G1 E-0.04000 F2100.00000 ; retract
G1 Z0.800 F12000.000 ; lift Z
G1 X120.683 Y101.099 F12000.000 ; move to first perimeter point
G1 Z0.200 F12000.000 ; restore layer Z
G1 E0.80000 F2100.00000 ; unretract
G1 F1800
G1 X120.960 Y100.799 E0.01279 ; perimeter
G1 X121.193 Y100.593 E0.00975 ; perimeter
G1 X121.442 Y100.406 E0.00975 ; perimeter
G1 X121.705 Y100.240 E0.00975 ; perimeter
G1 X121.980 Y100.095 E0.00975 ; perimeter
G1 X122.266 Y99.973 E0.00975 ; perimeter
G1 X122.561 Y99.875 E0.00975 ; perimeter
G1 X122.863 Y99.800 E0.00975 ; perimeter
G1 X123.170 Y99.751 E0.00975 ; perimeter
G1 X123.480 Y99.726 E0.00974 ; perimeter
G1 X123.796 Y99.726 E0.00989 ; perimeter
G1 X124.409 Y99.800 E0.01936 ; perimeter
G1 X124.711 Y99.875 E0.00975 ; perimeter
G1 X125.006 Y99.973 E0.00975 ; perimeter
G1 X125.292 Y100.095 E0.00975 ; perimeter
G1 X125.567 Y100.240 E0.00975 ; perimeter
G1 X125.830 Y100.406 E0.00975 ; perimeter
G1 X126.079 Y100.593 E0.00975 ; perimeter
G1 X126.312 Y100.799 E0.00975 ; perimeter
G1 X126.527 Y101.024 E0.00975 ; perimeter
G1 X126.724 Y101.265 E0.00975 ; perimeter
G1 X126.900 Y101.521 E0.00975 ; perimeter
G1 X127.056 Y101.790 E0.00975 ; perimeter
G1 X127.189 Y102.071 E0.00975 ; perimeter
G1 X127.300 Y102.362 E0.00975 ; perimeter
G1 X127.386 Y102.661 E0.00975 ; perimeter
G1 X127.448 Y102.965 E0.00975 ; perimeter
G1 X127.486 Y103.274 E0.00975 ; perimeter
G1 X127.498 Y103.585 E0.00975 ; perimeter
G1 X127.486 Y103.896 E0.00975 ; perimeter
G1 X127.448 Y104.204 E0.00975 ; perimeter
G1 X127.386 Y104.509 E0.00975 ; perimeter
G1 X127.300 Y104.808 E0.00975 ; perimeter
G1 X127.189 Y105.099 E0.00975 ; perimeter
G1 X127.056 Y105.380 E0.00975 ; perimeter
G1 X126.900 Y105.649 E0.00975 ; perimeter
G1 X126.724 Y105.905 E0.00975 ; perimeter
G1 X126.527 Y106.146 E0.00975 ; perimeter
G1 X126.312 Y106.370 E0.00975 ; perimeter
G1 X126.079 Y106.577 E0.00975 ; perimeter
G1 X125.830 Y106.764 E0.00975 ; perimeter
G1 X125.567 Y106.930 E0.00975 ; perimeter
G1 X125.292 Y107.074 E0.00975 ; perimeter
G1 X125.006 Y107.196 E0.00975 ; perimeter
G1 X124.711 Y107.295 E0.00975 ; perimeter
G1 X124.409 Y107.369 E0.00975 ; perimeter
G1 X124.101 Y107.419 E0.00975 ; perimeter
G1 X123.791 Y107.444 E0.00975 ; perimeter
G1 X123.480 Y107.444 E0.00975 ; perimeter
G1 X123.170 Y107.419 E0.00975 ; perimeter
G1 X122.863 Y107.369 E0.00975 ; perimeter
G1 X122.561 Y107.295 E0.00975 ; perimeter
G1 X122.266 Y107.196 E0.00975 ; perimeter
G1 X121.980 Y107.074 E0.00975 ; perimeter
G1 X121.705 Y106.930 E0.00975 ; perimeter
G1 X121.442 Y106.764 E0.00975 ; perimeter
G1 X121.193 Y106.577 E0.00975 ; perimeter
G1 X120.960 Y106.370 E0.00975 ; perimeter
G1 X120.745 Y106.146 E0.00975 ; perimeter
G1 X120.548 Y105.905 E0.00975 ; perimeter
G1 X120.371 Y105.649 E0.00975 ; perimeter
G1 X120.216 Y105.380 E0.00975 ; perimeter
G1 X120.083 Y105.099 E0.00975 ; perimeter
G1 X119.972 Y104.808 E0.00975 ; perimeter
G1 X119.886 Y104.509 E0.00975 ; perimeter
G1 X119.823 Y104.204 E0.00975 ; perimeter
G1 X119.786 Y103.896 E0.00975 ; perimeter
G1 X119.773 Y103.585 E0.00975 ; perimeter
G1 X119.786 Y103.274 E0.00975 ; perimeter
G1 X119.823 Y102.965 E0.00975 ; perimeter
G1 X119.886 Y102.661 E0.00975 ; perimeter
G1 X119.972 Y102.362 E0.00975 ; perimeter
G1 X120.083 Y102.071 E0.00975 ; perimeter
G1 X120.216 Y101.790 E0.00975 ; perimeter
G1 X120.371 Y101.521 E0.00975 ; perimeter
G1 X120.645 Y101.145 E0.01457 ; perimeter
G1 X120.353 Y100.907 F12000.000 ; move to first perimeter point
G1 F1800
G1 X120.699 Y100.527 E0.01610 ; perimeter
G1 X120.954 Y100.301 E0.01071 ; perimeter
G1 X121.227 Y100.096 E0.01071 ; perimeter
G1 X121.516 Y99.913 E0.01071 ; perimeter
G1 X121.818 Y99.754 E0.01071 ; perimeter
G1 X122.132 Y99.621 E0.01071 ; perimeter
G1 X122.456 Y99.512 E0.01071 ; perimeter
G1 X122.788 Y99.431 E0.01071 ; perimeter
G1 X123.125 Y99.376 E0.01071 ; perimeter
G1 X123.465 Y99.348 E0.01070 ; perimeter
G1 X123.811 Y99.349 E0.01085 ; perimeter
G1 X124.147 Y99.376 E0.01057 ; perimeter
G1 X124.484 Y99.431 E0.01071 ; perimeter
G1 X124.816 Y99.512 E0.01071 ; perimeter
G1 X125.139 Y99.621 E0.01071 ; perimeter
G1 X125.454 Y99.754 E0.01071 ; perimeter
G1 X125.756 Y99.913 E0.01071 ; perimeter
G1 X126.044 Y100.096 E0.01071 ; perimeter
G1 X126.317 Y100.301 E0.01071 ; perimeter
G1 X126.573 Y100.527 E0.01071 ; perimeter
G1 X126.809 Y100.773 E0.01071 ; perimeter
G1 X127.025 Y101.038 E0.01071 ; perimeter
G1 X127.219 Y101.319 E0.01071 ; perimeter
G1 X127.390 Y101.615 E0.01071 ; perimeter
G1 X127.536 Y101.923 E0.01071 ; perimeter
G1 X127.658 Y102.242 E0.01071 ; perimeter
G1 X127.753 Y102.570 E0.01071 ; perimeter
G1 X127.821 Y102.905 E0.01071 ; perimeter
G1 X127.862 Y103.244 E0.01071 ; perimeter
G1 X127.876 Y103.585 E0.01071 ; perimeter
G1 X127.862 Y103.926 E0.01071 ; perimeter
G1 X127.821 Y104.265 E0.01071 ; perimeter
G1 X127.753 Y104.600 E0.01071 ; perimeter
G1 X127.658 Y104.927 E0.01071 ; perimeter
G1 X127.536 Y105.247 E0.01071 ; perimeter
G1 X127.390 Y105.555 E0.01071 ; perimeter
G1 X127.219 Y105.851 E0.01071 ; perimeter
G1 X127.025 Y106.132 E0.01071 ; perimeter
G1 X126.809 Y106.396 E0.01071 ; perimeter
G1 X126.573 Y106.643 E0.01071 ; perimeter
G1 X126.317 Y106.869 E0.01071 ; perimeter
G1 X126.044 Y107.074 E0.01071 ; perimeter
G1 X125.756 Y107.257 E0.01071 ; perimeter
G1 X125.454 Y107.415 E0.01071 ; perimeter
G1 X125.139 Y107.549 E0.01071 ; perimeter
G1 X124.816 Y107.657 E0.01071 ; perimeter
G1 X124.484 Y107.739 E0.01071 ; perimeter
G1 X124.147 Y107.794 E0.01071 ; perimeter
G1 X123.807 Y107.821 E0.01071 ; perimeter
G1 X123.465 Y107.821 E0.01071 ; perimeter
G1 X123.125 Y107.794 E0.01071 ; perimeter
G1 X122.788 Y107.739 E0.01071 ; perimeter
G1 X122.456 Y107.657 E0.01071 ; perimeter
G1 X122.132 Y107.549 E0.01071 ; perimeter
G1 X121.818 Y107.415 E0.01071 ; perimeter
G1 X121.516 Y107.257 E0.01071 ; perimeter
G1 X121.227 Y107.074 E0.01071 ; perimeter
G1 X120.954 Y106.869 E0.01071 ; perimeter
G1 X120.699 Y106.643 E0.01071 ; perimeter
G1 X120.462 Y106.396 E0.01071 ; perimeter
