; generated by Slic3r 1.37.2.1-prusa3d on 2018-06-07 at 23:33:03

; 

; external perimeters extrusion width = 0.45mm
; perimeters extrusion width = 0.45mm
; infill extrusion width = 0.45mm
; solid infill extrusion width = 0.45mm
; top infill extrusion width = 0.40mm
; first layer extrusion width = 0.42mm

M107 ; disable fan
M115 U3.1.1-RC5 ; tell printer latest fw version
M83  ; extruder relative mode
M104 S215 ; set extruder temp
M140 S60 ; set bed temp
M190 S60 ; wait for bed temp
M109 S215 ; wait for extruder temp
G28 W ; home all without mesh bed level
G80 ; mesh bed leveling
G1 Y-3.0 F1000.0 ; go outside print area
G92 E0.0
G1 X60.0 E9.0  F1000.0 ; intro line
G1 X100.0 E12.5  F1000.0 ; intro line
G92 E0.0
M221 S95
M900 K30
G21 ; set units to millimeters
G90 ; use absolute coordinates
M83 ; use relative distances for extrusion
;BEFORE_LAYER_CHANGE
;0.2


G1 E-0.80000 F2100.00000 ; retract
G1 Z0.600 F12000.000 ; lift Z
;AFTER_LAYER_CHANGE
;0.2
G1 X79.813 Y168.975 F12000.000 ; move to first skirt point
G1 Z0.200 F12000.000 ; restore layer Z
G1 E0.80000 F2100.00000 ; unretract
M204 S1000 ; adjust acceleration
G1 F1800
G1 X79.184 Y168.679 E0.02178 ; skirt
G1 X78.777 Y168.337 E0.01669 ; skirt
G1 X78.454 Y167.909 E0.01680 ; skirt
G1 X78.236 Y167.424 E0.01668 ; skirt
G1 X78.132 Y166.902 E0.01668 ; skirt
G1 X75.136 Y123.968 E1.34944 ; skirt
G1 X75.197 Y122.362 E0.05038 ; skirt
G1 X75.550 Y120.768 E0.05120 ; skirt
G1 X89.353 Y76.477 E1.45458 ; skirt
G1 X90.036 Y74.785 E0.05720 ; skirt
G1 X90.929 Y73.190 E0.05733 ; skirt
G1 X91.971 Y71.777 E0.05507 ; skirt
G1 X93.157 Y70.522 E0.05411 ; skirt
G1 X93.936 Y69.841 E0.03244 ; skirt
G1 X95.344 Y68.831 E0.05435 ; skirt
G1 X96.909 Y67.977 E0.05590 ; skirt
G1 X98.517 Y67.341 E0.05423 ; skirt
G1 X99.515 Y67.053 E0.03256 ; skirt
G1 X101.230 Y66.732 E0.05471 ; skirt
G1 X102.994 Y66.623 E0.05542 ; skirt
G1 X147.004 Y66.623 E1.37989 ; skirt
G1 X148.796 Y66.736 E0.05632 ; skirt
G1 X150.625 Y67.088 E0.05840 ; skirt
G1 X152.192 Y67.594 E0.05161 ; skirt
G1 X153.022 Y67.946 E0.02826 ; skirt
G1 X154.656 Y68.831 E0.05828 ; skirt
G1 X156.121 Y69.887 E0.05662 ; skirt
G1 X157.478 Y71.157 E0.05828 ; skirt
G1 X158.074 Y71.833 E0.02826 ; skirt
G1 X159.049 Y73.159 E0.05161 ; skirt
G1 X159.944 Y74.745 E0.05709 ; skirt
G1 X160.651 Y76.489 E0.05900 ; skirt
G1 X174.608 Y121.328 E1.47245 ; skirt
G1 X174.842 Y122.729 E0.04452 ; skirt
G1 X174.864 Y123.970 E0.03892 ; skirt
G1 X171.676 Y165.172 E1.29574 ; skirt
G1 X171.433 Y166.325 E0.03692 ; skirt
G1 X171.004 Y167.215 E0.03099 ; skirt
G1 X170.375 Y167.931 E0.02988 ; skirt
G1 X169.628 Y168.422 E0.02803 ; skirt
G1 X168.704 Y168.753 E0.03078 ; skirt
G1 X167.598 Y168.890 E0.03495 ; skirt
G1 X80.496 Y169.076 E2.73101 ; skirt
G1 X79.872 Y168.983 E0.01978 ; skirt
G1 F9600
G1 X79.184 Y168.679 E-0.15632 ; wipe and retract
G1 F9600
G1 X78.777 Y168.337 E-0.11059 ; wipe and retract
G1 F9600
G1 X78.454 Y167.909 E-0.11137 ; wipe and retract
G1 F9600
G1 X78.236 Y167.424 E-0.11059 ; wipe and retract
G1 F9600
G1 X78.132 Y166.902 E-0.11059 ; wipe and retract
G1 F9600
G1 X78.078 Y166.131 E-0.16055 ; wipe and retract
G1 E-0.04000 F2100.00000 ; retract
G1 Z0.800 F12000.000 ; lift Z
G1 X160.572 Y126.006 F12000.000 ; move to first perimeter point
G1 Z0.200 F12000.000 ; restore layer Z
G1 E0.80000 F2100.00000 ; unretract
G1 F1800
G1 X160.338 Y125.537 E0.01642 ; perimeter
G1 X160.153 Y125.047 E0.01642 ; perimeter
G1 X160.020 Y124.541 E0.01642 ; perimeter
G1 X159.939 Y124.023 E0.01642 ; perimeter
G1 X159.912 Y123.500 E0.01642 ; perimeter
G1 X159.939 Y122.977 E0.01642 ; perimeter
G1 X160.020 Y122.459 E0.01642 ; perimeter
G1 X160.153 Y121.953 E0.01642 ; perimeter
G1 X160.338 Y121.463 E0.01642 ; perimeter
G1 X160.572 Y120.994 E0.01642 ; perimeter
G1 X160.853 Y120.552 E0.01642 ; perimeter
G1 X161.178 Y120.141 E0.01642 ; perimeter
G1 X161.544 Y119.766 E0.01642 ; perimeter
G1 X161.946 Y119.431 E0.01642 ; perimeter
G1 X162.381 Y119.138 E0.01642 ; perimeter
G1 X162.843 Y118.892 E0.01642 ; perimeter
G1 X163.328 Y118.695 E0.01642 ; perimeter
G1 X163.831 Y118.548 E0.01642 ; perimeter
G1 X164.347 Y118.454 E0.01642 ; perimeter
G1 X164.844 Y118.416 E0.01565 ; perimeter
G1 X165.391 Y118.427 E0.01715 ; perimeter
G1 X165.912 Y118.495 E0.01647 ; perimeter
G1 X166.422 Y118.615 E0.01642 ; perimeter
G1 X166.917 Y118.787 E0.01642 ; perimeter
G1 X167.391 Y119.009 E0.01642 ; perimeter
G1 X167.840 Y119.279 E0.01642 ; perimeter
G1 X168.259 Y119.593 E0.01642 ; perimeter
G1 X168.644 Y119.949 E0.01642 ; perimeter
G1 X168.989 Y120.342 E0.01642 ; perimeter
G1 X169.293 Y120.769 E0.01642 ; perimeter
G1 X169.551 Y121.225 E0.01642 ; perimeter
G1 X169.761 Y121.705 E0.01642 ; perimeter
G1 X169.920 Y122.204 E0.01642 ; perimeter
G1 X170.027 Y122.717 E0.01642 ; perimeter
G1 X170.081 Y123.238 E0.01642 ; perimeter
G1 X170.081 Y123.762 E0.01642 ; perimeter
G1 X170.027 Y124.283 E0.01642 ; perimeter
G1 X169.920 Y124.796 E0.01642 ; perimeter
G1 X169.761 Y125.295 E0.01642 ; perimeter
G1 X169.551 Y125.775 E0.01642 ; perimeter
G1 X169.293 Y126.231 E0.01642 ; perimeter
G1 X168.989 Y126.658 E0.01642 ; perimeter
G1 X168.660 Y127.033 E0.01565 ; perimeter
G1 X168.260 Y127.406 E0.01715 ; perimeter
G1 X167.840 Y127.721 E0.01647 ; perimeter
G1 X167.391 Y127.991 E0.01642 ; perimeter
G1 X166.917 Y128.213 E0.01642 ; perimeter
G1 X166.422 Y128.385 E0.01642 ; perimeter
G1 X165.912 Y128.505 E0.01642 ; perimeter
G1 X165.393 Y128.573 E0.01642 ; perimeter
G1 X164.869 Y128.586 E0.01642 ; perimeter
G1 X164.347 Y128.546 E0.01642 ; perimeter
G1 X163.831 Y128.452 E0.01642 ; perimeter
G1 X163.352 Y128.312 E0.01565 ; perimeter
G1 X162.844 Y128.109 E0.01715 ; perimeter
G1 X162.381 Y127.862 E0.01647 ; perimeter
G1 X161.946 Y127.569 E0.01642 ; perimeter
G1 X161.544 Y127.234 E0.01642 ; perimeter
G1 X161.178 Y126.859 E0.01642 ; perimeter
G1 X160.853 Y126.448 E0.01642 ; perimeter
G1 X160.604 Y126.057 E0.01454 ; perimeter
G1 X160.922 Y125.854 F12000.000 ; move to first perimeter point
G1 F1800
G1 X160.684 Y125.386 E0.01647 ; perimeter
G1 X160.513 Y124.932 E0.01521 ; perimeter
G1 X160.389 Y124.463 E0.01521 ; perimeter
G1 X160.315 Y123.984 E0.01521 ; perimeter
G1 X160.290 Y123.500 E0.01521 ; perimeter
G1 X160.315 Y123.016 E0.01521 ; perimeter
G1 X160.389 Y122.537 E0.01521 ; perimeter
G1 X160.513 Y122.068 E0.01521 ; perimeter
G1 X160.684 Y121.614 E0.01521 ; perimeter
G1 X160.901 Y121.180 E0.01521 ; perimeter
G1 X161.161 Y120.771 E0.01521 ; perimeter
G1 X161.462 Y120.390 E0.01521 ; perimeter
G1 X161.800 Y120.043 E0.01521 ; perimeter
G1 X162.173 Y119.733 E0.01521 ; perimeter
G1 X162.575 Y119.462 E0.01521 ; perimeter
G1 X163.003 Y119.234 E0.01521 ; perimeter
G1 X163.452 Y119.051 E0.01521 ; perimeter
G1 X163.918 Y118.916 E0.01521 ; perimeter
G1 X164.395 Y118.829 E0.01521 ; perimeter
G1 X164.855 Y118.793 E0.01446 ; perimeter
G1 X165.363 Y118.804 E0.01593 ; perimeter
G1 X165.844 Y118.866 E0.01522 ; perimeter
G1 X166.316 Y118.977 E0.01521 ; perimeter
G1 X166.774 Y119.137 E0.01521 ; perimeter
G1 X167.214 Y119.342 E0.01521 ; perimeter
G1 X167.629 Y119.592 E0.01521 ; perimeter
G1 X168.017 Y119.883 E0.01521 ; perimeter
G1 X168.373 Y120.212 E0.01521 ; perimeter
G1 X168.693 Y120.577 E0.01521 ; perimeter
G1 X168.974 Y120.972 E0.01521 ; perimeter
G1 X169.213 Y121.394 E0.01521 ; perimeter
G1 X169.407 Y121.838 E0.01521 ; perimeter
G1 X169.555 Y122.300 E0.01521 ; perimeter
G1 X169.654 Y122.775 E0.01521 ; perimeter
G1 X169.704 Y123.258 E0.01521 ; perimeter
G1 X169.704 Y123.742 E0.01521 ; perimeter
G1 X169.654 Y124.225 E0.01521 ; perimeter
G1 X169.555 Y124.700 E0.01521 ; perimeter
G1 X169.407 Y125.162 E0.01521 ; perimeter
G1 X169.213 Y125.606 E0.01521 ; perimeter
G1 X168.974 Y126.028 E0.01521 ; perimeter
G1 X168.693 Y126.423 E0.01521 ; perimeter
G1 X168.389 Y126.770 E0.01446 ; perimeter
G1 X168.018 Y127.117 E0.01593 ; perimeter
G1 X167.629 Y127.408 E0.01522 ; perimeter
G1 X167.214 Y127.658 E0.01521 ; perimeter
G1 X166.774 Y127.863 E0.01521 ; perimeter
G1 X166.316 Y128.023 E0.01521 ; perimeter
G1 X165.844 Y128.134 E0.01521 ; perimeter
G1 X165.364 Y128.196 E0.01521 ; perimeter
G1 X164.879 Y128.209 E0.01521 ; perimeter
G1 X164.395 Y128.171 E0.01521 ; perimeter
G1 X163.918 Y128.084 E0.01521 ; perimeter
G1 X163.475 Y127.955 E0.01446 ; perimeter
G1 X163.004 Y127.766 E0.01593 ; perimeter
G1 X162.575 Y127.538 E0.01522 ; perimeter
G1 X162.173 Y127.267 E0.01521 ; perimeter
G1 X161.800 Y126.957 E0.01521 ; perimeter
G1 X161.462 Y126.609 E0.01521 ; perimeter
G1 X161.161 Y126.229 E0.01521 ; perimeter
G1 X160.955 Y125.905 E0.01205 ; perimeter
G1 X160.522 Y125.853 F12000.000 ; move inwards before travel
G1 F9600
G1 X160.684 Y125.386 E-0.12159 ; wipe and retract
G1 F9600
G1 X160.513 Y124.932 E-0.10078 ; wipe and retract
G1 F9600
G1 X160.389 Y124.463 E-0.10078 ; wipe and retract
G1 F9600
G1 X160.315 Y123.984 E-0.10078 ; wipe and retract
G1 F9600
G1 X160.290 Y123.500 E-0.10078 ; wipe and retract
G1 F9600
G1 X160.315 Y123.016 E-0.10078 ; wipe and retract
G1 F9600
G1 X160.389 Y122.537 E-0.10078 ; wipe and retract
G1 F9600
G1 X160.431 Y122.380 E-0.03373 ; wipe and retract
G1 E-0.04000 F2100.00000 ; retract
G1 Z0.800 F12000.000 ; lift Z
G1 X90.081 Y123.762 F12000.000 ; move to first perimeter point
G1 Z0.200 F12000.000 ; restore layer Z
G1 E0.80000 F2100.00000 ; unretract
G1 F1800
G1 X90.027 Y124.283 E0.01642 ; perimeter
G1 X89.920 Y124.796 E0.01642 ; perimeter
G1 X89.761 Y125.295 E0.01642 ; perimeter
G1 X89.551 Y125.775 E0.01642 ; perimeter
G1 X89.293 Y126.231 E0.01642 ; perimeter
G1 X88.989 Y126.658 E0.01642 ; perimeter
G1 X88.644 Y127.051 E0.01642 ; perimeter
G1 X88.259 Y127.407 E0.01642 ; perimeter
G1 X87.840 Y127.721 E0.01642 ; perimeter
G1 X87.391 Y127.991 E0.01642 ; perimeter
G1 X86.917 Y128.213 E0.01642 ; perimeter
G1 X86.422 Y128.385 E0.01642 ; perimeter
G1 X85.912 Y128.505 E0.01642 ; perimeter
G1 X85.393 Y128.573 E0.01642 ; perimeter
G1 X84.869 Y128.586 E0.01642 ; perimeter
G1 X84.347 Y128.546 E0.01642 ; perimeter
G1 X83.831 Y128.452 E0.01642 ; perimeter
G1 X83.328 Y128.305 E0.01642 ; perimeter
G1 X82.843 Y128.108 E0.01642 ; perimeter
G1 X82.381 Y127.862 E0.01642 ; perimeter
G1 X81.946 Y127.569 E0.01642 ; perimeter
G1 X81.544 Y127.234 E0.01642 ; perimeter
G1 X81.178 Y126.859 E0.01642 ; perimeter
G1 X80.853 Y126.448 E0.01642 ; perimeter
G1 X80.572 Y126.006 E0.01642 ; perimeter
G1 X80.338 Y125.537 E0.01642 ; perimeter
G1 X80.153 Y125.047 E0.01642 ; perimeter
G1 X80.026 Y124.565 E0.01565 ; perimeter
G1 X79.939 Y124.025 E0.01715 ; perimeter
G1 X79.912 Y123.500 E0.01647 ; perimeter
G1 X79.939 Y122.977 E0.01642 ; perimeter
G1 X80.020 Y122.459 E0.01642 ; perimeter
G1 X80.153 Y121.953 E0.01642 ; perimeter
G1 X80.338 Y121.463 E0.01642 ; perimeter
G1 X80.572 Y120.994 E0.01642 ; perimeter
G1 X80.853 Y120.552 E0.01642 ; perimeter
G1 X81.178 Y120.141 E0.01642 ; perimeter
G1 X81.544 Y119.766 E0.01642 ; perimeter
G1 X81.946 Y119.431 E0.01642 ; perimeter
G1 X82.381 Y119.138 E0.01642 ; perimeter
G1 X82.843 Y118.892 E0.01642 ; perimeter
G1 X83.328 Y118.695 E0.01642 ; perimeter
G1 X83.831 Y118.548 E0.01642 ; perimeter
G1 X84.347 Y118.454 E0.01642 ; perimeter
G1 X84.844 Y118.416 E0.01565 ; perimeter
G1 X85.391 Y118.427 E0.01715 ; perimeter
G1 X85.912 Y118.495 E0.01647 ; perimeter
G1 X86.422 Y118.615 E0.01642 ; perimeter
G1 X86.917 Y118.787 E0.01642 ; perimeter
G1 X87.391 Y119.009 E0.01642 ; perimeter
G1 X87.840 Y119.279 E0.01642 ; perimeter
G1 X88.259 Y119.593 E0.01642 ; perimeter
G1 X88.644 Y119.949 E0.01642 ; perimeter
G1 X88.989 Y120.342 E0.01642 ; perimeter
G1 X89.293 Y120.769 E0.01642 ; perimeter
G1 X89.551 Y121.225 E0.01642 ; perimeter
G1 X89.761 Y121.705 E0.01642 ; perimeter
G1 X89.920 Y122.204 E0.01642 ; perimeter
G1 X90.027 Y122.717 E0.01642 ; perimeter
G1 X90.081 Y123.238 E0.01642 ; perimeter
G1 X90.081 Y123.702 E0.01454 ; perimeter
G1 X89.704 Y123.702 F12000.000 ; move to first perimeter point
G1 F1800
G1 X89.654 Y124.225 E0.01647 ; perimeter
G1 X89.555 Y124.700 E0.01521 ; perimeter
G1 X89.407 Y125.162 E0.01521 ; perimeter
G1 X89.213 Y125.606 E0.01521 ; perimeter
G1 X88.974 Y126.028 E0.01521 ; perimeter
G1 X88.693 Y126.423 E0.01521 ; perimeter
G1 X88.373 Y126.788 E0.01521 ; perimeter
G1 X88.017 Y127.117 E0.01521 ; perimeter
G1 X87.629 Y127.408 E0.01521 ; perimeter
G1 X87.214 Y127.658 E0.01521 ; perimeter
G1 X86.774 Y127.863 E0.01521 ; perimeter
G1 X86.316 Y128.023 E0.01521 ; perimeter
G1 X85.844 Y128.134 E0.01521 ; perimeter
G1 X85.364 Y128.196 E0.01521 ; perimeter
G1 X84.879 Y128.209 E0.01521 ; perimeter
G1 X84.395 Y128.171 E0.01521 ; perimeter
G1 X83.918 Y128.084 E0.01521 ; perimeter
G1 X83.452 Y127.949 E0.01521 ; perimeter
G1 X83.003 Y127.766 E0.01521 ; perimeter
G1 X82.575 Y127.538 E0.01521 ; perimeter
G1 X82.173 Y127.267 E0.01521 ; perimeter
G1 X81.800 Y126.957 E0.01521 ; perimeter
G1 X81.462 Y126.609 E0.01521 ; perimeter
G1 X81.161 Y126.229 E0.01521 ; perimeter
G1 X80.901 Y125.820 E0.01521 ; perimeter
G1 X80.684 Y125.386 E0.01521 ; perimeter
G1 X80.513 Y124.932 E0.01521 ; perimeter
G1 X80.395 Y124.486 E0.01446 ; perimeter
G1 X80.315 Y123.985 E0.01593 ; perimeter
G1 X80.290 Y123.500 E0.01522 ; perimeter
G1 X80.315 Y123.016 E0.01521 ; perimeter
G1 X80.389 Y122.537 E0.01521 ; perimeter
G1 X80.513 Y122.068 E0.01521 ; perimeter
G1 X80.684 Y121.614 E0.01521 ; perimeter
G1 X80.901 Y121.180 E0.01521 ; perimeter
G1 X81.161 Y120.771 E0.01521 ; perimeter
G1 X81.462 Y120.390 E0.01521 ; perimeter
G1 X81.800 Y120.043 E0.01521 ; perimeter
G1 X82.173 Y119.733 E0.01521 ; perimeter
G1 X82.575 Y119.462 E0.01521 ; perimeter
G1 X83.003 Y119.234 E0.01521 ; perimeter
G1 X83.452 Y119.051 E0.01521 ; perimeter
G1 X83.918 Y118.916 E0.01521 ; perimeter
G1 X84.395 Y118.829 E0.01521 ; perimeter
G1 X84.855 Y118.793 E0.01446 ; perimeter
G1 X85.363 Y118.804 E0.01593 ; perimeter
G1 X85.844 Y118.866 E0.01522 ; perimeter
G1 X86.316 Y118.977 E0.01521 ; perimeter
G1 X86.774 Y119.137 E0.01521 ; perimeter
G1 X87.214 Y119.342 E0.01521 ; perimeter
G1 X87.629 Y119.592 E0.01521 ; perimeter
G1 X88.017 Y119.883 E0.01521 ; perimeter
G1 X88.373 Y120.212 E0.01521 ; perimeter
G1 X88.693 Y120.577 E0.01521 ; perimeter
G1 X88.974 Y120.972 E0.01521 ; perimeter
G1 X89.213 Y121.394 E0.01521 ; perimeter
G1 X89.407 Y121.838 E0.01521 ; perimeter
G1 X89.555 Y122.300 E0.01521 ; perimeter
G1 X89.654 Y122.775 E0.01521 ; perimeter
G1 X89.704 Y123.258 E0.01521 ; perimeter
G1 X89.704 Y123.642 E0.01205 ; perimeter
G1 X90.041 Y123.917 F12000.000 ; move inwards before travel
G1 F9600
G1 X89.654 Y124.225 E-0.12159 ; wipe and retract
G1 F9600
G1 X89.555 Y124.700 E-0.10078 ; wipe and retract
G1 F9600
G1 X89.407 Y125.162 E-0.10078 ; wipe and retract
G1 F9600
G1 X89.213 Y125.606 E-0.10078 ; wipe and retract
G1 F9600
G1 X88.974 Y126.028 E-0.10078 ; wipe and retract
G1 F9600
G1 X88.693 Y126.423 E-0.10078 ; wipe and retract
G1 F9600
G1 X88.373 Y126.788 E-0.10078 ; wipe and retract
G1 F9600
G1 X88.254 Y126.898 E-0.03373 ; wipe and retract
G1 E-0.04000 F2100.00000 ; retract
G1 Z0.800 F12000.000 ; lift Z
G1 X138.413 Y88.685 F12000.000 ; move to first perimeter point
G1 Z0.200 F12000.000 ; restore layer Z
G1 E0.80000 F2100.00000 ; unretract
G1 F1800
G1 X138.413 Y107.297 E0.58357 ; perimeter
G1 X140.921 Y107.604 E0.07921 ; perimeter
G1 X143.798 Y108.023 E0.09116 ; perimeter
G1 X145.745 Y108.354 E0.06193 ; perimeter
G1 X147.648 Y108.716 E0.06075 ; perimeter
G1 X150.311 Y109.294 E0.08543 ; perimeter
G1 X152.050 Y109.721 E0.05614 ; perimeter
G1 X153.775 Y110.187 E0.05603 ; perimeter
G1 X156.159 Y110.908 E0.07809 ; perimeter
G1 X157.731 Y111.440 E0.05203 ; perimeter
G1 X159.198 Y111.984 E0.04906 ; perimeter
G1 X161.244 Y112.830 E0.06942 ; perimeter
G1 X162.568 Y113.442 E0.04572 ; perimeter
G1 X163.787 Y114.062 E0.04289 ; perimeter
G1 X164.361 Y114.375 E0.02051 ; perimeter
G1 X165.436 Y115.005 E0.03906 ; perimeter
G1 X166.480 Y115.680 E0.03898 ; perimeter
G1 X167.435 Y116.371 E0.03694 ; perimeter
G1 X168.265 Y117.041 E0.03345 ; perimeter
G1 X168.649 Y117.382 E0.01610 ; perimeter
G1 X169.369 Y118.083 E0.03150 ; perimeter
