; generated by Slic3r 1.37.2.1-prusa3d on 2018-06-11 at 10:18:15

; 

; external perimeters extrusion width = 0.45mm
; perimeters extrusion width = 0.45mm
; infill extrusion width = 0.45mm
; solid infill extrusion width = 0.45mm
; top infill extrusion width = 0.40mm
; first layer extrusion width = 0.42mm

M107 ; disable fan
M115 U3.1.1-RC5 ; tell printer latest fw version
M83  ; extruder relative mode
M104 S215 ; set extruder temp
M140 S60 ; set bed temp
M190 S60 ; wait for bed temp
M109 S215 ; wait for extruder temp
G28 W ; home all without mesh bed level
G80 ; mesh bed leveling
G1 Y-3.0 F1000.0 ; go outside print area
G92 E0.0
G1 X60.0 E9.0  F1000.0 ; intro line
G1 X100.0 E12.5  F1000.0 ; intro line
G92 E0.0
M221 S95
M900 K30
G21 ; set units to millimeters
G90 ; use absolute coordinates
M83 ; use relative distances for extrusion
;BEFORE_LAYER_CHANGE
;0.2


G1 E-0.80000 F2100.00000 ; retract
G1 Z0.600 F12000.000 ; lift Z
;AFTER_LAYER_CHANGE
;0.2
G1 X111.675 Y59.015 F12000.000 ; move to first skirt point
G1 Z0.200 F12000.000 ; restore layer Z
G1 E0.80000 F2100.00000 ; unretract
M204 S1000 ; adjust acceleration
G1 F1800
G1 X112.161 Y58.438 E0.02367 ; skirt
G1 X112.800 Y58.043 E0.02355 ; skirt
G1 X113.534 Y57.867 E0.02367 ; skirt
G1 X135.818 Y57.861 E0.69869 ; skirt
G1 X136.713 Y58.037 E0.02860 ; skirt
G1 X137.475 Y58.538 E0.02860 ; skirt
G1 X137.995 Y59.292 E0.02872 ; skirt
G1 X138.190 Y60.183 E0.02860 ; skirt
G1 X138.009 Y147.256 E2.73012 ; skirt
G1 X137.882 Y148.389 E0.03574 ; skirt
G1 X137.423 Y149.581 E0.04005 ; skirt
G1 X136.707 Y150.453 E0.03537 ; skirt
G1 X135.702 Y151.072 E0.03701 ; skirt
G1 X134.414 Y151.400 E0.04167 ; skirt
G1 X115.704 Y151.432 E0.58666 ; skirt
G1 X114.621 Y151.318 E0.03412 ; skirt
G1 X113.876 Y151.091 E0.02442 ; skirt
G1 X113.307 Y150.808 E0.01992 ; skirt
G1 X112.786 Y150.422 E0.02034 ; skirt
G1 X112.375 Y149.980 E0.01895 ; skirt
G1 X112.012 Y149.409 E0.02120 ; skirt
G1 X111.766 Y148.816 E0.02012 ; skirt
G1 X111.597 Y148.152 E0.02148 ; skirt
G1 X111.524 Y147.452 E0.02205 ; skirt
G1 X111.337 Y75.240 E2.26418 ; skirt
G1 X111.337 Y60.230 E0.47062 ; skirt
G1 X111.395 Y59.713 E0.01633 ; skirt
G1 X111.653 Y59.071 E0.02167 ; skirt
G1 F9600
G1 X112.161 Y58.438 E-0.16874 ; wipe and retract
G1 F9600
G1 X112.800 Y58.043 E-0.15607 ; wipe and retract
G1 F9600
G1 X113.534 Y57.867 E-0.15685 ; wipe and retract
G1 F9600
G1 X114.873 Y57.867 E-0.27833 ; wipe and retract
G1 E-0.04000 F2100.00000 ; retract
G1 Z0.800 F12000.000 ; lift Z
G1 X120.377 Y78.651 F12000.000 ; move to first perimeter point
G1 Z0.200 F12000.000 ; restore layer Z
G1 E0.80000 F2100.00000 ; unretract
G1 F1800
G1 X129.151 Y78.651 E0.27511 ; perimeter
G1 X129.151 Y142.325 E1.99646 ; perimeter
G1 X120.377 Y142.325 E0.27511 ; perimeter
G1 X120.377 Y78.711 E1.99458 ; perimeter
G1 X120.754 Y79.028 F12000.000 ; move to first perimeter point
G1 F1800
G1 X128.774 Y79.028 E0.25146 ; perimeter
G1 X128.774 Y141.948 E1.97281 ; perimeter
G1 X120.754 Y141.948 E0.25146 ; perimeter
G1 X120.754 Y79.088 E1.97093 ; perimeter
G1 X120.737 Y78.628 F12000.000 ; move inwards before travel
G1 F9600
G1 X124.411 Y79.060 E-0.76000 ; wipe and retract
G1 E-0.04000 F2100.00000 ; retract
G1 Z0.800 F12000.000 ; lift Z
G1 X134.659 Y74.651 F12000.000 ; move to first perimeter point
G1 Z0.200 F12000.000 ; restore layer Z
G1 E0.80000 F2100.00000 ; unretract
G1 F1800
G1 X134.662 Y147.248 E2.27626 ; perimeter
G1 X134.635 Y147.474 E0.00711 ; perimeter
G1 X134.533 Y147.726 E0.00852 ; perimeter
G1 X134.376 Y147.904 E0.00745 ; perimeter
G1 X134.128 Y148.039 E0.00887 ; perimeter
G1 X133.908 Y148.079 E0.00700 ; perimeter
G1 X115.688 Y148.083 E0.57127 ; perimeter
G1 X115.424 Y148.046 E0.00837 ; perimeter
G1 X115.221 Y147.953 E0.00700 ; perimeter
G1 X115.029 Y147.776 E0.00817 ; perimeter
G1 X114.925 Y147.587 E0.00676 ; perimeter
G1 X114.868 Y147.309 E0.00891 ; perimeter
G1 X114.869 Y74.651 E2.27816 ; perimeter
G1 X114.301 Y74.651 E0.01780 ; perimeter
G1 X114.301 Y72.825 E0.05725 ; perimeter
G1 X115.269 Y72.825 E0.03037 ; perimeter
G1 X115.186 Y72.961 E0.00502 ; perimeter
G1 X115.081 Y73.218 E0.00868 ; perimeter
G1 X115.021 Y73.469 E0.00812 ; perimeter
G1 X115.000 Y73.740 E0.00849 ; perimeter
G1 X115.023 Y74.015 E0.00868 ; perimeter
G1 X115.084 Y74.267 E0.00812 ; perimeter
G1 X115.187 Y74.516 E0.00843 ; perimeter
G1 X115.327 Y74.745 E0.00843 ; perimeter
G1 X115.502 Y74.950 E0.00843 ; perimeter
G1 X115.706 Y75.124 E0.00843 ; perimeter
G1 X115.936 Y75.265 E0.00843 ; perimeter
G1 X116.184 Y75.368 E0.00843 ; perimeter
G1 X116.446 Y75.430 E0.00843 ; perimeter
G1 X116.714 Y75.451 E0.00843 ; perimeter
G1 X116.982 Y75.430 E0.00843 ; perimeter
G1 X117.243 Y75.368 E0.00843 ; perimeter
G1 X117.492 Y75.265 E0.00843 ; perimeter
G1 X117.721 Y75.124 E0.00843 ; perimeter
G1 X117.926 Y74.950 E0.00843 ; perimeter
G1 X118.102 Y74.743 E0.00849 ; perimeter
G1 X118.245 Y74.507 E0.00868 ; perimeter
G1 X118.344 Y74.267 E0.00813 ; perimeter
G1 X118.407 Y74.006 E0.00843 ; perimeter
G1 X118.428 Y73.736 E0.00849 ; perimeter
G1 X118.404 Y73.460 E0.00868 ; perimeter
G1 X118.344 Y73.208 E0.00812 ; perimeter
G1 X118.241 Y72.960 E0.00843 ; perimeter
G1 X118.158 Y72.825 E0.00496 ; perimeter
G1 X131.369 Y72.825 E0.41422 ; perimeter
G1 X131.287 Y72.960 E0.00496 ; perimeter
G1 X131.184 Y73.208 E0.00843 ; perimeter
G1 X131.121 Y73.469 E0.00843 ; perimeter
G1 X131.100 Y73.738 E0.00843 ; perimeter
G1 X131.121 Y74.006 E0.00843 ; perimeter
G1 X131.184 Y74.267 E0.00843 ; perimeter
G1 X131.287 Y74.516 E0.00843 ; perimeter
G1 X131.427 Y74.745 E0.00843 ; perimeter
G1 X131.602 Y74.949 E0.00843 ; perimeter
G1 X131.806 Y75.124 E0.00843 ; perimeter
G1 X132.036 Y75.265 E0.00843 ; perimeter
G1 X132.284 Y75.368 E0.00843 ; perimeter
G1 X132.546 Y75.430 E0.00843 ; perimeter
G1 X132.814 Y75.451 E0.00843 ; perimeter
G1 X133.082 Y75.430 E0.00843 ; perimeter
G1 X133.345 Y75.367 E0.00849 ; perimeter
G1 X133.600 Y75.260 E0.00868 ; perimeter
G1 X133.821 Y75.124 E0.00812 ; perimeter
G1 X134.026 Y74.950 E0.00843 ; perimeter
G1 X134.200 Y74.745 E0.00843 ; perimeter
G1 X134.341 Y74.516 E0.00843 ; perimeter
G1 X134.444 Y74.267 E0.00843 ; perimeter
G1 X134.507 Y74.006 E0.00843 ; perimeter
G1 X134.528 Y73.738 E0.00843 ; perimeter
G1 X134.506 Y73.468 E0.00849 ; perimeter
G1 X134.440 Y73.199 E0.00868 ; perimeter
G1 X134.341 Y72.960 E0.00813 ; perimeter
G1 X134.258 Y72.825 E0.00496 ; perimeter
G1 X135.227 Y72.825 E0.03037 ; perimeter
G1 X135.227 Y74.651 E0.05725 ; perimeter
G1 X134.719 Y74.651 E0.01592 ; perimeter
G1 X135.036 Y75.028 F12000.000 ; move to first perimeter point
G1 F1800
G1 X135.039 Y147.271 E2.26514 ; perimeter
G1 X135.005 Y147.554 E0.00895 ; perimeter
G1 X134.940 Y147.756 E0.00664 ; perimeter
G1 X134.857 Y147.921 E0.00579 ; perimeter
G1 X134.764 Y148.053 E0.00509 ; perimeter
G1 X134.611 Y148.201 E0.00666 ; perimeter
G1 X134.430 Y148.317 E0.00675 ; perimeter
G1 X134.265 Y148.391 E0.00566 ; perimeter
G1 X133.937 Y148.456 E0.01050 ; perimeter
G1 X115.662 Y148.460 E0.57298 ; perimeter
G1 X115.338 Y148.415 E0.01026 ; perimeter
G1 X115.020 Y148.275 E0.01091 ; perimeter
G1 X114.857 Y148.150 E0.00642 ; perimeter
G1 X114.724 Y148.001 E0.00628 ; perimeter
G1 X114.566 Y147.707 E0.01045 ; perimeter
G1 X114.501 Y147.449 E0.00835 ; perimeter
G1 X114.491 Y147.325 E0.00388 ; perimeter
G1 X114.491 Y75.028 E2.26685 ; perimeter
G1 X113.924 Y75.028 E0.01780 ; perimeter
G1 X113.924 Y72.448 E0.08089 ; perimeter
G1 X116.383 Y72.448 E0.07711 ; perimeter
G1 X116.107 Y72.548 E0.00920 ; perimeter
G1 X115.929 Y72.657 E0.00657 ; perimeter
G1 X115.769 Y72.793 E0.00657 ; perimeter
G1 X115.633 Y72.953 E0.00657 ; perimeter
G1 X115.523 Y73.132 E0.00659 ; perimeter
G1 X115.441 Y73.333 E0.00681 ; perimeter
G1 X115.395 Y73.529 E0.00630 ; perimeter
G1 X115.378 Y73.738 E0.00659 ; perimeter
G1 X115.397 Y73.955 E0.00681 ; perimeter
G1 X115.443 Y74.150 E0.00630 ; perimeter
G1 X115.524 Y74.344 E0.00657 ; perimeter
G1 X115.633 Y74.523 E0.00657 ; perimeter
G1 X115.769 Y74.682 E0.00657 ; perimeter
G1 X115.929 Y74.818 E0.00657 ; perimeter
G1 X116.107 Y74.928 E0.00657 ; perimeter
G1 X116.301 Y75.008 E0.00657 ; perimeter
G1 X116.505 Y75.057 E0.00657 ; perimeter
G1 X116.714 Y75.073 E0.00657 ; perimeter
G1 X116.923 Y75.057 E0.00657 ; perimeter
G1 X117.126 Y75.008 E0.00657 ; perimeter
G1 X117.320 Y74.928 E0.00657 ; perimeter
G1 X117.499 Y74.818 E0.00657 ; perimeter
G1 X117.658 Y74.682 E0.00657 ; perimeter
G1 X117.795 Y74.522 E0.00659 ; perimeter
G1 X117.907 Y74.336 E0.00681 ; perimeter
G1 X117.984 Y74.150 E0.00630 ; perimeter
G1 X118.033 Y73.947 E0.00657 ; perimeter
G1 X118.049 Y73.737 E0.00659 ; perimeter
G1 X118.031 Y73.520 E0.00681 ; perimeter
G1 X117.984 Y73.325 E0.00630 ; perimeter
G1 X117.904 Y73.131 E0.00657 ; perimeter
G1 X117.794 Y72.953 E0.00657 ; perimeter
G1 X117.658 Y72.793 E0.00657 ; perimeter
G1 X117.499 Y72.657 E0.00657 ; perimeter
G1 X117.320 Y72.548 E0.00657 ; perimeter
G1 X117.044 Y72.448 E0.00920 ; perimeter
G1 X132.483 Y72.448 E0.48407 ; perimeter
G1 X132.207 Y72.548 E0.00920 ; perimeter
G1 X132.029 Y72.657 E0.00657 ; perimeter
G1 X131.869 Y72.793 E0.00657 ; perimeter
G1 X131.733 Y72.953 E0.00657 ; perimeter
G1 X131.624 Y73.131 E0.00657 ; perimeter
G1 X131.543 Y73.325 E0.00657 ; perimeter
G1 X131.495 Y73.529 E0.00657 ; perimeter
G1 X131.478 Y73.738 E0.00657 ; perimeter
G1 X131.495 Y73.947 E0.00657 ; perimeter
G1 X131.543 Y74.150 E0.00657 ; perimeter
G1 X131.624 Y74.344 E0.00657 ; perimeter
G1 X131.733 Y74.523 E0.00657 ; perimeter
G1 X131.869 Y74.682 E0.00657 ; perimeter
G1 X132.029 Y74.818 E0.00657 ; perimeter
G1 X132.207 Y74.928 E0.00657 ; perimeter
G1 X132.401 Y75.008 E0.00657 ; perimeter
G1 X132.605 Y75.057 E0.00657 ; perimeter
G1 X132.814 Y75.073 E0.00657 ; perimeter
G1 X133.023 Y75.057 E0.00657 ; perimeter
G1 X133.227 Y75.008 E0.00659 ; perimeter
G1 X133.427 Y74.923 E0.00681 ; perimeter
G1 X133.599 Y74.818 E0.00630 ; perimeter
G1 X133.758 Y74.682 E0.00657 ; perimeter
G1 X133.894 Y74.523 E0.00657 ; perimeter
G1 X134.004 Y74.344 E0.00657 ; perimeter
G1 X134.084 Y74.150 E0.00657 ; perimeter
G1 X134.133 Y73.947 E0.00657 ; perimeter
G1 X134.149 Y73.738 E0.00657 ; perimeter
G1 X134.133 Y73.528 E0.00659 ; perimeter
G1 X134.081 Y73.317 E0.00681 ; perimeter
G1 X134.004 Y73.131 E0.00630 ; perimeter
G1 X133.894 Y72.953 E0.00657 ; perimeter
G1 X133.758 Y72.793 E0.00657 ; perimeter
G1 X133.599 Y72.657 E0.00657 ; perimeter
G1 X133.420 Y72.548 E0.00657 ; perimeter
G1 X133.144 Y72.448 E0.00920 ; perimeter
G1 X135.604 Y72.448 E0.07711 ; perimeter
G1 X135.604 Y75.028 E0.08089 ; perimeter
G1 X135.096 Y75.028 E0.01592 ; perimeter
G1 X134.676 Y75.202 F12000.000 ; move inwards before travel
G1 X135.114 Y74.365 F12000.000 ; move to first infill point
G1 F1800
G1 X134.788 Y74.039 E0.01588 ; infill
G1 X134.811 Y73.738 E0.01042 ; infill
G1 X134.789 Y73.454 E0.00978 ; infill
G1 X135.114 Y73.779 E0.01581 ; infill
G1 F9600
G1 X134.789 Y73.454 E-0.09538 ; wipe and retract
G1 F9600
G1 X134.811 Y73.738 E-0.05901 ; wipe and retract
G1 F9600
G1 X134.788 Y74.039 E-0.06283 ; wipe and retract
G1 F9600
G1 X135.114 Y74.365 E-0.09580 ; wipe and retract
G1 E-0.48698 F2100.00000 ; retract
G1 Z0.800 F12000.000 ; lift Z
G1 X134.452 Y74.730 F12000.000 ; move to first infill point
G1 Z0.200 F12000.000 ; restore layer Z
G1 E0.80000 F2100.00000 ; unretract
G1 F1800
G1 X134.432 Y74.800 E0.00020 ; infill
G1 X134.363 Y74.882 E0.00030 ; infill
G1 X134.546 Y75.631 F12000.000 ; move to first infill point
G1 F1800
G1 X134.139 Y75.224 E0.01804 ; infill
G1 X133.988 Y75.354 E0.00625 ; infill
G1 X133.831 Y75.450 E0.00577 ; infill
G1 X134.376 Y75.995 E0.02418 ; infill
G1 X134.376 Y76.528 E0.01675 ; infill
G1 X133.469 Y75.622 E0.04024 ; infill
G1 X133.126 Y75.711 E0.01113 ; infill
G1 X133.032 Y75.718 E0.00296 ; infill
G1 X134.376 Y77.062 E0.05965 ; infill
G1 X134.376 Y77.596 E0.01675 ; infill
G1 X132.488 Y75.707 E0.08381 ; infill
G1 F9600
G1 X134.376 Y77.596 E-0.55501 ; wipe and retract
G1 F9600
G1 X134.376 Y77.062 E-0.11091 ; wipe and retract
G1 F9600
G1 X134.056 Y76.742 E-0.09408 ; wipe and retract
G1 E-0.04000 F2100.00000 ; retract
G1 Z0.800 F12000.000 ; lift Z
G1 X130.844 Y74.064 F12000.000 ; move to first infill point
G1 Z0.200 F12000.000 ; restore layer Z
G1 E0.80000 F2100.00000 ; unretract
G1 F1800
G1 X129.888 Y73.107 E0.04243 ; infill
G1 X130.422 Y73.107 E0.01675 ; infill
G1 X130.991 Y73.677 E0.02528 ; infill
G1 F9600
G1 X130.422 Y73.107 E-0.16740 ; wipe and retract
G1 F9600
G1 X129.888 Y73.107 E-0.11091 ; wipe and retract
G1 F9600
G1 X130.844 Y74.064 E-0.28101 ; wipe and retract
G1 E-0.24069 F2100.00000 ; retract
G1 Z0.800 F12000.000 ; lift Z
G1 X134.546 Y78.299 F12000.000 ; move to first infill point
G1 Z0.200 F12000.000 ; restore layer Z
G1 E0.80000 F2100.00000 ; unretract
G1 F1800
G1 X129.354 Y73.107 E0.23039 ; infill
G1 X128.820 Y73.107 E0.01675 ; infill
G1 X134.376 Y78.663 E0.24655 ; infill
G1 X134.376 Y79.197 E0.01675 ; infill
G1 X128.287 Y73.107 E0.27023 ; infill
G1 X127.753 Y73.107 E0.01675 ; infill
G1 X134.376 Y79.731 E0.29392 ; infill
G1 X134.376 Y80.264 E0.01675 ; infill
G1 X127.219 Y73.107 E0.31760 ; infill
G1 X126.686 Y73.107 E0.01675 ; infill
G1 X134.376 Y80.798 E0.34128 ; infill
G1 X134.376 Y81.332 E0.01675 ; infill
G1 X126.152 Y73.107 E0.36497 ; infill
G1 X125.618 Y73.107 E0.01675 ; infill
G1 X134.376 Y81.866 E0.38865 ; infill
G1 X134.376 Y82.399 E0.01675 ; infill
G1 X125.085 Y73.107 E0.41234 ; infill
G1 X124.551 Y73.107 E0.01675 ; infill
G1 X134.376 Y82.933 E0.43602 ; infill
G1 X134.376 Y83.467 E0.01675 ; infill
G1 X124.017 Y73.107 E0.45971 ; infill
G1 X123.484 Y73.107 E0.01675 ; infill
G1 X128.744 Y78.368 E0.23343 ; infill
G1 X128.210 Y78.368 E0.01675 ; infill
G1 X122.950 Y73.107 E0.23343 ; infill
G1 X122.416 Y73.107 E0.01675 ; infill
G1 X127.676 Y78.368 E0.23343 ; infill
G1 X127.143 Y78.368 E0.01675 ; infill
G1 X121.882 Y73.107 E0.23343 ; infill
G1 X121.349 Y73.107 E0.01675 ; infill
G1 X126.609 Y78.368 E0.23343 ; infill
G1 X126.075 Y78.368 E0.01675 ; infill
G1 X120.815 Y73.107 E0.23343 ; infill
G1 X120.281 Y73.107 E0.01675 ; infill
G1 X125.542 Y78.368 E0.23343 ; infill
G1 X125.008 Y78.368 E0.01675 ; infill
G1 X119.748 Y73.107 E0.23343 ; infill
G1 X119.214 Y73.107 E0.01675 ; infill
G1 X124.474 Y78.368 E0.23343 ; infill
G1 X123.941 Y78.368 E0.01675 ; infill
G1 X118.680 Y73.107 E0.23343 ; infill
G1 X118.608 Y73.107 E0.00226 ; infill
G1 X118.684 Y73.415 E0.00993 ; infill
G1 X118.706 Y73.667 E0.00793 ; infill
G1 X123.407 Y78.368 E0.20862 ; infill
G1 X122.873 Y78.368 E0.01675 ; infill
G1 X118.661 Y74.156 E0.18691 ; infill
G1 X118.614 Y74.355 E0.00642 ; infill
G1 X118.529 Y74.558 E0.00689 ; infill
G1 X122.339 Y78.368 E0.16908 ; infill
G1 X121.806 Y78.368 E0.01675 ; infill
G1 X118.338 Y74.900 E0.15390 ; infill
G1 X118.088 Y75.183 E0.01186 ; infill
G1 X121.272 Y78.368 E0.14132 ; infill
G1 X120.738 Y78.368 E0.01675 ; infill
G1 X117.786 Y75.416 E0.13100 ; infill
G1 X117.621 Y75.517 E0.00610 ; infill
G1 X117.432 Y75.595 E0.00639 ; infill
G1 X120.205 Y78.368 E0.12303 ; infill
G1 X120.094 Y78.368 E0.00348 ; infill
G1 X120.094 Y78.791 E0.01327 ; infill
G1 X117.015 Y75.711 E0.13664 ; infill
G1 X116.714 Y75.735 E0.00948 ; infill
G1 X116.487 Y75.717 E0.00714 ; infill
G1 X120.094 Y79.324 E0.16007 ; infill
G1 X120.094 Y79.858 E0.01675 ; infill
G1 X115.669 Y75.433 E0.19638 ; infill
G1 X115.540 Y75.354 E0.00475 ; infill
G1 X115.295 Y75.143 E0.01014 ; infill
G1 X115.151 Y75.265 E0.00592 ; infill
G1 X115.151 Y75.449 E0.00577 ; infill
G1 X120.094 Y80.392 E0.21933 ; infill
G1 X120.094 Y80.925 E0.01675 ; infill
G1 X115.151 Y75.983 E0.21933 ; infill
G1 X115.151 Y76.516 E0.01675 ; infill
G1 X120.094 Y81.459 E0.21933 ; infill
G1 X120.094 Y81.993 E0.01675 ; infill
G1 X115.151 Y77.050 E0.21933 ; infill
G1 X115.151 Y77.584 E0.01675 ; infill
G1 X120.094 Y82.526 E0.21934 ; infill
G1 X120.094 Y83.060 E0.01675 ; infill
G1 X115.151 Y78.118 E0.21934 ; infill
G1 X115.151 Y78.651 E0.01675 ; infill
G1 X120.094 Y83.594 E0.21934 ; infill
G1 X120.094 Y84.127 E0.01675 ; infill
G1 X115.151 Y79.185 E0.21934 ; infill
