; generated by Slic3r 1.37.2.1-prusa3d on 2018-08-28 at 00:49:38

; 

; external perimeters extrusion width = 0.45mm
; perimeters extrusion width = 0.45mm
; infill extrusion width = 0.45mm
; solid infill extrusion width = 0.45mm
; top infill extrusion width = 0.40mm
; first layer extrusion width = 0.42mm

M107 ; disable fan
M115 U3.1.1-RC5 ; tell printer latest fw version
M83  ; extruder relative mode
M104 S215 ; set extruder temp
M140 S60 ; set bed temp
M190 S60 ; wait for bed temp
M109 S215 ; wait for extruder temp
G28 W ; home all without mesh bed level
G80 ; mesh bed leveling
G1 Y-3.0 F1000.0 ; go outside print area
G92 E0.0
G1 X60.0 E9.0  F1000.0 ; intro line
G1 X100.0 E12.5  F1000.0 ; intro line
G92 E0.0
M221 S95
M900 K30
G21 ; set units to millimeters
G90 ; use absolute coordinates
M83 ; use relative distances for extrusion
;BEFORE_LAYER_CHANGE
;0.2


G1 E-0.80000 F2100.00000 ; retract
G1 Z0.600 F12000.000 ; lift Z
;AFTER_LAYER_CHANGE
;0.2
G1 X91.575 Y76.246 F12000.000 ; move to first skirt point
G1 Z0.200 F12000.000 ; restore layer Z
G1 E0.80000 F2100.00000 ; unretract
M204 S1000 ; adjust acceleration
G1 F1800
G1 X94.339 Y73.247 E0.12788 ; skirt
G1 X97.382 Y70.512 E0.12829 ; skirt
G1 X99.117 Y69.163 E0.06891 ; skirt
G1 X100.994 Y67.854 E0.07174 ; skirt
G1 X104.504 Y65.768 E0.12803 ; skirt
G1 X106.481 Y64.777 E0.06933 ; skirt
G1 X108.574 Y63.860 E0.07166 ; skirt
G1 X112.395 Y62.507 E0.12710 ; skirt
G1 X114.569 Y61.909 E0.07068 ; skirt
G1 X116.800 Y61.419 E0.07163 ; skirt
G1 X120.799 Y60.839 E0.12671 ; skirt
G1 X123.043 Y60.677 E0.07053 ; skirt
G1 X125.317 Y60.631 E0.07131 ; skirt
G1 X129.410 Y60.847 E0.12851 ; skirt
G1 X131.621 Y61.124 E0.06987 ; skirt
G1 X133.868 Y61.525 E0.07158 ; skirt
G1 X136.097 Y62.044 E0.07175 ; skirt
G1 X138.219 Y62.655 E0.06924 ; skirt
G1 X142.053 Y64.064 E0.12806 ; skirt
G1 X145.681 Y65.793 E0.12601 ; skirt
G1 X147.654 Y66.915 E0.07119 ; skirt
G1 X149.574 Y68.143 E0.07144 ; skirt
G1 X152.846 Y70.588 E0.12808 ; skirt
G1 X154.534 Y72.050 E0.07002 ; skirt
G1 X156.180 Y73.631 E0.07155 ; skirt
G1 X157.742 Y75.298 E0.07165 ; skirt
G1 X159.209 Y77.036 E0.07128 ; skirt
G1 X161.577 Y80.293 E0.12626 ; skirt
G1 X163.630 Y83.741 E0.12583 ; skirt
G1 X164.647 Y85.768 E0.07112 ; skirt
G1 X165.564 Y87.862 E0.07167 ; skirt
G1 X166.931 Y91.728 E0.12856 ; skirt
G1 X167.514 Y93.850 E0.06901 ; skirt
G1 X168.005 Y96.083 E0.07168 ; skirt
G1 X168.587 Y100.108 E0.12751 ; skirt
G1 X168.748 Y102.346 E0.07034 ; skirt
G1 X168.794 Y104.628 E0.07159 ; skirt
G1 X168.720 Y106.914 E0.07171 ; skirt
G1 X168.536 Y109.104 E0.06891 ; skirt
G1 X167.901 Y113.150 E0.12839 ; skirt
G1 X166.891 Y117.117 E0.12836 ; skirt
G1 X166.198 Y119.202 E0.06887 ; skirt
G1 X165.366 Y121.330 E0.07166 ; skirt
G1 X163.614 Y125.002 E0.12756 ; skirt
G1 X162.504 Y126.952 E0.07036 ; skirt
G1 X161.271 Y128.880 E0.07175 ; skirt
G1 X159.939 Y130.739 E0.07171 ; skirt
G1 X158.563 Y132.465 E0.06921 ; skirt
G1 X155.795 Y135.467 E0.12803 ; skirt
G1 X152.756 Y138.200 E0.12814 ; skirt
G1 X151.016 Y139.552 E0.06909 ; skirt
G1 X149.143 Y140.859 E0.07163 ; skirt
G1 X145.635 Y142.944 E0.12795 ; skirt
G1 X143.656 Y143.936 E0.06938 ; skirt
G1 X141.563 Y144.853 E0.07167 ; skirt
G1 X137.744 Y146.206 E0.12703 ; skirt
G1 X135.568 Y146.804 E0.07074 ; skirt
G1 X133.334 Y147.295 E0.07173 ; skirt
G1 X129.276 Y147.880 E0.12855 ; skirt
G1 X127.092 Y148.037 E0.06865 ; skirt
G1 X124.811 Y148.083 E0.07155 ; skirt
G1 X120.729 Y147.868 E0.12816 ; skirt
G1 X118.517 Y147.590 E0.06991 ; skirt
G1 X116.266 Y147.189 E0.07168 ; skirt
G1 X114.040 Y146.670 E0.07166 ; skirt
G1 X111.920 Y146.060 E0.06919 ; skirt
G1 X108.084 Y144.651 E0.12811 ; skirt
G1 X104.456 Y142.921 E0.12604 ; skirt
G1 X102.484 Y141.800 E0.07110 ; skirt
G1 X100.564 Y140.573 E0.07144 ; skirt
G1 X97.292 Y138.128 E0.12808 ; skirt
G1 X95.602 Y136.665 E0.07010 ; skirt
G1 X93.957 Y135.083 E0.07155 ; skirt
G1 X92.391 Y133.413 E0.07179 ; skirt
G1 X90.927 Y131.678 E0.07117 ; skirt
G1 X88.559 Y128.423 E0.12620 ; skirt
G1 X86.466 Y124.897 E0.12856 ; skirt
G1 X85.489 Y122.945 E0.06845 ; skirt
G1 X84.573 Y120.855 E0.07155 ; skirt
G1 X83.206 Y116.989 E0.12856 ; skirt
G1 X82.623 Y114.865 E0.06905 ; skirt
G1 X82.131 Y112.632 E0.07171 ; skirt
G1 X81.548 Y108.609 E0.12744 ; skirt
G1 X81.387 Y106.370 E0.07040 ; skirt
G1 X81.342 Y104.087 E0.07158 ; skirt
G1 X81.416 Y101.801 E0.07173 ; skirt
G1 X81.600 Y99.610 E0.06893 ; skirt
G1 X82.234 Y95.563 E0.12845 ; skirt
G1 X83.246 Y91.591 E0.12851 ; skirt
G1 X83.939 Y89.511 E0.06875 ; skirt
G1 X84.770 Y87.382 E0.07164 ; skirt
G1 X85.712 Y85.301 E0.07163 ; skirt
G1 X86.740 Y83.309 E0.07030 ; skirt
G1 X88.866 Y79.833 E0.12774 ; skirt
G1 X90.195 Y77.976 E0.07160 ; skirt
G1 X91.537 Y76.293 E0.06751 ; skirt
G1 F9600
G1 X94.014 Y73.601 E-0.76000 ; wipe and retract
G1 E-0.04000 F2100.00000 ; retract
G1 Z0.800 F12000.000 ; lift Z
G1 X94.639 Y78.839 F12000.000 ; move to first perimeter point
G1 Z0.200 F12000.000 ; restore layer Z
G1 E0.80000 F2100.00000 ; unretract
G1 F1800
G1 X95.412 Y77.943 E0.03709 ; perimeter
G1 X96.134 Y77.153 E0.03357 ; perimeter
G1 X96.880 Y76.382 E0.03363 ; perimeter
G1 X98.045 Y75.254 E0.05085 ; perimeter
G1 X98.826 Y74.548 E0.03301 ; perimeter
G1 X99.639 Y73.852 E0.03357 ; perimeter
G1 X100.471 Y73.177 E0.03357 ; perimeter
G1 X101.321 Y72.525 E0.03362 ; perimeter
G1 X102.639 Y71.583 E0.05077 ; perimeter
G1 X103.531 Y70.990 E0.03360 ; perimeter
G1 X104.438 Y70.422 E0.03353 ; perimeter
G1 X105.359 Y69.879 E0.03353 ; perimeter
G1 X106.279 Y69.369 E0.03299 ; perimeter
G1 X107.721 Y68.632 E0.05077 ; perimeter
G1 X108.692 Y68.177 E0.03362 ; perimeter
G1 X109.673 Y67.748 E0.03357 ; perimeter
G1 X110.665 Y67.347 E0.03357 ; perimeter
G1 X111.668 Y66.972 E0.03357 ; perimeter
G1 X112.681 Y66.624 E0.03357 ; perimeter
G1 X113.686 Y66.309 E0.03301 ; perimeter
G1 X115.248 Y65.876 E0.05085 ; perimeter
G1 X116.291 Y65.625 E0.03363 ; perimeter
G1 X117.340 Y65.402 E0.03362 ; perimeter
G1 X118.934 Y65.120 E0.05077 ; perimeter
G1 X119.976 Y64.971 E0.03299 ; perimeter
G1 X121.038 Y64.848 E0.03353 ; perimeter
G1 X122.104 Y64.754 E0.03353 ; perimeter
G1 X123.173 Y64.688 E0.03360 ; perimeter
G1 X124.792 Y64.644 E0.05077 ; perimeter
G1 X125.864 Y64.651 E0.03361 ; perimeter
G1 X126.916 Y64.686 E0.03301 ; perimeter
G1 X128.534 Y64.795 E0.05085 ; perimeter
G1 X129.602 Y64.903 E0.03363 ; perimeter
G1 X130.664 Y65.039 E0.03357 ; perimeter
G1 X131.721 Y65.205 E0.03357 ; perimeter
G1 X132.757 Y65.395 E0.03301 ; perimeter
G1 X134.341 Y65.741 E0.05085 ; perimeter
G1 X135.380 Y66.005 E0.03360 ; perimeter
G1 X136.409 Y66.297 E0.03353 ; perimeter
G1 X137.429 Y66.616 E0.03353 ; perimeter
G1 X138.425 Y66.957 E0.03299 ; perimeter
G1 X139.938 Y67.532 E0.05077 ; perimeter
G1 X140.926 Y67.947 E0.03360 ; perimeter
G1 X141.903 Y68.388 E0.03360 ; perimeter
G1 X143.356 Y69.105 E0.05081 ; perimeter
G1 X144.284 Y69.602 E0.03301 ; perimeter
G1 X145.214 Y70.133 E0.03357 ; perimeter
G1 X146.129 Y70.688 E0.03357 ; perimeter
G1 X147.031 Y71.269 E0.03363 ; perimeter
G1 X148.364 Y72.194 E0.05085 ; perimeter
G1 X149.208 Y72.822 E0.03301 ; perimeter
G1 X150.051 Y73.486 E0.03363 ; perimeter
G1 X151.289 Y74.530 E0.05079 ; perimeter
G1 X152.084 Y75.249 E0.03360 ; perimeter
G1 X152.858 Y75.987 E0.03353 ; perimeter
G1 X153.612 Y76.745 E0.03353 ; perimeter
G1 X154.345 Y77.524 E0.03353 ; perimeter
G1 X155.057 Y78.322 E0.03353 ; perimeter
G1 X155.736 Y79.126 E0.03300 ; perimeter
G1 X156.752 Y80.413 E0.05141 ; perimeter
G1 X157.375 Y81.262 E0.03302 ; perimeter
G1 X157.987 Y82.142 E0.03363 ; perimeter
G1 X158.867 Y83.505 E0.05085 ; perimeter
G1 X159.408 Y84.408 E0.03301 ; perimeter
G1 X159.933 Y85.341 E0.03357 ; perimeter
G1 X160.433 Y86.288 E0.03357 ; perimeter
G1 X160.908 Y87.250 E0.03363 ; perimeter
G1 X161.576 Y88.726 E0.05079 ; perimeter
G1 X161.977 Y89.698 E0.03299 ; perimeter
G1 X162.358 Y90.697 E0.03353 ; perimeter
G1 X162.713 Y91.706 E0.03353 ; perimeter
G1 X163.040 Y92.727 E0.03360 ; perimeter
G1 X163.483 Y94.284 E0.05077 ; perimeter
G1 X163.741 Y95.324 E0.03360 ; perimeter
G1 X163.970 Y96.370 E0.03355 ; perimeter
G1 X164.171 Y97.421 E0.03357 ; perimeter
G1 X164.341 Y98.460 E0.03301 ; perimeter
G1 X164.549 Y100.069 E0.05085 ; perimeter
G1 X164.651 Y101.136 E0.03363 ; perimeter
G1 X164.723 Y102.205 E0.03357 ; perimeter
G1 X164.767 Y103.274 E0.03357 ; perimeter
G1 X164.781 Y104.327 E0.03301 ; perimeter
G1 X164.750 Y105.947 E0.05081 ; perimeter
G1 X164.692 Y107.017 E0.03360 ; perimeter
G1 X164.606 Y108.083 E0.03353 ; perimeter
G1 X164.492 Y109.147 E0.03353 ; perimeter
G1 X164.348 Y110.208 E0.03360 ; perimeter
G1 X164.077 Y111.805 E0.05077 ; perimeter
G1 X163.866 Y112.836 E0.03299 ; perimeter
G1 X163.623 Y113.877 E0.03353 ; perimeter
G1 X163.353 Y114.913 E0.03357 ; perimeter
G1 X163.054 Y115.943 E0.03363 ; perimeter
G1 X162.549 Y117.485 E0.05085 ; perimeter
G1 X162.181 Y118.492 E0.03363 ; perimeter
G1 X161.786 Y119.487 E0.03357 ; perimeter
G1 X161.365 Y120.472 E0.03357 ; perimeter
G1 X160.925 Y121.428 E0.03301 ; perimeter
G1 X160.199 Y122.877 E0.05081 ; perimeter
G1 X159.686 Y123.818 E0.03360 ; perimeter
G1 X159.150 Y124.743 E0.03353 ; perimeter
G1 X158.589 Y125.653 E0.03353 ; perimeter
G1 X158.012 Y126.534 E0.03300 ; perimeter
G1 X157.070 Y127.874 E0.05137 ; perimeter
G1 X156.435 Y128.714 E0.03300 ; perimeter
G1 X155.767 Y129.551 E0.03360 ; perimeter
G1 X154.713 Y130.783 E0.05085 ; perimeter
G1 X154.002 Y131.560 E0.03301 ; perimeter
G1 X153.256 Y132.331 E0.03363 ; perimeter
G1 X152.091 Y133.459 E0.05085 ; perimeter
G1 X151.310 Y134.165 E0.03301 ; perimeter
G1 X150.497 Y134.862 E0.03357 ; perimeter
G1 X149.665 Y135.536 E0.03357 ; perimeter
G1 X148.815 Y136.189 E0.03362 ; perimeter
G1 X147.497 Y137.130 E0.05077 ; perimeter
G1 X146.605 Y137.723 E0.03360 ; perimeter
G1 X145.699 Y138.291 E0.03353 ; perimeter
G1 X144.778 Y138.834 E0.03353 ; perimeter
G1 X143.857 Y139.345 E0.03299 ; perimeter
G1 X142.415 Y140.081 E0.05077 ; perimeter
G1 X141.445 Y140.537 E0.03362 ; perimeter
G1 X140.463 Y140.965 E0.03357 ; perimeter
G1 X139.471 Y141.367 E0.03357 ; perimeter
G1 X138.468 Y141.742 E0.03357 ; perimeter
G1 X137.455 Y142.089 E0.03357 ; perimeter
G1 X136.451 Y142.404 E0.03302 ; perimeter
G1 X134.869 Y142.842 E0.05146 ; perimeter
G1 X133.845 Y143.088 E0.03302 ; perimeter
G1 X132.796 Y143.311 E0.03361 ; perimeter
G1 X131.202 Y143.594 E0.05077 ; perimeter
G1 X130.160 Y143.743 E0.03299 ; perimeter
G1 X129.098 Y143.866 E0.03353 ; perimeter
G1 X128.033 Y143.960 E0.03353 ; perimeter
G1 X126.963 Y144.025 E0.03360 ; perimeter
G1 X125.344 Y144.070 E0.05077 ; perimeter
G1 X124.272 Y144.063 E0.03361 ; perimeter
G1 X123.220 Y144.028 E0.03301 ; perimeter
G1 X121.602 Y143.919 E0.05085 ; perimeter
G1 X120.535 Y143.811 E0.03363 ; perimeter
G1 X119.473 Y143.674 E0.03357 ; perimeter
G1 X118.415 Y143.509 E0.03357 ; perimeter
G1 X117.379 Y143.319 E0.03301 ; perimeter
G1 X115.795 Y142.973 E0.05085 ; perimeter
G1 X114.757 Y142.709 E0.03360 ; perimeter
G1 X113.728 Y142.417 E0.03353 ; perimeter
G1 X112.707 Y142.098 E0.03353 ; perimeter
G1 X111.693 Y141.751 E0.03359 ; perimeter
G1 X110.198 Y141.182 E0.05017 ; perimeter
G1 X109.210 Y140.767 E0.03359 ; perimeter
G1 X108.233 Y140.326 E0.03360 ; perimeter
G1 X106.780 Y139.609 E0.05081 ; perimeter
G1 X105.852 Y139.112 E0.03301 ; perimeter
G1 X104.922 Y138.581 E0.03357 ; perimeter
G1 X104.007 Y138.026 E0.03357 ; perimeter
G1 X103.105 Y137.445 E0.03363 ; perimeter
G1 X101.773 Y136.521 E0.05085 ; perimeter
G1 X100.928 Y135.892 E0.03301 ; perimeter
G1 X100.085 Y135.228 E0.03363 ; perimeter
G1 X98.847 Y134.184 E0.05080 ; perimeter
G1 X98.052 Y133.465 E0.03360 ; perimeter
G1 X97.278 Y132.727 E0.03354 ; perimeter
G1 X96.524 Y131.969 E0.03354 ; perimeter
G1 X95.790 Y131.190 E0.03354 ; perimeter
G1 X95.079 Y130.392 E0.03353 ; perimeter
G1 X94.399 Y129.588 E0.03300 ; perimeter
G1 X93.384 Y128.301 E0.05138 ; perimeter
G1 X92.761 Y127.453 E0.03302 ; perimeter
G1 X92.149 Y126.572 E0.03363 ; perimeter
G1 X91.269 Y125.209 E0.05085 ; perimeter
G1 X90.728 Y124.306 E0.03301 ; perimeter
G1 X90.203 Y123.373 E0.03357 ; perimeter
G1 X89.703 Y122.426 E0.03357 ; perimeter
G1 X89.228 Y121.465 E0.03363 ; perimeter
G1 X88.560 Y119.989 E0.05079 ; perimeter
G1 X88.159 Y119.016 E0.03299 ; perimeter
G1 X87.777 Y118.017 E0.03353 ; perimeter
G1 X87.423 Y117.008 E0.03353 ; perimeter
G1 X87.095 Y115.988 E0.03360 ; perimeter
G1 X86.653 Y114.430 E0.05077 ; perimeter
G1 X86.395 Y113.390 E0.03360 ; perimeter
G1 X86.166 Y112.345 E0.03355 ; perimeter
G1 X85.965 Y111.293 E0.03357 ; perimeter
G1 X85.794 Y110.254 E0.03301 ; perimeter
G1 X85.586 Y108.646 E0.05085 ; perimeter
G1 X85.485 Y107.578 E0.03363 ; perimeter
G1 X85.413 Y106.510 E0.03357 ; perimeter
G1 X85.369 Y105.440 E0.03357 ; perimeter
G1 X85.354 Y104.387 E0.03301 ; perimeter
G1 X85.386 Y102.767 E0.05081 ; perimeter
G1 X85.443 Y101.697 E0.03360 ; perimeter
G1 X85.529 Y100.631 E0.03354 ; perimeter
G1 X85.644 Y99.567 E0.03354 ; perimeter
G1 X85.788 Y98.505 E0.03360 ; perimeter
G1 X86.059 Y96.908 E0.05078 ; perimeter
G1 X86.270 Y95.877 E0.03300 ; perimeter
G1 X86.512 Y94.836 E0.03354 ; perimeter
G1 X86.783 Y93.800 E0.03357 ; perimeter
G1 X87.082 Y92.770 E0.03363 ; perimeter
G1 X87.587 Y91.228 E0.05085 ; perimeter
G1 X87.948 Y90.239 E0.03301 ; perimeter
G1 X88.343 Y89.242 E0.03363 ; perimeter
G1 X88.991 Y87.755 E0.05085 ; perimeter
G1 X89.452 Y86.787 E0.03363 ; perimeter
G1 X89.938 Y85.834 E0.03353 ; perimeter
G1 X90.450 Y84.895 E0.03353 ; perimeter
G1 X90.977 Y83.985 E0.03299 ; perimeter
G1 X91.836 Y82.612 E0.05077 ; perimeter
G1 X92.435 Y81.723 E0.03360 ; perimeter
G1 X93.057 Y80.851 E0.03360 ; perimeter
G1 X94.042 Y79.566 E0.05077 ; perimeter
G1 X94.601 Y78.885 E0.02761 ; perimeter
G1 X94.893 Y79.125 F12000.000 ; move to first perimeter point
G1 F1800
G1 X95.693 Y78.194 E0.03849 ; perimeter
G1 X96.409 Y77.412 E0.03325 ; perimeter
G1 X97.146 Y76.648 E0.03327 ; perimeter
G1 X98.303 Y75.530 E0.05045 ; perimeter
G1 X99.075 Y74.831 E0.03266 ; perimeter
G1 X99.881 Y74.141 E0.03325 ; perimeter
G1 X100.704 Y73.473 E0.03325 ; perimeter
G1 X101.546 Y72.828 E0.03326 ; perimeter
G1 X102.853 Y71.894 E0.05037 ; perimeter
G1 X103.736 Y71.307 E0.03324 ; perimeter
G1 X104.633 Y70.744 E0.03321 ; perimeter
G1 X105.546 Y70.206 E0.03321 ; perimeter
G1 X106.456 Y69.702 E0.03264 ; perimeter
G1 X107.887 Y68.971 E0.05037 ; perimeter
G1 X108.847 Y68.520 E0.03326 ; perimeter
G1 X109.819 Y68.096 E0.03325 ; perimeter
G1 X110.802 Y67.698 E0.03325 ; perimeter
G1 X111.796 Y67.327 E0.03325 ; perimeter
G1 X112.799 Y66.983 E0.03325 ; perimeter
G1 X113.792 Y66.671 E0.03266 ; perimeter
G1 X115.343 Y66.241 E0.05045 ; perimeter
G1 X116.375 Y65.993 E0.03327 ; perimeter
G1 X117.412 Y65.772 E0.03326 ; perimeter
G1 X118.994 Y65.492 E0.05037 ; perimeter
G1 X120.024 Y65.345 E0.03264 ; perimeter
G1 X121.077 Y65.223 E0.03321 ; perimeter
G1 X122.132 Y65.130 E0.03321 ; perimeter
G1 X123.190 Y65.065 E0.03324 ; perimeter
G1 X124.796 Y65.021 E0.05037 ; perimeter
G1 X125.857 Y65.028 E0.03325 ; perimeter
G1 X126.897 Y65.063 E0.03266 ; perimeter
G1 X128.503 Y65.171 E0.05045 ; perimeter
G1 X129.559 Y65.277 E0.03327 ; perimeter
G1 X130.610 Y65.413 E0.03325 ; perimeter
G1 X131.658 Y65.576 E0.03325 ; perimeter
G1 X132.683 Y65.764 E0.03266 ; perimeter
G1 X134.254 Y66.108 E0.05045 ; perimeter
G1 X135.282 Y66.369 E0.03324 ; perimeter
G1 X136.301 Y66.658 E0.03321 ; perimeter
G1 X137.312 Y66.974 E0.03321 ; perimeter
G1 X138.297 Y67.312 E0.03264 ; perimeter
G1 X139.798 Y67.883 E0.05037 ; perimeter
G1 X140.776 Y68.293 E0.03324 ; perimeter
G1 X141.742 Y68.729 E0.03324 ; perimeter
G1 X143.184 Y69.440 E0.05041 ; perimeter
G1 X144.102 Y69.932 E0.03266 ; perimeter
G1 X145.023 Y70.458 E0.03325 ; perimeter
G1 X145.929 Y71.008 E0.03325 ; perimeter
G1 X146.821 Y71.583 E0.03327 ; perimeter
G1 X148.144 Y72.500 E0.05045 ; perimeter
G1 X148.979 Y73.122 E0.03266 ; perimeter
G1 X149.813 Y73.778 E0.03327 ; perimeter
G1 X151.041 Y74.815 E0.05039 ; perimeter
G1 X151.828 Y75.525 E0.03324 ; perimeter
G1 X152.594 Y76.256 E0.03321 ; perimeter
