; generated by Slic3r 1.37.2.1-prusa3d on 2019-02-10 at 17:33:39

; 

; external perimeters extrusion width = 0.45mm
; perimeters extrusion width = 0.45mm
; infill extrusion width = 0.45mm
; solid infill extrusion width = 0.45mm
; top infill extrusion width = 0.40mm
; first layer extrusion width = 0.42mm

M107 ; disable fan
M115 U3.4.0 ; tell printer latest fw version
M83  ; extruder relative mode
M104 S230 ; set extruder temp
M140 S85 ; set bed temp
M190 S85 ; wait for bed temp
M109 S230 ; wait for extruder temp
G28 W ; home all without mesh bed level
G80 ; mesh bed leveling
G1 Y-3.0 F1000.0 ; go outside print area
G92 E0.0
G1 X60.0 E9.0  F1000.0 ; intro line
G1 X100.0 E12.5  F1000.0 ; intro line
G92 E0.0
M221 S95
M900 K45
G21 ; set units to millimeters
G90 ; use absolute coordinates
M83 ; use relative distances for extrusion
;BEFORE_LAYER_CHANGE
G92 E0.0
;0.2


G1 E-0.80000 F2100.00000 ; retract
G1 Z0.600 F10800.000 ; lift Z
;AFTER_LAYER_CHANGE
;0.2
G1 X14.242 Y29.064 F10800.000 ; move to first skirt point
G1 Z0.200 F10800.000 ; restore layer Z
G1 E0.80000 F2100.00000 ; unretract
M204 S1000 ; adjust acceleration
G1 F1200
G1 X14.817 Y27.369 E0.05611 ; skirt
G1 X15.546 Y25.997 E0.04873 ; skirt
G1 X16.094 Y25.208 E0.03013 ; skirt
G1 X17.170 Y24.015 E0.05034 ; skirt
G1 X17.901 Y23.379 E0.03039 ; skirt
G1 X18.678 Y22.825 E0.02991 ; skirt
G1 X20.096 Y22.053 E0.05064 ; skirt
G1 X20.982 Y21.708 E0.02980 ; skirt
G1 X22.520 Y21.312 E0.04980 ; skirt
G1 X67.057 Y17.402 E1.40179 ; skirt
G1 X69.026 Y17.556 E0.06192 ; skirt
G1 X121.447 Y26.800 E1.66898 ; skirt
G1 X223.648 Y48.017 E3.27276 ; skirt
G1 X225.120 Y48.404 E0.04773 ; skirt
G1 X226.009 Y48.754 E0.02994 ; skirt
G1 X227.404 Y49.516 E0.04984 ; skirt
G1 X228.216 Y50.100 E0.03137 ; skirt
G1 X229.357 Y51.159 E0.04882 ; skirt
G1 X229.966 Y51.875 E0.02946 ; skirt
G1 X230.507 Y52.648 E0.02958 ; skirt
G1 X231.224 Y53.981 E0.04746 ; skirt
G1 X231.835 Y55.767 E0.05919 ; skirt
G1 X232.086 Y57.274 E0.04790 ; skirt
G1 X232.130 Y58.185 E0.02862 ; skirt
G1 X231.885 Y146.023 E2.75408 ; skirt
G1 X231.757 Y147.666 E0.05170 ; skirt
G1 X231.347 Y149.336 E0.05392 ; skirt
G1 X230.668 Y150.914 E0.05385 ; skirt
G1 X229.690 Y152.417 E0.05622 ; skirt
G1 X229.133 Y153.073 E0.02696 ; skirt
G1 X228.038 Y154.098 E0.04704 ; skirt
G1 X226.576 Y155.090 E0.05540 ; skirt
G1 X224.937 Y155.830 E0.05638 ; skirt
G1 X223.220 Y156.270 E0.05557 ; skirt
G1 X179.500 Y160.145 E1.37617 ; skirt
G1 X177.473 Y160.123 E0.06357 ; skirt
G1 X124.420 Y150.813 E1.68887 ; skirt
G1 X19.587 Y130.536 E3.34788 ; skirt
G1 X18.075 Y130.143 E0.04899 ; skirt
G1 X17.180 Y129.792 E0.03014 ; skirt
G1 X15.779 Y129.028 E0.05002 ; skirt
G1 X14.960 Y128.438 E0.03163 ; skirt
G1 X13.827 Y127.386 E0.04850 ; skirt
G1 X13.218 Y126.671 E0.02946 ; skirt
G1 X12.676 Y125.898 E0.02958 ; skirt
G1 X11.957 Y124.560 E0.04764 ; skirt
G1 X11.346 Y122.776 E0.05912 ; skirt
G1 X11.095 Y121.267 E0.04796 ; skirt
G1 X11.051 Y120.331 E0.02940 ; skirt
G1 X11.051 Y116.965 E0.10553 ; skirt
G1 X13.969 Y30.843 E2.70186 ; skirt
G1 X14.233 Y29.123 E0.05454 ; skirt
G1 F8640
G1 X14.817 Y27.369 E-0.42686 ; wipe and retract
G1 F8640
G1 X15.494 Y26.095 E-0.33314 ; wipe and retract
G1 E-0.04000 F2100.00000 ; retract
G1 Z0.800 F10800.000 ; lift Z
G1 X99.014 Y117.592 F10800.000 ; move to first perimeter point
G1 Z0.200 F10800.000 ; restore layer Z
G1 E0.80000 F2100.00000 ; unretract
G1 F1200
G1 X98.991 Y61.918 E1.74562 ; perimeter
G1 X48.991 Y61.939 E1.56771 ; perimeter
G1 X48.990 Y59.868 E0.06491 ; perimeter
G1 X49.016 Y59.246 E0.01953 ; perimeter
G1 X49.091 Y58.640 E0.01915 ; perimeter
G1 X49.216 Y58.042 E0.01915 ; perimeter
G1 X49.389 Y57.457 E0.01915 ; perimeter
G1 X49.610 Y56.887 E0.01915 ; perimeter
G1 X49.877 Y56.338 E0.01915 ; perimeter
G1 X50.189 Y55.813 E0.01915 ; perimeter
G1 X50.543 Y55.315 E0.01915 ; perimeter
G1 X50.936 Y54.848 E0.01915 ; perimeter
G1 X51.367 Y54.415 E0.01915 ; perimeter
G1 X51.832 Y54.019 E0.01915 ; perimeter
G1 X52.328 Y53.662 E0.01915 ; perimeter
G1 X52.851 Y53.348 E0.01915 ; perimeter
G1 X53.399 Y53.077 E0.01915 ; perimeter
G1 X53.967 Y52.853 E0.01915 ; perimeter
G1 X54.551 Y52.676 E0.01915 ; perimeter
G1 X55.149 Y52.548 E0.01915 ; perimeter
G1 X55.766 Y52.468 E0.01953 ; perimeter
G1 X103.639 Y48.260 E1.50680 ; perimeter
G1 X104.261 Y48.231 E0.01953 ; perimeter
G1 X104.865 Y48.253 E0.01895 ; perimeter
G1 X105.478 Y48.325 E0.01936 ; perimeter
G1 X106.076 Y48.447 E0.01914 ; perimeter
G1 X106.663 Y48.618 E0.01915 ; perimeter
G1 X107.233 Y48.836 E0.01915 ; perimeter
G1 X107.784 Y49.100 E0.01915 ; perimeter
G1 X108.310 Y49.409 E0.01915 ; perimeter
G1 X108.810 Y49.761 E0.01915 ; perimeter
G1 X109.279 Y50.152 E0.01915 ; perimeter
G1 X109.714 Y50.581 E0.01915 ; perimeter
G1 X110.113 Y51.043 E0.01915 ; perimeter
G1 X110.471 Y51.538 E0.01915 ; perimeter
G1 X110.789 Y52.060 E0.01915 ; perimeter
G1 X111.062 Y52.606 E0.01915 ; perimeter
G1 X111.289 Y53.173 E0.01915 ; perimeter
G1 X111.468 Y53.757 E0.01915 ; perimeter
G1 X111.602 Y54.365 E0.01953 ; perimeter
G1 X123.991 Y124.460 E2.23184 ; perimeter
G1 X124.074 Y125.081 E0.01964 ; perimeter
G1 X124.105 Y125.694 E0.01926 ; perimeter
G1 X124.086 Y126.309 E0.01926 ; perimeter
G1 X124.015 Y126.919 E0.01926 ; perimeter
G1 X123.894 Y127.521 E0.01926 ; perimeter
G1 X123.725 Y128.105 E0.01906 ; perimeter
G1 X123.505 Y128.686 E0.01947 ; perimeter
G1 X123.239 Y129.239 E0.01925 ; perimeter
G1 X122.929 Y129.770 E0.01926 ; perimeter
G1 X122.579 Y130.267 E0.01906 ; perimeter
G1 X122.182 Y130.744 E0.01947 ; perimeter
G1 X121.751 Y131.181 E0.01925 ; perimeter
G1 X121.285 Y131.581 E0.01926 ; perimeter
G1 X120.787 Y131.942 E0.01926 ; perimeter
G1 X120.261 Y132.259 E0.01926 ; perimeter
G1 X119.711 Y132.533 E0.01926 ; perimeter
G1 X119.140 Y132.759 E0.01926 ; perimeter
G1 X118.552 Y132.938 E0.01926 ; perimeter
G1 X117.952 Y133.067 E0.01926 ; perimeter
G1 X117.330 Y133.148 E0.01964 ; perimeter
G1 X74.442 Y136.918 E1.34991 ; perimeter
G1 X73.948 Y136.945 E0.01551 ; perimeter
G1 X73.463 Y136.940 E0.01521 ; perimeter
G1 X72.980 Y136.903 E0.01521 ; perimeter
G1 X72.490 Y136.833 E0.01551 ; perimeter
G1 X20.156 Y127.627 E1.66610 ; perimeter
G1 X19.549 Y127.495 E0.01946 ; perimeter
G1 X18.967 Y127.316 E0.01908 ; perimeter
G1 X18.402 Y127.091 E0.01908 ; perimeter
G1 X17.857 Y126.820 E0.01908 ; perimeter
G1 X17.336 Y126.505 E0.01908 ; perimeter
G1 X16.843 Y126.148 E0.01908 ; perimeter
G1 X16.380 Y125.753 E0.01908 ; perimeter
G1 X15.952 Y125.320 E0.01908 ; perimeter
G1 X15.561 Y124.854 E0.01908 ; perimeter
G1 X15.209 Y124.357 E0.01908 ; perimeter
G1 X14.899 Y123.834 E0.01908 ; perimeter
G1 X14.633 Y123.286 E0.01908 ; perimeter
G1 X14.415 Y122.725 E0.01888 ; perimeter
G1 X14.240 Y122.135 E0.01929 ; perimeter
G1 X14.116 Y121.539 E0.01908 ; perimeter
G1 X14.041 Y120.935 E0.01908 ; perimeter
G1 X14.015 Y120.315 E0.01946 ; perimeter
G1 X14.014 Y117.627 E0.08428 ; perimeter
G1 X98.954 Y117.592 E2.66323 ; perimeter
G1 X98.637 Y117.216 F10800.000 ; move to first perimeter point
G1 F1200
G1 X98.614 Y62.296 E1.72198 ; perimeter
G1 X48.614 Y62.316 E1.56771 ; perimeter
G1 X48.613 Y59.861 E0.07698 ; perimeter
G1 X48.640 Y59.215 E0.02026 ; perimeter
G1 X48.719 Y58.578 E0.02012 ; perimeter
G1 X48.850 Y57.950 E0.02012 ; perimeter
G1 X49.032 Y57.335 E0.02012 ; perimeter
G1 X49.264 Y56.736 E0.02012 ; perimeter
G1 X49.545 Y56.159 E0.02012 ; perimeter
G1 X49.873 Y55.607 E0.02012 ; perimeter
G1 X50.244 Y55.084 E0.02012 ; perimeter
G1 X50.658 Y54.593 E0.02012 ; perimeter
G1 X51.110 Y54.138 E0.02012 ; perimeter
G1 X51.599 Y53.722 E0.02012 ; perimeter
G1 X52.120 Y53.347 E0.02012 ; perimeter
G1 X52.670 Y53.016 E0.02012 ; perimeter
G1 X53.246 Y52.732 E0.02012 ; perimeter
G1 X53.843 Y52.496 E0.02012 ; perimeter
G1 X54.457 Y52.311 E0.02012 ; perimeter
G1 X55.085 Y52.176 E0.02012 ; perimeter
G1 X55.725 Y52.093 E0.02026 ; perimeter
G1 X103.614 Y47.884 E1.50729 ; perimeter
G1 X104.259 Y47.854 E0.02026 ; perimeter
G1 X104.894 Y47.876 E0.01992 ; perimeter
G1 X105.538 Y47.952 E0.02033 ; perimeter
G1 X106.167 Y48.080 E0.02012 ; perimeter
G1 X106.783 Y48.260 E0.02012 ; perimeter
G1 X107.382 Y48.489 E0.02012 ; perimeter
G1 X107.961 Y48.767 E0.02012 ; perimeter
G1 X108.515 Y49.092 E0.02012 ; perimeter
G1 X109.040 Y49.461 E0.02012 ; perimeter
G1 X109.532 Y49.872 E0.02012 ; perimeter
G1 X109.990 Y50.323 E0.02012 ; perimeter
G1 X110.408 Y50.809 E0.02012 ; perimeter
G1 X110.786 Y51.329 E0.02012 ; perimeter
G1 X111.119 Y51.877 E0.02012 ; perimeter
G1 X111.406 Y52.451 E0.02012 ; perimeter
G1 X111.644 Y53.047 E0.02012 ; perimeter
G1 X111.833 Y53.661 E0.02012 ; perimeter
G1 X111.972 Y54.292 E0.02026 ; perimeter
G1 X124.364 Y124.402 E2.23233 ; perimeter
G1 X124.450 Y125.046 E0.02038 ; perimeter
G1 X124.483 Y125.691 E0.02024 ; perimeter
G1 X124.462 Y126.336 E0.02024 ; perimeter
G1 X124.388 Y126.978 E0.02024 ; perimeter
G1 X124.261 Y127.611 E0.02024 ; perimeter
G1 X124.083 Y128.225 E0.02004 ; perimeter
G1 X123.852 Y128.834 E0.02045 ; perimeter
G1 X123.573 Y129.416 E0.02024 ; perimeter
G1 X123.247 Y129.974 E0.02024 ; perimeter
G1 X122.879 Y130.496 E0.02004 ; perimeter
G1 X122.462 Y130.998 E0.02045 ; perimeter
G1 X122.008 Y131.457 E0.02024 ; perimeter
G1 X121.518 Y131.878 E0.02024 ; perimeter
G1 X120.995 Y132.256 E0.02024 ; perimeter
G1 X120.443 Y132.590 E0.02024 ; perimeter
G1 X119.865 Y132.877 E0.02024 ; perimeter
G1 X119.264 Y133.115 E0.02024 ; perimeter
G1 X118.647 Y133.303 E0.02024 ; perimeter
G1 X118.016 Y133.439 E0.02024 ; perimeter
G1 X117.371 Y133.523 E0.02038 ; perimeter
G1 X74.469 Y137.294 E1.35034 ; perimeter
G1 X73.957 Y137.322 E0.01609 ; perimeter
G1 X73.447 Y137.317 E0.01598 ; perimeter
G1 X72.939 Y137.278 E0.01598 ; perimeter
G1 X72.431 Y137.206 E0.01609 ; perimeter
G1 X20.083 Y127.997 E1.66654 ; perimeter
G1 X19.453 Y127.860 E0.02019 ; perimeter
G1 X18.842 Y127.672 E0.02005 ; perimeter
G1 X18.248 Y127.435 E0.02005 ; perimeter
G1 X17.675 Y127.150 E0.02005 ; perimeter
G1 X17.128 Y126.820 E0.02005 ; perimeter
G1 X16.609 Y126.445 E0.02006 ; perimeter
G1 X16.123 Y126.029 E0.02005 ; perimeter
G1 X15.673 Y125.574 E0.02006 ; perimeter
G1 X15.262 Y125.085 E0.02005 ; perimeter
G1 X14.892 Y124.563 E0.02006 ; perimeter
G1 X14.566 Y124.012 E0.02005 ; perimeter
G1 X14.287 Y123.437 E0.02005 ; perimeter
G1 X14.058 Y122.847 E0.01985 ; perimeter
G1 X13.874 Y122.227 E0.02026 ; perimeter
G1 X13.743 Y121.601 E0.02005 ; perimeter
G1 X13.665 Y120.966 E0.02006 ; perimeter
G1 X13.638 Y120.323 E0.02019 ; perimeter
G1 X13.637 Y117.250 E0.09635 ; perimeter
G1 X98.577 Y117.216 E2.66323 ; perimeter
G1 X99.037 Y117.211 F10800.000 ; move inwards before travel
G1 F8640
G1 X98.579 Y113.924 E-0.76000 ; wipe and retract
G1 E-0.04000 F2100.00000 ; retract
G1 Z0.800 F10800.000 ; lift Z
G1 X98.641 Y61.805 F10800.000 ; move to first infill point
G1 Z0.200 F10800.000 ; restore layer Z
G1 E0.80000 F2100.00000 ; unretract
G1 F1200
G1 X86.854 Y50.019 E0.52343 ; infill
G1 X86.363 Y50.062 E0.01548 ; infill
G1 X97.937 Y61.636 E0.51399 ; infill
G1 X97.403 Y61.636 E0.01677 ; infill
G1 X85.873 Y50.105 E0.51208 ; infill
G1 X85.382 Y50.149 E0.01548 ; infill
G1 X96.869 Y61.636 E0.51017 ; infill
G1 X96.336 Y61.637 E0.01677 ; infill
G1 X84.891 Y50.192 E0.50827 ; infill
G1 X84.400 Y50.235 E0.01548 ; infill
G1 X95.802 Y61.637 E0.50636 ; infill
G1 X95.268 Y61.637 E0.01677 ; infill
G1 X83.909 Y50.278 E0.50445 ; infill
G1 X83.418 Y50.321 E0.01548 ; infill
G1 X94.734 Y61.637 E0.50255 ; infill
G1 X94.200 Y61.637 E0.01677 ; infill
G1 X82.927 Y50.364 E0.50064 ; infill
G1 X82.436 Y50.407 E0.01548 ; infill
G1 X93.666 Y61.638 E0.49873 ; infill
G1 X93.132 Y61.638 E0.01677 ; infill
G1 X81.945 Y50.451 E0.49682 ; infill
G1 X81.454 Y50.494 E0.01548 ; infill
G1 X92.598 Y61.638 E0.49492 ; infill
G1 X92.065 Y61.638 E0.01677 ; infill
G1 X80.963 Y50.537 E0.49301 ; infill
G1 X80.472 Y50.580 E0.01548 ; infill
G1 X91.531 Y61.639 E0.49110 ; infill
G1 X90.997 Y61.639 E0.01677 ; infill
G1 X79.981 Y50.623 E0.48920 ; infill
G1 X79.490 Y50.666 E0.01548 ; infill
G1 X90.463 Y61.639 E0.48729 ; infill
G1 X89.929 Y61.639 E0.01677 ; infill
G1 X78.999 Y50.710 E0.48538 ; infill
G1 X78.508 Y50.753 E0.01548 ; infill
G1 X89.395 Y61.639 E0.48348 ; infill
G1 X88.861 Y61.640 E0.01677 ; infill
G1 X78.018 Y50.796 E0.48157 ; infill
G1 X77.527 Y50.839 E0.01548 ; infill
G1 X88.327 Y61.640 E0.47966 ; infill
G1 X87.794 Y61.640 E0.01677 ; infill
G1 X77.036 Y50.882 E0.47776 ; infill
G1 X76.545 Y50.925 E0.01548 ; infill
G1 X87.260 Y61.640 E0.47585 ; infill
G1 X86.726 Y61.640 E0.01677 ; infill
G1 X76.054 Y50.968 E0.47394 ; infill
G1 X75.563 Y51.012 E0.01548 ; infill
G1 X86.192 Y61.641 E0.47204 ; infill
G1 X85.658 Y61.641 E0.01677 ; infill
G1 X75.072 Y51.055 E0.47013 ; infill
G1 X74.581 Y51.098 E0.01548 ; infill
G1 X85.124 Y61.641 E0.46822 ; infill
G1 X84.590 Y61.641 E0.01677 ; infill
G1 X74.090 Y51.141 E0.46632 ; infill
G1 X73.599 Y51.184 E0.01548 ; infill
G1 X84.056 Y61.642 E0.46441 ; infill
G1 X83.523 Y61.642 E0.01677 ; infill
G1 X73.108 Y51.227 E0.46250 ; infill
G1 X72.617 Y51.271 E0.01548 ; infill
G1 X82.989 Y61.642 E0.46060 ; infill
G1 X82.455 Y61.642 E0.01677 ; infill
G1 X72.126 Y51.314 E0.45869 ; infill
G1 X71.635 Y51.357 E0.01548 ; infill
G1 X81.921 Y61.642 E0.45678 ; infill
G1 X81.387 Y61.643 E0.01677 ; infill
G1 X71.144 Y51.400 E0.45488 ; infill
G1 X70.653 Y51.443 E0.01548 ; infill
G1 X80.853 Y61.643 E0.45297 ; infill
G1 X80.319 Y61.643 E0.01677 ; infill
G1 X70.163 Y51.486 E0.45106 ; infill
G1 X69.672 Y51.529 E0.01548 ; infill
G1 X79.785 Y61.643 E0.44916 ; infill
G1 X79.252 Y61.644 E0.01677 ; infill
G1 X69.181 Y51.573 E0.44725 ; infill
G1 X68.690 Y51.616 E0.01548 ; infill
G1 X78.718 Y61.644 E0.44534 ; infill
G1 X78.184 Y61.644 E0.01677 ; infill
G1 X68.199 Y51.659 E0.44344 ; infill
G1 X67.708 Y51.702 E0.01548 ; infill
G1 X77.650 Y61.644 E0.44153 ; infill
G1 X77.116 Y61.644 E0.01677 ; infill
G1 X67.217 Y51.745 E0.43962 ; infill
G1 X66.726 Y51.788 E0.01548 ; infill
G1 X76.582 Y61.645 E0.43771 ; infill
G1 X76.048 Y61.645 E0.01677 ; infill
G1 X66.235 Y51.832 E0.43581 ; infill
G1 X65.744 Y51.875 E0.01548 ; infill
G1 X75.514 Y61.645 E0.43390 ; infill
G1 X74.981 Y61.645 E0.01677 ; infill
G1 X65.253 Y51.918 E0.43199 ; infill
G1 X64.762 Y51.961 E0.01548 ; infill
G1 X74.447 Y61.645 E0.43009 ; infill
G1 X73.913 Y61.646 E0.01677 ; infill
G1 X64.271 Y52.004 E0.42818 ; infill
G1 X63.780 Y52.047 E0.01548 ; infill
G1 X73.379 Y61.646 E0.42627 ; infill
G1 X72.845 Y61.646 E0.01677 ; infill
G1 X63.289 Y52.090 E0.42437 ; infill
G1 X62.798 Y52.134 E0.01548 ; infill
G1 X72.311 Y61.646 E0.42246 ; infill
G1 X71.777 Y61.647 E0.01677 ; infill
G1 X62.307 Y52.177 E0.42055 ; infill
G1 X61.817 Y52.220 E0.01548 ; infill
G1 X71.243 Y61.647 E0.41865 ; infill
G1 X70.710 Y61.647 E0.01677 ; infill
G1 X61.326 Y52.263 E0.41674 ; infill
G1 X60.835 Y52.306 E0.01548 ; infill
G1 X70.176 Y61.647 E0.41483 ; infill
G1 X69.642 Y61.647 E0.01677 ; infill
G1 X60.344 Y52.349 E0.41293 ; infill
G1 X59.853 Y52.393 E0.01548 ; infill
G1 X69.108 Y61.648 E0.41102 ; infill
G1 X68.574 Y61.648 E0.01677 ; infill
G1 X59.362 Y52.436 E0.40911 ; infill
G1 X58.871 Y52.479 E0.01548 ; infill
G1 X68.040 Y61.648 E0.40721 ; infill
G1 X67.506 Y61.648 E0.01677 ; infill
G1 X58.380 Y52.522 E0.40530 ; infill
G1 X57.889 Y52.565 E0.01548 ; infill
G1 X66.972 Y61.649 E0.40339 ; infill
G1 X66.439 Y61.649 E0.01677 ; infill
G1 X57.398 Y52.608 E0.40149 ; infill
G1 X56.907 Y52.651 E0.01548 ; infill
G1 X65.905 Y61.649 E0.39958 ; infill
G1 X65.371 Y61.649 E0.01677 ; infill
G1 X56.416 Y52.695 E0.39767 ; infill
G1 X55.925 Y52.738 E0.01548 ; infill
G1 X64.837 Y61.649 E0.39577 ; infill
G1 X64.303 Y61.650 E0.01677 ; infill
G1 X55.448 Y52.794 E0.39327 ; infill
G1 X54.990 Y52.871 E0.01456 ; infill
G1 X63.769 Y61.650 E0.38987 ; infill
G1 X63.235 Y61.650 E0.01677 ; infill
G1 X54.555 Y52.970 E0.38547 ; infill
G1 X54.145 Y53.094 E0.01345 ; infill
G1 X62.701 Y61.650 E0.37997 ; infill
G1 X62.168 Y61.651 E0.01677 ; infill
G1 X53.757 Y53.240 E0.37352 ; infill
G1 X53.383 Y53.400 E0.01277 ; infill
G1 X61.634 Y61.651 E0.36640 ; infill
