; generated by Slic3r 1.37.2.1-prusa3d on 2018-04-18 at 22:45:15

; 

; external perimeters extrusion width = 0.45mm
; perimeters extrusion width = 0.45mm
; infill extrusion width = 0.45mm
; solid infill extrusion width = 0.45mm
; top infill extrusion width = 0.40mm
; first layer extrusion width = 0.42mm

M107 ; disable fan
M115 U3.1.1-RC5 ; tell printer latest fw version
M83  ; extruder relative mode
M104 S215 ; set extruder temp
M140 S60 ; set bed temp
M190 S60 ; wait for bed temp
M109 S215 ; wait for extruder temp
G28 W ; home all without mesh bed level
G80 ; mesh bed leveling
G1 Y-3.0 F1000.0 ; go outside print area
G92 E0.0
G1 X60.0 E9.0  F1000.0 ; intro line
G1 X100.0 E12.5  F1000.0 ; intro line
G92 E0.0
M221 S95
M900 K30
G21 ; set units to millimeters
G90 ; use absolute coordinates
M83 ; use relative distances for extrusion
;BEFORE_LAYER_CHANGE
;0.2


G1 E-0.80000 F2100.00000 ; retract
G1 Z0.600 F12000.000 ; lift Z
;AFTER_LAYER_CHANGE
;0.2
G1 X55.735 Y103.284 F12000.000 ; move to first skirt point
G1 Z0.200 F12000.000 ; restore layer Z
G1 E0.80000 F2100.00000 ; unretract
M204 S1000 ; adjust acceleration
G1 F1800
G1 X56.294 Y103.035 E0.01917 ; skirt
G1 X56.783 Y102.944 E0.01560 ; skirt
G1 X180.037 Y93.015 E3.87707 ; skirt
G1 X182.049 Y92.934 E0.06313 ; skirt
G1 X190.420 Y92.934 E0.26247 ; skirt
G1 X192.835 Y93.012 E0.07578 ; skirt
G1 X193.634 Y93.214 E0.02585 ; skirt
G1 X194.420 Y93.571 E0.02704 ; skirt
G1 X195.203 Y94.157 E0.03069 ; skirt
G1 X195.753 Y94.811 E0.02678 ; skirt
G1 X196.135 Y95.590 E0.02721 ; skirt
G1 X196.300 Y96.408 E0.02617 ; skirt
G1 X196.299 Y141.567 E1.41592 ; skirt
G1 X196.048 Y142.601 E0.03335 ; skirt
G1 X195.441 Y143.558 E0.03555 ; skirt
G1 X194.447 Y144.376 E0.04035 ; skirt
G1 X193.345 Y144.838 E0.03747 ; skirt
G1 X192.572 Y144.989 E0.02470 ; skirt
G1 X191.898 Y145.027 E0.02117 ; skirt
G1 X182.054 Y145.029 E0.30866 ; skirt
G1 X180.045 Y144.949 E0.06303 ; skirt
G1 X56.779 Y135.019 E3.87745 ; skirt
G1 X56.088 Y134.856 E0.02225 ; skirt
G1 X55.476 Y134.496 E0.02225 ; skirt
G1 X54.998 Y133.972 E0.02225 ; skirt
G1 X54.695 Y133.327 E0.02237 ; skirt
G1 X53.532 Y124.091 E0.29186 ; skirt
G1 X53.531 Y113.888 E0.31989 ; skirt
G1 X54.670 Y104.728 E0.28943 ; skirt
G1 X54.895 Y104.160 E0.01917 ; skirt
G1 X55.258 Y103.667 E0.01917 ; skirt
G1 X55.688 Y103.322 E0.01729 ; skirt
G1 F9600
G1 X56.294 Y103.035 E-0.13918 ; wipe and retract
G1 F9600
G1 X56.783 Y102.944 E-0.10341 ; wipe and retract
G1 F9600
G1 X59.264 Y102.744 E-0.51741 ; wipe and retract
G1 E-0.04000 F2100.00000 ; retract
G1 Z0.800 F12000.000 ; lift Z
G1 X81.017 Y106.645 F12000.000 ; move to first perimeter point
G1 Z0.200 F12000.000 ; restore layer Z
G1 E0.80000 F2100.00000 ; unretract
G1 F1800
G1 X81.188 Y106.417 E0.00894 ; perimeter
G1 X81.375 Y106.312 E0.00674 ; perimeter
G1 X81.562 Y106.279 E0.00594 ; perimeter
G1 X83.683 Y106.285 E0.06650 ; perimeter
G1 X83.944 Y106.398 E0.00893 ; perimeter
G1 X84.083 Y106.546 E0.00635 ; perimeter
G1 X84.166 Y106.726 E0.00622 ; perimeter
G1 X84.185 Y106.904 E0.00563 ; perimeter
G1 X83.890 Y112.535 E0.17679 ; perimeter
G1 X83.848 Y112.719 E0.00592 ; perimeter
G1 X83.737 Y112.897 E0.00660 ; perimeter
G1 X83.491 Y113.062 E0.00926 ; perimeter
G1 X83.301 Y113.094 E0.00607 ; perimeter
G1 X81.180 Y113.089 E0.06649 ; perimeter
G1 X80.919 Y112.975 E0.00893 ; perimeter
G1 X80.780 Y112.828 E0.00635 ; perimeter
G1 X80.697 Y112.647 E0.00622 ; perimeter
G1 X80.677 Y112.469 E0.00563 ; perimeter
G1 X80.973 Y106.838 E0.17679 ; perimeter
G1 X81.003 Y106.704 E0.00432 ; perimeter
G1 X80.856 Y106.410 F12000.000 ; move inwards before travel
G1 X80.875 Y106.206 F12000.000 ; move to first perimeter point
G1 F1800
G1 X80.667 Y106.483 E0.01086 ; perimeter
G1 X80.598 Y106.786 E0.00973 ; perimeter
G1 X80.299 Y112.480 E0.17877 ; perimeter
G1 X80.329 Y112.750 E0.00852 ; perimeter
G1 X80.464 Y113.042 E0.01008 ; perimeter
G1 X80.698 Y113.290 E0.01070 ; perimeter
G1 X80.818 Y113.342 E0.00412 ; perimeter
G1 X79.270 Y113.329 E0.04853 ; perimeter
G1 X79.514 Y113.166 E0.00918 ; perimeter
G1 X79.702 Y112.865 E0.01112 ; perimeter
G1 X79.765 Y112.587 E0.00893 ; perimeter
G1 X80.064 Y106.894 E0.17877 ; perimeter
G1 X80.034 Y106.624 E0.00852 ; perimeter
G1 X79.899 Y106.332 E0.01008 ; perimeter
G1 X79.781 Y106.206 E0.00542 ; perimeter
G1 X80.815 Y106.206 E0.03242 ; perimeter
G1 F9600
G1 X80.667 Y106.483 E-0.06529 ; wipe and retract
G1 F9600
G1 X80.598 Y106.786 E-0.06450 ; wipe and retract
G1 F9600
G1 X80.439 Y109.814 E-0.63021 ; wipe and retract
G1 E-0.04000 F2100.00000 ; retract
G1 Z0.800 F12000.000 ; lift Z
G1 X79.666 Y106.726 F12000.000 ; move to first perimeter point
G1 Z0.200 F12000.000 ; restore layer Z
G1 E0.80000 F2100.00000 ; unretract
G1 F1800
G1 X79.685 Y106.904 E0.00563 ; perimeter
G1 X79.390 Y112.535 E0.17679 ; perimeter
G1 X79.348 Y112.719 E0.00592 ; perimeter
G1 X79.237 Y112.897 E0.00660 ; perimeter
G1 X78.991 Y113.062 E0.00926 ; perimeter
G1 X78.801 Y113.094 E0.00607 ; perimeter
G1 X76.680 Y113.089 E0.06649 ; perimeter
G1 X76.419 Y112.975 E0.00893 ; perimeter
G1 X76.280 Y112.828 E0.00635 ; perimeter
G1 X76.197 Y112.648 E0.00622 ; perimeter
G1 X76.177 Y112.469 E0.00563 ; perimeter
G1 X76.473 Y106.838 E0.17679 ; perimeter
G1 X76.517 Y106.645 E0.00620 ; perimeter
G1 X76.688 Y106.417 E0.00894 ; perimeter
G1 X76.875 Y106.312 E0.00674 ; perimeter
G1 X77.062 Y106.279 E0.00594 ; perimeter
G1 X79.183 Y106.285 E0.06650 ; perimeter
G1 X79.444 Y106.398 E0.00893 ; perimeter
G1 X79.583 Y106.546 E0.00635 ; perimeter
G1 X79.641 Y106.671 E0.00434 ; perimeter
G1 X79.840 Y106.771 F12000.000 ; move inwards before travel
G1 F9600
G1 X79.685 Y106.904 E-0.04930 ; wipe and retract
G1 F9600
G1 X79.506 Y110.320 E-0.71070 ; wipe and retract
G1 E-0.04000 F2100.00000 ; retract
G1 Z0.800 F12000.000 ; lift Z
G1 X76.375 Y106.206 F12000.000 ; move to first perimeter point
G1 Z0.200 F12000.000 ; restore layer Z
G1 E0.80000 F2100.00000 ; unretract
G1 F1800
G1 X76.167 Y106.483 E0.01088 ; perimeter
G1 X76.098 Y106.786 E0.00973 ; perimeter
G1 X75.799 Y112.480 E0.17877 ; perimeter
G1 X75.829 Y112.750 E0.00852 ; perimeter
G1 X75.964 Y113.042 E0.01008 ; perimeter
G1 X76.225 Y113.302 E0.01158 ; perimeter
G1 X74.829 Y113.290 E0.04380 ; perimeter
G1 X75.014 Y113.166 E0.00698 ; perimeter
G1 X75.202 Y112.865 E0.01112 ; perimeter
G1 X75.265 Y112.587 E0.00893 ; perimeter
G1 X75.564 Y106.894 E0.17877 ; perimeter
G1 X75.534 Y106.624 E0.00852 ; perimeter
G1 X75.399 Y106.332 E0.01008 ; perimeter
G1 X75.280 Y106.206 E0.00544 ; perimeter
G1 X76.315 Y106.206 E0.03245 ; perimeter
G1 F9600
G1 X76.167 Y106.483 E-0.06540 ; wipe and retract
G1 F9600
G1 X76.098 Y106.786 E-0.06450 ; wipe and retract
G1 F9600
G1 X75.939 Y109.814 E-0.63010 ; wipe and retract
G1 E-0.04000 F2100.00000 ; retract
G1 Z0.800 F12000.000 ; lift Z
G1 X75.166 Y106.726 F12000.000 ; move to first perimeter point
G1 Z0.200 F12000.000 ; restore layer Z
G1 E0.80000 F2100.00000 ; unretract
G1 F1800
G1 X75.185 Y106.904 E0.00563 ; perimeter
G1 X74.890 Y112.535 E0.17679 ; perimeter
G1 X74.848 Y112.719 E0.00592 ; perimeter
G1 X74.737 Y112.897 E0.00660 ; perimeter
G1 X74.491 Y113.062 E0.00926 ; perimeter
G1 X74.301 Y113.094 E0.00607 ; perimeter
G1 X72.180 Y113.089 E0.06649 ; perimeter
G1 X71.919 Y112.975 E0.00893 ; perimeter
G1 X71.780 Y112.828 E0.00635 ; perimeter
G1 X71.697 Y112.647 E0.00622 ; perimeter
G1 X71.677 Y112.469 E0.00563 ; perimeter
G1 X71.973 Y106.838 E0.17679 ; perimeter
G1 X72.017 Y106.645 E0.00620 ; perimeter
G1 X72.188 Y106.417 E0.00894 ; perimeter
G1 X72.375 Y106.312 E0.00674 ; perimeter
G1 X72.562 Y106.279 E0.00594 ; perimeter
G1 X74.683 Y106.285 E0.06650 ; perimeter
G1 X74.944 Y106.398 E0.00893 ; perimeter
G1 X75.083 Y106.546 E0.00635 ; perimeter
G1 X75.141 Y106.671 E0.00434 ; perimeter
G1 X75.340 Y106.771 F12000.000 ; move inwards before travel
G1 F9600
G1 X75.185 Y106.904 E-0.04930 ; wipe and retract
G1 F9600
G1 X75.006 Y110.320 E-0.71070 ; wipe and retract
G1 E-0.04000 F2100.00000 ; retract
G1 Z0.800 F12000.000 ; lift Z
G1 X71.875 Y106.205 F12000.000 ; move to first perimeter point
G1 Z0.200 F12000.000 ; restore layer Z
G1 E0.80000 F2100.00000 ; unretract
G1 F1800
G1 X71.667 Y106.483 E0.01090 ; perimeter
G1 X71.598 Y106.786 E0.00973 ; perimeter
G1 X71.299 Y112.480 E0.17877 ; perimeter
G1 X71.329 Y112.750 E0.00852 ; perimeter
G1 X71.464 Y113.042 E0.01008 ; perimeter
G1 X71.671 Y113.262 E0.00949 ; perimeter
G1 X56.605 Y113.130 E0.47241 ; perimeter
G1 X57.456 Y106.204 E0.21878 ; perimeter
G1 X71.815 Y106.205 E0.45024 ; perimeter
G1 F9600
G1 X71.667 Y106.483 E-0.06551 ; wipe and retract
G1 F9600
G1 X71.598 Y106.786 E-0.06451 ; wipe and retract
G1 F9600
G1 X71.439 Y109.813 E-0.62998 ; wipe and retract
G1 E-0.04000 F2100.00000 ; retract
G1 Z0.800 F12000.000 ; lift Z
G1 X84.281 Y106.206 F12000.000 ; move to first perimeter point
G1 Z0.200 F12000.000 ; restore layer Z
G1 E0.80000 F2100.00000 ; unretract
G1 F1800
G1 X89.351 Y106.207 E0.15898 ; perimeter
G1 X89.162 Y106.507 E0.01113 ; perimeter
G1 X89.098 Y106.786 E0.00898 ; perimeter
G1 X88.799 Y112.480 E0.17877 ; perimeter
G1 X88.829 Y112.750 E0.00852 ; perimeter
G1 X88.964 Y113.042 E0.01008 ; perimeter
G1 X89.198 Y113.290 E0.01070 ; perimeter
G1 X89.493 Y113.419 E0.01010 ; perimeter
G1 X83.712 Y113.368 E0.18126 ; perimeter
G1 X84.014 Y113.166 E0.01138 ; perimeter
G1 X84.202 Y112.865 E0.01112 ; perimeter
G1 X84.265 Y112.587 E0.00893 ; perimeter
G1 X84.564 Y106.894 E0.17877 ; perimeter
G1 X84.534 Y106.624 E0.00852 ; perimeter
G1 X84.399 Y106.332 E0.01008 ; perimeter
G1 X84.322 Y106.250 E0.00352 ; perimeter
G1 F9600
G1 X87.979 Y106.219 E-0.76000 ; wipe and retract
G1 E-0.04000 F2100.00000 ; retract
G1 Z0.800 F12000.000 ; lift Z
G1 X89.867 Y106.314 F12000.000 ; move to first perimeter point
G1 Z0.200 F12000.000 ; restore layer Z
G1 E0.80000 F2100.00000 ; unretract
G1 F1800
G1 X90.062 Y106.279 E0.00621 ; perimeter
G1 X92.183 Y106.285 E0.06650 ; perimeter
G1 X92.444 Y106.398 E0.00893 ; perimeter
G1 X92.583 Y106.546 E0.00635 ; perimeter
G1 X92.666 Y106.726 E0.00622 ; perimeter
G1 X92.685 Y106.904 E0.00563 ; perimeter
G1 X92.390 Y112.535 E0.17679 ; perimeter
G1 X92.348 Y112.719 E0.00592 ; perimeter
G1 X92.237 Y112.897 E0.00660 ; perimeter
G1 X91.991 Y113.062 E0.00926 ; perimeter
G1 X91.801 Y113.094 E0.00607 ; perimeter
G1 X89.680 Y113.089 E0.06649 ; perimeter
G1 X89.419 Y112.975 E0.00893 ; perimeter
G1 X89.280 Y112.828 E0.00635 ; perimeter
G1 X89.197 Y112.648 E0.00622 ; perimeter
G1 X89.177 Y112.469 E0.00563 ; perimeter
G1 X89.473 Y106.838 E0.17679 ; perimeter
G1 X89.515 Y106.654 E0.00594 ; perimeter
G1 X89.630 Y106.472 E0.00674 ; perimeter
G1 X89.817 Y106.347 E0.00706 ; perimeter
G1 X89.897 Y106.118 F12000.000 ; move inwards before travel
G1 F9600
G1 X90.062 Y106.279 E-0.05282 ; wipe and retract
G1 F9600
G1 X92.183 Y106.285 E-0.44078 ; wipe and retract
G1 F9600
G1 X92.444 Y106.398 E-0.05916 ; wipe and retract
G1 F9600
G1 X92.583 Y106.546 E-0.04208 ; wipe and retract
G1 F9600
G1 X92.666 Y106.726 E-0.04124 ; wipe and retract
G1 F9600
G1 X92.685 Y106.904 E-0.03732 ; wipe and retract
G1 F9600
G1 X92.664 Y107.321 E-0.08659 ; wipe and retract
G1 E-0.04000 F2100.00000 ; retract
G1 Z0.800 F12000.000 ; lift Z
G1 X92.782 Y106.207 F12000.000 ; move to first perimeter point
G1 Z0.200 F12000.000 ; restore layer Z
G1 E0.80000 F2100.00000 ; unretract
G1 F1800
G1 X93.851 Y106.207 E0.03353 ; perimeter
G1 X93.662 Y106.507 E0.01111 ; perimeter
G1 X93.598 Y106.786 E0.00898 ; perimeter
G1 X93.299 Y112.480 E0.17877 ; perimeter
G1 X93.329 Y112.750 E0.00852 ; perimeter
G1 X93.464 Y113.042 E0.01008 ; perimeter
G1 X93.698 Y113.290 E0.01070 ; perimeter
G1 X94.086 Y113.459 E0.01327 ; perimeter
G1 X92.012 Y113.441 E0.06503 ; perimeter
G1 X92.134 Y113.420 E0.00389 ; perimeter
G1 X92.514 Y113.166 E0.01433 ; perimeter
G1 X92.702 Y112.865 E0.01112 ; perimeter
G1 X92.765 Y112.587 E0.00893 ; perimeter
G1 X93.064 Y106.894 E0.17877 ; perimeter
G1 X93.034 Y106.624 E0.00852 ; perimeter
G1 X92.899 Y106.332 E0.01008 ; perimeter
G1 X92.823 Y106.251 E0.00349 ; perimeter
G1 F9600
G1 X93.851 Y106.207 E-0.21386 ; wipe and retract
G1 F9600
G1 X93.662 Y106.507 E-0.07363 ; wipe and retract
G1 F9600
G1 X93.598 Y106.786 E-0.05953 ; wipe and retract
G1 F9600
G1 X93.494 Y108.771 E-0.41298 ; wipe and retract
G1 E-0.04000 F2100.00000 ; retract
G1 Z0.800 F12000.000 ; lift Z
G1 X94.367 Y106.314 F12000.000 ; move to first perimeter point
G1 Z0.200 F12000.000 ; restore layer Z
G1 E0.80000 F2100.00000 ; unretract
G1 F1800
G1 X94.562 Y106.279 E0.00621 ; perimeter
G1 X96.683 Y106.285 E0.06650 ; perimeter
G1 X96.944 Y106.398 E0.00893 ; perimeter
G1 X97.083 Y106.546 E0.00635 ; perimeter
G1 X97.166 Y106.726 E0.00622 ; perimeter
G1 X97.185 Y106.904 E0.00563 ; perimeter
G1 X96.890 Y112.535 E0.17679 ; perimeter
G1 X96.848 Y112.719 E0.00592 ; perimeter
G1 X96.737 Y112.897 E0.00660 ; perimeter
G1 X96.491 Y113.062 E0.00926 ; perimeter
G1 X96.301 Y113.094 E0.00607 ; perimeter
G1 X94.180 Y113.089 E0.06649 ; perimeter
G1 X93.919 Y112.975 E0.00893 ; perimeter
G1 X93.780 Y112.828 E0.00635 ; perimeter
G1 X93.697 Y112.648 E0.00622 ; perimeter
G1 X93.677 Y112.469 E0.00563 ; perimeter
G1 X93.973 Y106.838 E0.17679 ; perimeter
G1 X94.015 Y106.654 E0.00594 ; perimeter
G1 X94.130 Y106.472 E0.00674 ; perimeter
G1 X94.317 Y106.347 E0.00706 ; perimeter
G1 X94.397 Y106.118 F12000.000 ; move inwards before travel
G1 F9600
G1 X94.562 Y106.279 E-0.05282 ; wipe and retract
G1 F9600
G1 X96.683 Y106.285 E-0.44078 ; wipe and retract
G1 F9600
G1 X96.944 Y106.398 E-0.05916 ; wipe and retract
G1 F9600
G1 X97.083 Y106.546 E-0.04208 ; wipe and retract
G1 F9600
G1 X97.166 Y106.726 E-0.04124 ; wipe and retract
G1 F9600
G1 X97.185 Y106.904 E-0.03732 ; wipe and retract
G1 F9600
G1 X97.164 Y107.321 E-0.08659 ; wipe and retract
G1 E-0.04000 F2100.00000 ; retract
G1 Z0.800 F12000.000 ; lift Z
G1 X98.866 Y106.314 F12000.000 ; move to first perimeter point
G1 Z0.200 F12000.000 ; restore layer Z
G1 E0.80000 F2100.00000 ; unretract
G1 F1800
G1 X99.062 Y106.279 E0.00621 ; perimeter
G1 X101.183 Y106.285 E0.06650 ; perimeter
G1 X101.444 Y106.398 E0.00893 ; perimeter
G1 X101.583 Y106.546 E0.00635 ; perimeter
G1 X101.666 Y106.726 E0.00622 ; perimeter
G1 X101.685 Y106.904 E0.00563 ; perimeter
G1 X101.390 Y112.535 E0.17679 ; perimeter
G1 X101.348 Y112.719 E0.00592 ; perimeter
G1 X101.237 Y112.897 E0.00660 ; perimeter
G1 X100.991 Y113.062 E0.00926 ; perimeter
G1 X100.801 Y113.094 E0.00607 ; perimeter
G1 X98.680 Y113.089 E0.06649 ; perimeter
G1 X98.419 Y112.975 E0.00893 ; perimeter
G1 X98.280 Y112.828 E0.00635 ; perimeter
G1 X98.197 Y112.647 E0.00622 ; perimeter
G1 X98.177 Y112.469 E0.00563 ; perimeter
G1 X98.473 Y106.838 E0.17679 ; perimeter
G1 X98.515 Y106.654 E0.00594 ; perimeter
G1 X98.630 Y106.472 E0.00674 ; perimeter
G1 X98.817 Y106.347 E0.00706 ; perimeter
G1 X98.897 Y106.118 F12000.000 ; move inwards before travel
G1 X98.351 Y106.208 F12000.000 ; move to first perimeter point
G1 F1800
G1 X98.162 Y106.507 E0.01109 ; perimeter
G1 X98.098 Y106.786 E0.00898 ; perimeter
G1 X97.799 Y112.480 E0.17877 ; perimeter
G1 X97.829 Y112.750 E0.00852 ; perimeter
G1 X97.964 Y113.042 E0.01008 ; perimeter
G1 X98.198 Y113.290 E0.01070 ; perimeter
G1 X98.601 Y113.466 E0.01380 ; perimeter
G1 X100.832 Y113.471 E0.06994 ; perimeter
G1 X101.134 Y113.420 E0.00961 ; perimeter
G1 X101.514 Y113.166 E0.01433 ; perimeter
G1 X101.702 Y112.865 E0.01112 ; perimeter
G1 X101.765 Y112.587 E0.00893 ; perimeter
G1 X102.064 Y106.894 E0.17877 ; perimeter
G1 X102.034 Y106.624 E0.00852 ; perimeter
G1 X101.899 Y106.332 E0.01008 ; perimeter
G1 X101.782 Y106.208 E0.00533 ; perimeter
G1 X132.818 Y106.211 E0.97311 ; perimeter
G1 X134.469 Y106.297 E0.05183 ; perimeter
G1 X135.280 Y106.378 E0.02556 ; perimeter
G1 X136.089 Y106.488 E0.02560 ; perimeter
G1 X136.894 Y106.630 E0.02563 ; perimeter
G1 X137.686 Y106.805 E0.02542 ; perimeter
G1 X138.474 Y107.014 E0.02558 ; perimeter
G1 X139.257 Y107.250 E0.02563 ; perimeter
G1 X141.814 Y108.107 E0.08455 ; perimeter
G1 X143.361 Y108.573 E0.05066 ; perimeter
