; generated by Slic3r 1.37.2.1-prusa3d on 2018-12-02 at 19:32:23

; 

; external perimeters extrusion width = 0.45mm
; perimeters extrusion width = 0.45mm
; infill extrusion width = 0.45mm
; solid infill extrusion width = 0.45mm
; top infill extrusion width = 0.40mm
; first layer extrusion width = 0.42mm

M107 ; disable fan
M115 U3.4.0 ; tell printer latest fw version
M83  ; extruder relative mode
M104 S215 ; set extruder temp
M140 S60 ; set bed temp
M190 S60 ; wait for bed temp
M109 S215 ; wait for extruder temp
G28 W ; home all without mesh bed level
G80 ; mesh bed leveling
G1 Y-3.0 F1000.0 ; go outside print area
G92 E0.0
G1 X60.0 E9.0  F1000.0 ; intro line
G1 X100.0 E12.5  F1000.0 ; intro line
G92 E0.0
M221 S95
M900 K30
G21 ; set units to millimeters
G90 ; use absolute coordinates
M83 ; use relative distances for extrusion
;BEFORE_LAYER_CHANGE
G92 E0.0
;0.2


G1 E-0.80000 F2100.00000 ; retract
G1 Z0.600 F10800.000 ; lift Z
;AFTER_LAYER_CHANGE
;0.2
G1 X85.505 Y70.892 F10800.000 ; move to first skirt point
G1 Z0.200 F10800.000 ; restore layer Z
G1 E0.80000 F2100.00000 ; unretract
M204 S1000 ; adjust acceleration
G1 F1200
G1 X86.313 Y69.917 E0.03968 ; skirt
G1 X88.051 Y68.053 E0.07993 ; skirt
G1 X89.917 Y66.313 E0.08000 ; skirt
G1 X91.264 Y65.196 E0.05485 ; skirt
G1 X93.317 Y63.688 E0.07988 ; skirt
G1 X94.801 Y62.726 E0.05545 ; skirt
G1 X97.001 Y61.478 E0.07929 ; skirt
G1 X98.570 Y60.704 E0.05485 ; skirt
G1 X101.678 Y59.363 E0.10615 ; skirt
G1 X103.826 Y58.549 E0.07200 ; skirt
G1 X107.044 Y57.494 E0.10620 ; skirt
G1 X109.256 Y56.878 E0.07200 ; skirt
G1 X111.487 Y56.344 E0.07191 ; skirt
G1 X114.793 Y55.708 E0.10557 ; skirt
G1 X119.345 Y55.128 E0.14389 ; skirt
G1 X122.705 Y54.915 E0.10557 ; skirt
G1 X125.005 Y54.873 E0.07212 ; skirt
G1 X128.387 Y54.964 E0.10608 ; skirt
G1 X130.674 Y55.130 E0.07188 ; skirt
G1 X132.957 Y55.379 E0.07203 ; skirt
G1 X136.256 Y55.890 E0.10465 ; skirt
G1 X140.766 Y56.884 E0.14480 ; skirt
G1 X144.001 Y57.816 E0.10557 ; skirt
G1 X146.173 Y58.549 E0.07188 ; skirt
G1 X148.322 Y59.363 E0.07203 ; skirt
G1 X151.431 Y60.704 E0.10617 ; skirt
G1 X152.997 Y61.477 E0.05477 ; skirt
G1 X155.197 Y62.725 E0.07928 ; skirt
G1 X156.681 Y63.686 E0.05545 ; skirt
G1 X158.737 Y65.197 E0.08001 ; skirt
G1 X160.083 Y66.313 E0.05480 ; skirt
G1 X161.947 Y68.051 E0.07993 ; skirt
G1 X163.153 Y69.316 E0.05480 ; skirt
G1 X164.802 Y71.261 E0.07994 ; skirt
G1 X166.312 Y73.317 E0.08000 ; skirt
G1 X167.274 Y74.802 E0.05546 ; skirt
G1 X168.522 Y77.001 E0.07928 ; skirt
G1 X169.296 Y78.570 E0.05485 ; skirt
G1 X170.637 Y81.678 E0.10616 ; skirt
G1 X171.451 Y83.826 E0.07200 ; skirt
G1 X172.184 Y85.999 E0.07191 ; skirt
G1 X173.121 Y89.252 E0.10616 ; skirt
G1 X173.656 Y91.487 E0.07203 ; skirt
G1 X174.278 Y94.714 E0.10305 ; skirt
G1 X174.872 Y99.345 E0.14640 ; skirt
G1 X175.085 Y102.706 E0.10557 ; skirt
G1 X175.127 Y105.001 E0.07200 ; skirt
G1 X175.085 Y107.295 E0.07191 ; skirt
G1 X174.872 Y110.655 E0.10558 ; skirt
G1 X174.292 Y115.207 E0.14388 ; skirt
G1 X173.656 Y118.513 E0.10557 ; skirt
G1 X173.121 Y120.747 E0.07200 ; skirt
G1 X172.506 Y122.956 E0.07191 ; skirt
G1 X171.451 Y126.173 E0.10617 ; skirt
G1 X170.637 Y128.322 E0.07203 ; skirt
G1 X169.296 Y131.431 E0.10617 ; skirt
G1 X168.522 Y132.999 E0.05484 ; skirt
G1 X167.275 Y135.197 E0.07922 ; skirt
G1 X166.314 Y136.681 E0.05545 ; skirt
G1 X164.803 Y138.737 E0.08001 ; skirt
G1 X163.687 Y140.083 E0.05480 ; skirt
G1 X161.948 Y141.947 E0.07994 ; skirt
G1 X160.668 Y143.167 E0.05546 ; skirt
G1 X158.739 Y144.802 E0.07928 ; skirt
G1 X156.683 Y146.312 E0.07999 ; skirt
G1 X155.198 Y147.274 E0.05546 ; skirt
G1 X152.999 Y148.522 E0.07928 ; skirt
G1 X151.430 Y149.296 E0.05486 ; skirt
G1 X148.322 Y150.637 E0.10615 ; skirt
G1 X146.174 Y151.451 E0.07200 ; skirt
G1 X144.001 Y152.184 E0.07191 ; skirt
G1 X140.748 Y153.121 E0.10616 ; skirt
G1 X138.513 Y153.656 E0.07203 ; skirt
G1 X135.286 Y154.278 E0.10305 ; skirt
G1 X130.659 Y154.872 E0.14625 ; skirt
G1 X127.294 Y155.085 E0.10572 ; skirt
G1 X124.999 Y155.127 E0.07200 ; skirt
G1 X122.705 Y155.085 E0.07191 ; skirt
G1 X119.345 Y154.872 E0.10558 ; skirt
G1 X114.793 Y154.292 E0.14388 ; skirt
G1 X111.487 Y153.656 E0.10557 ; skirt
G1 X109.254 Y153.121 E0.07200 ; skirt
G1 X106.027 Y152.193 E0.10528 ; skirt
G1 X103.827 Y151.451 E0.07279 ; skirt
G1 X101.678 Y150.637 E0.07203 ; skirt
G1 X98.569 Y149.296 E0.10617 ; skirt
G1 X97.002 Y148.523 E0.05477 ; skirt
G1 X94.803 Y147.275 E0.07929 ; skirt
G1 X93.319 Y146.313 E0.05545 ; skirt
G1 X91.263 Y144.803 E0.08000 ; skirt
G1 X89.917 Y143.687 E0.05480 ; skirt
G1 X88.053 Y141.948 E0.07994 ; skirt
G1 X86.833 Y140.668 E0.05546 ; skirt
G1 X85.198 Y138.739 E0.07927 ; skirt
G1 X83.688 Y136.683 E0.08000 ; skirt
G1 X82.726 Y135.198 E0.05545 ; skirt
G1 X81.478 Y132.999 E0.07928 ; skirt
G1 X80.704 Y131.430 E0.05486 ; skirt
G1 X79.363 Y128.322 E0.10615 ; skirt
G1 X78.549 Y126.174 E0.07200 ; skirt
G1 X77.816 Y124.001 E0.07191 ; skirt
G1 X76.879 Y120.748 E0.10616 ; skirt
G1 X76.344 Y118.513 E0.07203 ; skirt
G1 X75.713 Y115.236 E0.10465 ; skirt
G1 X75.128 Y110.655 E0.14480 ; skirt
G1 X74.915 Y107.295 E0.10557 ; skirt
G1 X74.873 Y104.999 E0.07200 ; skirt
G1 X74.915 Y102.705 E0.07191 ; skirt
G1 X75.128 Y99.345 E0.10557 ; skirt
G1 X75.708 Y94.793 E0.14389 ; skirt
G1 X76.344 Y91.487 E0.10557 ; skirt
G1 X76.879 Y89.254 E0.07200 ; skirt
G1 X77.494 Y87.044 E0.07191 ; skirt
G1 X78.549 Y83.827 E0.10616 ; skirt
G1 X79.363 Y81.678 E0.07203 ; skirt
G1 X80.704 Y78.569 E0.10617 ; skirt
G1 X81.478 Y77.001 E0.05484 ; skirt
G1 X82.727 Y74.800 E0.07933 ; skirt
G1 X83.686 Y73.319 E0.05533 ; skirt
G1 X85.197 Y71.263 E0.08000 ; skirt
G1 X85.467 Y70.938 E0.01324 ; skirt
G1 F8640
G1 X86.313 Y69.917 E-0.30609 ; wipe and retract
G1 F8640
G1 X87.653 Y68.480 E-0.45391 ; wipe and retract
G1 E-0.04000 F2100.00000 ; retract
G1 Z0.800 F10800.000 ; lift Z
G1 X89.991 Y74.541 F10800.000 ; move to first perimeter point
G1 Z0.200 F10800.000 ; restore layer Z
G1 E0.80000 F2100.00000 ; unretract
G1 F1200
G1 X91.077 Y73.270 E0.05241 ; perimeter
G1 X92.146 Y72.146 E0.04865 ; perimeter
G1 X93.286 Y71.064 E0.04928 ; perimeter
G1 X94.444 Y70.068 E0.04789 ; perimeter
G1 X95.057 Y69.580 E0.02455 ; perimeter
G1 X96.303 Y68.662 E0.04853 ; perimeter
G1 X97.593 Y67.808 E0.04853 ; perimeter
G1 X98.259 Y67.402 E0.02444 ; perimeter
G1 X98.934 Y67.014 E0.02444 ; perimeter
G1 X100.304 Y66.293 E0.04853 ; perimeter
G1 X101.964 Y65.523 E0.05737 ; perimeter
G1 X103.907 Y64.707 E0.06609 ; perimeter
G1 X105.880 Y63.964 E0.06609 ; perimeter
G1 X107.905 Y63.286 E0.06696 ; perimeter
G1 X109.897 Y62.699 E0.06513 ; perimeter
G1 X110.921 Y62.428 E0.03321 ; perimeter
G1 X112.971 Y61.946 E0.06600 ; perimeter
G1 X115.039 Y61.540 E0.06609 ; perimeter
G1 X117.121 Y61.210 E0.06609 ; perimeter
G1 X119.241 Y60.955 E0.06696 ; perimeter
G1 X121.311 Y60.782 E0.06513 ; perimeter
G1 X122.369 Y60.724 E0.03321 ; perimeter
G1 X124.473 Y60.665 E0.06600 ; perimeter
G1 X126.581 Y60.685 E0.06609 ; perimeter
G1 X128.714 Y60.784 E0.06696 ; perimeter
G1 X130.784 Y60.957 E0.06513 ; perimeter
G1 X131.837 Y61.074 E0.03321 ; perimeter
G1 X133.922 Y61.365 E0.06600 ; perimeter
G1 X135.997 Y61.733 E0.06609 ; perimeter
G1 X138.085 Y62.185 E0.06696 ; perimeter
G1 X140.097 Y62.698 E0.06513 ; perimeter
G1 X141.116 Y62.988 E0.03321 ; perimeter
G1 X143.122 Y63.619 E0.06592 ; perimeter
G1 X144.123 Y63.965 E0.03322 ; perimeter
G1 X146.093 Y64.707 E0.06600 ; perimeter
G1 X148.036 Y65.523 E0.06609 ; perimeter
G1 X149.693 Y66.291 E0.05726 ; perimeter
G1 X150.408 Y66.657 E0.02519 ; perimeter
G1 X151.738 Y67.400 E0.04778 ; perimeter
G1 X152.424 Y67.819 E0.02519 ; perimeter
G1 X153.697 Y68.662 E0.04789 ; perimeter
G1 X154.947 Y69.582 E0.04865 ; perimeter
G1 X156.163 Y70.578 E0.04928 ; perimeter
G1 X157.296 Y71.602 E0.04789 ; perimeter
G1 X157.854 Y72.146 E0.02444 ; perimeter
G1 X158.412 Y72.719 E0.02508 ; perimeter
G1 X159.436 Y73.852 E0.04789 ; perimeter
G1 X160.418 Y75.054 E0.04865 ; perimeter
G1 X161.349 Y76.320 E0.04928 ; perimeter
G1 X162.192 Y77.593 E0.04789 ; perimeter
G1 X162.598 Y78.259 E0.02444 ; perimeter
G1 X162.996 Y78.952 E0.02508 ; perimeter
G1 X163.707 Y80.304 E0.04789 ; perimeter
G1 X164.477 Y81.964 E0.05736 ; perimeter
G1 X165.293 Y83.907 E0.06609 ; perimeter
G1 X166.036 Y85.880 E0.06609 ; perimeter
G1 X166.706 Y87.878 E0.06609 ; perimeter
G1 X167.309 Y89.927 E0.06696 ; perimeter
G1 X167.821 Y91.940 E0.06513 ; perimeter
G1 X168.054 Y92.973 E0.03321 ; perimeter
G1 X168.460 Y95.039 E0.06600 ; perimeter
G1 X168.790 Y97.121 E0.06609 ; perimeter
G1 X169.045 Y99.241 E0.06696 ; perimeter
G1 X169.218 Y101.311 E0.06513 ; perimeter
G1 X169.276 Y102.369 E0.03321 ; perimeter
G1 X169.335 Y104.473 E0.06600 ; perimeter
G1 X169.315 Y106.578 E0.06600 ; perimeter
G1 X169.276 Y107.637 E0.03322 ; perimeter
G1 X169.140 Y109.737 E0.06600 ; perimeter
G1 X168.926 Y111.834 E0.06609 ; perimeter
G1 X168.635 Y113.922 E0.06609 ; perimeter
G1 X168.267 Y115.997 E0.06609 ; perimeter
G1 X167.815 Y118.085 E0.06696 ; perimeter
G1 X167.302 Y120.097 E0.06513 ; perimeter
G1 X167.012 Y121.116 E0.03321 ; perimeter
G1 X166.381 Y123.122 E0.06592 ; perimeter
G1 X166.026 Y124.149 E0.03409 ; perimeter
G1 X165.293 Y126.093 E0.06513 ; perimeter
G1 X164.477 Y128.036 E0.06609 ; perimeter
G1 X163.707 Y129.696 E0.05737 ; perimeter
G1 X162.986 Y131.066 E0.04853 ; perimeter
G1 X162.596 Y131.745 E0.02456 ; perimeter
G1 X161.763 Y133.073 E0.04916 ; perimeter
G1 X160.888 Y134.325 E0.04789 ; perimeter
G1 X160.418 Y134.946 E0.02444 ; perimeter
G1 X159.932 Y135.556 E0.02444 ; perimeter
G1 X158.923 Y136.730 E0.04853 ; perimeter
G1 X157.854 Y137.854 E0.04864 ; perimeter
G1 X156.730 Y138.923 E0.04864 ; perimeter
G1 X155.556 Y139.932 E0.04853 ; perimeter
G1 X154.943 Y140.420 E0.02456 ; perimeter
G1 X153.680 Y141.349 E0.04917 ; perimeter
G1 X152.407 Y142.192 E0.04789 ; perimeter
G1 X151.741 Y142.598 E0.02444 ; perimeter
G1 X151.048 Y142.996 E0.02508 ; perimeter
G1 X149.696 Y143.707 E0.04789 ; perimeter
G1 X148.036 Y144.477 E0.05736 ; perimeter
G1 X146.093 Y145.293 E0.06609 ; perimeter
G1 X144.120 Y146.036 E0.06609 ; perimeter
G1 X142.122 Y146.706 E0.06609 ; perimeter
G1 X140.073 Y147.309 E0.06696 ; perimeter
G1 X138.060 Y147.821 E0.06513 ; perimeter
G1 X137.027 Y148.054 E0.03321 ; perimeter
G1 X134.961 Y148.460 E0.06600 ; perimeter
G1 X132.879 Y148.790 E0.06609 ; perimeter
G1 X130.759 Y149.045 E0.06696 ; perimeter
G1 X128.689 Y149.218 E0.06513 ; perimeter
G1 X127.631 Y149.276 E0.03321 ; perimeter
G1 X125.530 Y149.335 E0.06592 ; perimeter
G1 X124.442 Y149.334 E0.03409 ; perimeter
G1 X122.366 Y149.276 E0.06513 ; perimeter
G1 X120.263 Y149.140 E0.06609 ; perimeter
G1 X118.166 Y148.926 E0.06609 ; perimeter
G1 X116.078 Y148.635 E0.06609 ; perimeter
G1 X114.003 Y148.267 E0.06609 ; perimeter
G1 X111.915 Y147.815 E0.06696 ; perimeter
G1 X109.903 Y147.302 E0.06513 ; perimeter
G1 X108.884 Y147.012 E0.03321 ; perimeter
G1 X106.878 Y146.381 E0.06592 ; perimeter
G1 X105.851 Y146.026 E0.03409 ; perimeter
G1 X103.907 Y145.293 E0.06513 ; perimeter
G1 X101.964 Y144.477 E0.06609 ; perimeter
G1 X100.304 Y143.707 E0.05737 ; perimeter
G1 X98.934 Y142.986 E0.04853 ; perimeter
G1 X98.256 Y142.596 E0.02455 ; perimeter
G1 X96.944 Y141.774 E0.04853 ; perimeter
G1 X95.675 Y140.888 E0.04853 ; perimeter
G1 X95.051 Y140.415 E0.02456 ; perimeter
G1 X93.837 Y139.422 E0.04916 ; perimeter
G1 X92.704 Y138.398 E0.04789 ; perimeter
G1 X92.144 Y137.851 E0.02455 ; perimeter
G1 X91.077 Y136.730 E0.04853 ; perimeter
G1 X90.068 Y135.556 E0.04853 ; perimeter
G1 X89.580 Y134.943 E0.02455 ; perimeter
G1 X88.664 Y133.700 E0.04841 ; perimeter
G1 X88.224 Y133.053 E0.02455 ; perimeter
G1 X87.402 Y131.741 E0.04853 ; perimeter
G1 X86.647 Y130.390 E0.04853 ; perimeter
G1 X86.291 Y129.693 E0.02455 ; perimeter
G1 X85.523 Y128.036 E0.05725 ; perimeter
G1 X84.707 Y126.093 E0.06609 ; perimeter
G1 X83.964 Y124.120 E0.06609 ; perimeter
G1 X83.286 Y122.095 E0.06696 ; perimeter
G1 X82.699 Y120.103 E0.06513 ; perimeter
G1 X82.428 Y119.079 E0.03321 ; perimeter
G1 X81.946 Y117.029 E0.06600 ; perimeter
G1 X81.540 Y114.961 E0.06609 ; perimeter
G1 X81.210 Y112.879 E0.06609 ; perimeter
G1 X80.955 Y110.759 E0.06696 ; perimeter
G1 X80.782 Y108.689 E0.06513 ; perimeter
G1 X80.724 Y107.631 E0.03321 ; perimeter
G1 X80.665 Y105.527 E0.06600 ; perimeter
G1 X80.685 Y103.419 E0.06609 ; perimeter
G1 X80.784 Y101.286 E0.06696 ; perimeter
G1 X80.957 Y99.216 E0.06513 ; perimeter
G1 X81.074 Y98.163 E0.03321 ; perimeter
G1 X81.365 Y96.078 E0.06600 ; perimeter
G1 X81.733 Y94.003 E0.06609 ; perimeter
G1 X82.185 Y91.915 E0.06696 ; perimeter
G1 X82.698 Y89.903 E0.06513 ; perimeter
G1 X82.988 Y88.884 E0.03321 ; perimeter
G1 X83.620 Y86.876 E0.06600 ; perimeter
G1 X84.326 Y84.890 E0.06609 ; perimeter
G1 X85.105 Y82.934 E0.06600 ; perimeter
G1 X85.524 Y81.961 E0.03322 ; perimeter
G1 X86.293 Y80.304 E0.05728 ; perimeter
G1 X87.014 Y78.934 E0.04853 ; perimeter
G1 X87.404 Y78.256 E0.02455 ; perimeter
G1 X88.224 Y76.947 E0.04841 ; perimeter
G1 X88.664 Y76.300 E0.02455 ; perimeter
G1 X89.580 Y75.057 E0.04841 ; perimeter
G1 X89.953 Y74.588 E0.01879 ; perimeter
G1 X90.248 Y74.823 F10800.000 ; move to first perimeter point
G1 F1200
G1 X91.357 Y73.523 E0.05355 ; perimeter
G1 X92.413 Y72.413 E0.04805 ; perimeter
G1 X93.539 Y71.343 E0.04869 ; perimeter
G1 X94.684 Y70.359 E0.04737 ; perimeter
G1 X95.286 Y69.880 E0.02411 ; perimeter
G1 X96.519 Y68.971 E0.04801 ; perimeter
G1 X97.795 Y68.126 E0.04801 ; perimeter
G1 X98.451 Y67.727 E0.02407 ; perimeter
G1 X99.116 Y67.344 E0.02407 ; perimeter
G1 X100.471 Y66.631 E0.04801 ; perimeter
G1 X102.116 Y65.868 E0.05685 ; perimeter
G1 X104.047 Y65.058 E0.06565 ; perimeter
G1 X106.006 Y64.319 E0.06565 ; perimeter
G1 X108.018 Y63.646 E0.06652 ; perimeter
G1 X109.999 Y63.062 E0.06475 ; perimeter
G1 X111.013 Y62.794 E0.03289 ; perimeter
G1 X113.050 Y62.315 E0.06562 ; perimeter
G1 X115.105 Y61.911 E0.06565 ; perimeter
G1 X117.173 Y61.583 E0.06565 ; perimeter
G1 X119.279 Y61.330 E0.06652 ; perimeter
G1 X121.337 Y61.159 E0.06475 ; perimeter
G1 X122.384 Y61.100 E0.03289 ; perimeter
G1 X124.477 Y61.042 E0.06562 ; perimeter
G1 X126.570 Y61.062 E0.06565 ; perimeter
G1 X128.690 Y61.161 E0.06652 ; perimeter
G1 X130.748 Y61.332 E0.06475 ; perimeter
G1 X131.790 Y61.448 E0.03289 ; perimeter
G1 X133.863 Y61.738 E0.06562 ; perimeter
G1 X135.924 Y62.103 E0.06565 ; perimeter
G1 X137.998 Y62.552 E0.06652 ; perimeter
G1 X139.999 Y63.062 E0.06475 ; perimeter
G1 X141.008 Y63.349 E0.03289 ; perimeter
G1 X143.003 Y63.977 E0.06559 ; perimeter
G1 X143.995 Y64.320 E0.03289 ; perimeter
G1 X145.953 Y65.058 E0.06562 ; perimeter
G1 X147.884 Y65.868 E0.06565 ; perimeter
G1 X149.528 Y66.630 E0.05681 ; perimeter
G1 X150.230 Y66.990 E0.02475 ; perimeter
G1 X151.548 Y67.726 E0.04733 ; perimeter
G1 X152.222 Y68.137 E0.02475 ; perimeter
G1 X153.481 Y68.971 E0.04737 ; perimeter
G1 X154.715 Y69.880 E0.04805 ; perimeter
G1 X155.917 Y70.863 E0.04869 ; perimeter
G1 X157.037 Y71.877 E0.04737 ; perimeter
G1 X157.587 Y72.413 E0.02407 ; perimeter
G1 X158.137 Y72.977 E0.02470 ; perimeter
G1 X159.150 Y74.098 E0.04737 ; perimeter
G1 X160.120 Y75.285 E0.04805 ; perimeter
G1 X161.040 Y76.535 E0.04869 ; perimeter
G1 X161.874 Y77.795 E0.04737 ; perimeter
G1 X162.273 Y78.451 E0.02407 ; perimeter
G1 X162.666 Y79.134 E0.02470 ; perimeter
G1 X163.369 Y80.471 E0.04737 ; perimeter
G1 X164.132 Y82.116 E0.05685 ; perimeter
G1 X164.942 Y84.047 E0.06565 ; perimeter
G1 X165.681 Y86.006 E0.06565 ; perimeter
G1 X166.346 Y87.991 E0.06565 ; perimeter
G1 X166.945 Y90.027 E0.06652 ; perimeter
G1 X167.455 Y92.028 E0.06475 ; perimeter
G1 X167.685 Y93.051 E0.03289 ; perimeter
G1 X168.089 Y95.105 E0.06562 ; perimeter
G1 X168.417 Y97.173 E0.06565 ; perimeter
G1 X168.670 Y99.279 E0.06652 ; perimeter
G1 X168.841 Y101.337 E0.06475 ; perimeter
G1 X168.900 Y102.384 E0.03289 ; perimeter
G1 X168.958 Y104.477 E0.06562 ; perimeter
G1 X168.938 Y106.569 E0.06562 ; perimeter
G1 X168.900 Y107.617 E0.03289 ; perimeter
G1 X168.764 Y109.706 E0.06562 ; perimeter
G1 X168.552 Y111.789 E0.06565 ; perimeter
