; generated by Slic3r 1.37.2.1-prusa3d on 2018-04-19 at 07:48:52

; 

; external perimeters extrusion width = 0.45mm
; perimeters extrusion width = 0.45mm
; infill extrusion width = 0.45mm
; solid infill extrusion width = 0.45mm
; top infill extrusion width = 0.40mm
; first layer extrusion width = 0.42mm

M107 ; disable fan
M115 U3.1.1-RC5 ; tell printer latest fw version
M83  ; extruder relative mode
M104 S215 ; set extruder temp
M140 S60 ; set bed temp
M190 S60 ; wait for bed temp
M109 S215 ; wait for extruder temp
G28 W ; home all without mesh bed level
G80 ; mesh bed leveling
G1 Y-3.0 F1000.0 ; go outside print area
G92 E0.0
G1 X60.0 E9.0  F1000.0 ; intro line
G1 X100.0 E12.5  F1000.0 ; intro line
G92 E0.0
M221 S95
M900 K30
G21 ; set units to millimeters
G90 ; use absolute coordinates
M83 ; use relative distances for extrusion
;BEFORE_LAYER_CHANGE
;0.2


G1 E-0.80000 F2100.00000 ; retract
G1 Z0.600 F12000.000 ; lift Z
;AFTER_LAYER_CHANGE
;0.2
G1 X56.560 Y77.448 F12000.000 ; move to first skirt point
G1 Z0.200 F12000.000 ; restore layer Z
G1 E0.80000 F2100.00000 ; unretract
M204 S1000 ; adjust acceleration
G1 F1800
G1 X180.167 Y67.438 E3.88831 ; skirt
G1 X182.183 Y67.357 E0.06325 ; skirt
G1 X190.551 Y67.357 E0.26238 ; skirt
G1 X192.870 Y67.418 E0.07275 ; skirt
G1 X193.754 Y67.623 E0.02844 ; skirt
G1 X194.691 Y68.046 E0.03225 ; skirt
G1 X195.435 Y68.609 E0.02925 ; skirt
G1 X196.003 Y69.290 E0.02782 ; skirt
G1 X196.381 Y70.080 E0.02743 ; skirt
G1 X196.532 Y70.867 E0.02515 ; skirt
G1 X196.350 Y113.994 E1.35223 ; skirt
G1 X196.083 Y115.068 E0.03470 ; skirt
G1 X195.498 Y115.980 E0.03397 ; skirt
G1 X194.566 Y116.761 E0.03812 ; skirt
G1 X193.445 Y117.259 E0.03847 ; skirt
G1 X192.632 Y117.432 E0.02606 ; skirt
G1 X191.853 Y117.483 E0.02447 ; skirt
G1 X182.006 Y117.485 E0.30874 ; skirt
G1 X179.998 Y117.404 E0.06304 ; skirt
G1 X56.831 Y107.475 E3.87432 ; skirt
G1 X56.134 Y107.309 E0.02249 ; skirt
G1 X55.517 Y106.943 E0.02249 ; skirt
G1 X55.038 Y106.409 E0.02249 ; skirt
G1 X54.739 Y105.753 E0.02260 ; skirt
G1 X53.482 Y95.715 E0.31721 ; skirt
G1 X53.663 Y89.128 E0.20659 ; skirt
G1 X54.900 Y79.165 E0.31477 ; skirt
G1 X55.127 Y78.585 E0.01953 ; skirt
G1 X55.500 Y78.082 E0.01965 ; skirt
G1 X55.988 Y77.695 E0.01953 ; skirt
G1 X56.505 Y77.472 E0.01765 ; skirt
G1 F9600
G1 X60.150 Y77.176 E-0.76000 ; wipe and retract
G1 E-0.04000 F2100.00000 ; retract
G1 Z0.800 F12000.000 ; lift Z
G1 X75.219 Y103.693 F12000.000 ; move to first perimeter point
G1 Z0.200 F12000.000 ; restore layer Z
G1 E0.80000 F2100.00000 ; unretract
G1 F1800
G1 X75.135 Y103.874 E0.00623 ; perimeter
G1 X74.998 Y104.018 E0.00624 ; perimeter
G1 X74.822 Y104.111 E0.00623 ; perimeter
G1 X74.645 Y104.140 E0.00564 ; perimeter
G1 X72.524 Y104.134 E0.06650 ; perimeter
G1 X72.246 Y104.010 E0.00956 ; perimeter
G1 X72.067 Y103.768 E0.00941 ; perimeter
G1 X72.025 Y103.580 E0.00604 ; perimeter
G1 X71.730 Y97.938 E0.17714 ; perimeter
G1 X71.779 Y97.685 E0.00809 ; perimeter
G1 X71.896 Y97.513 E0.00650 ; perimeter
G1 X72.061 Y97.388 E0.00651 ; perimeter
G1 X72.315 Y97.325 E0.00819 ; perimeter
G1 X74.444 Y97.331 E0.06677 ; perimeter
G1 X74.723 Y97.455 E0.00956 ; perimeter
G1 X74.901 Y97.697 E0.00941 ; perimeter
G1 X74.943 Y97.885 E0.00604 ; perimeter
G1 X75.238 Y103.515 E0.17677 ; perimeter
G1 X75.225 Y103.633 E0.00375 ; perimeter
G1 X75.358 Y103.835 F12000.000 ; move inwards before travel
G1 F9600
G1 X75.135 Y103.874 E-0.05328 ; wipe and retract
G1 F9600
G1 X74.998 Y104.018 E-0.04137 ; wipe and retract
G1 F9600
G1 X74.822 Y104.111 E-0.04132 ; wipe and retract
G1 F9600
G1 X74.645 Y104.140 E-0.03738 ; wipe and retract
G1 F9600
G1 X72.524 Y104.134 E-0.44073 ; wipe and retract
G1 F9600
G1 X72.246 Y104.010 E-0.06336 ; wipe and retract
G1 F9600
G1 X72.067 Y103.768 E-0.06239 ; wipe and retract
G1 F9600
G1 X72.046 Y103.673 E-0.02017 ; wipe and retract
G1 E-0.04000 F2100.00000 ; retract
G1 Z0.800 F12000.000 ; lift Z
G1 X76.567 Y103.768 F12000.000 ; move to first perimeter point
G1 Z0.200 F12000.000 ; restore layer Z
G1 E0.80000 F2100.00000 ; unretract
G1 F1800
G1 X76.525 Y103.580 E0.00604 ; perimeter
G1 X76.230 Y97.938 E0.17714 ; perimeter
G1 X76.279 Y97.685 E0.00809 ; perimeter
G1 X76.400 Y97.506 E0.00676 ; perimeter
G1 X76.632 Y97.358 E0.00862 ; perimeter
G1 X76.823 Y97.325 E0.00608 ; perimeter
G1 X78.944 Y97.331 E0.06652 ; perimeter
G1 X79.223 Y97.455 E0.00956 ; perimeter
G1 X79.401 Y97.697 E0.00941 ; perimeter
G1 X79.443 Y97.885 E0.00604 ; perimeter
G1 X79.738 Y103.515 E0.17677 ; perimeter
G1 X79.719 Y103.693 E0.00563 ; perimeter
G1 X79.635 Y103.874 E0.00623 ; perimeter
G1 X79.498 Y104.018 E0.00624 ; perimeter
G1 X79.322 Y104.111 E0.00623 ; perimeter
G1 X79.145 Y104.140 E0.00564 ; perimeter
G1 X77.024 Y104.134 E0.06650 ; perimeter
G1 X76.746 Y104.010 E0.00956 ; perimeter
G1 X76.603 Y103.816 E0.00753 ; perimeter
G1 X76.375 Y103.753 F12000.000 ; move inwards before travel
G1 F9600
G1 X76.525 Y103.580 E-0.05168 ; wipe and retract
G1 F9600
G1 X76.347 Y100.176 E-0.70832 ; wipe and retract
G1 E-0.04000 F2100.00000 ; retract
G1 Z0.800 F12000.000 ; lift Z
G1 X81.067 Y103.768 F12000.000 ; move to first perimeter point
G1 Z0.200 F12000.000 ; restore layer Z
G1 E0.80000 F2100.00000 ; unretract
G1 F1800
G1 X81.025 Y103.580 E0.00604 ; perimeter
G1 X80.730 Y97.938 E0.17714 ; perimeter
G1 X80.779 Y97.685 E0.00809 ; perimeter
G1 X80.900 Y97.506 E0.00676 ; perimeter
G1 X81.132 Y97.358 E0.00862 ; perimeter
G1 X81.323 Y97.325 E0.00608 ; perimeter
G1 X83.444 Y97.331 E0.06652 ; perimeter
G1 X83.723 Y97.455 E0.00956 ; perimeter
G1 X83.901 Y97.697 E0.00941 ; perimeter
G1 X83.943 Y97.885 E0.00604 ; perimeter
G1 X84.238 Y103.515 E0.17677 ; perimeter
G1 X84.219 Y103.693 E0.00563 ; perimeter
G1 X84.135 Y103.874 E0.00623 ; perimeter
G1 X83.998 Y104.018 E0.00624 ; perimeter
G1 X83.822 Y104.111 E0.00623 ; perimeter
G1 X83.645 Y104.140 E0.00564 ; perimeter
G1 X81.524 Y104.134 E0.06650 ; perimeter
G1 X81.246 Y104.010 E0.00956 ; perimeter
G1 X81.103 Y103.816 E0.00753 ; perimeter
G1 X80.875 Y103.753 F12000.000 ; move inwards before travel
G1 F9600
G1 X81.025 Y103.580 E-0.05168 ; wipe and retract
G1 F9600
G1 X80.847 Y100.176 E-0.70832 ; wipe and retract
G1 E-0.04000 F2100.00000 ; retract
G1 Z0.800 F12000.000 ; lift Z
G1 X89.567 Y103.768 F12000.000 ; move to first perimeter point
G1 Z0.200 F12000.000 ; restore layer Z
G1 E0.80000 F2100.00000 ; unretract
G1 F1800
G1 X89.525 Y103.580 E0.00604 ; perimeter
G1 X89.230 Y97.938 E0.17714 ; perimeter
G1 X89.279 Y97.685 E0.00809 ; perimeter
G1 X89.400 Y97.506 E0.00676 ; perimeter
G1 X89.632 Y97.358 E0.00862 ; perimeter
G1 X89.823 Y97.325 E0.00608 ; perimeter
G1 X91.944 Y97.331 E0.06652 ; perimeter
G1 X92.223 Y97.455 E0.00956 ; perimeter
G1 X92.401 Y97.697 E0.00941 ; perimeter
G1 X92.443 Y97.885 E0.00604 ; perimeter
G1 X92.738 Y103.515 E0.17677 ; perimeter
G1 X92.719 Y103.693 E0.00563 ; perimeter
G1 X92.635 Y103.874 E0.00623 ; perimeter
G1 X92.498 Y104.018 E0.00624 ; perimeter
G1 X92.322 Y104.111 E0.00623 ; perimeter
G1 X92.145 Y104.140 E0.00564 ; perimeter
G1 X90.024 Y104.134 E0.06650 ; perimeter
G1 X89.746 Y104.010 E0.00956 ; perimeter
G1 X89.603 Y103.816 E0.00753 ; perimeter
G1 X89.375 Y103.753 F12000.000 ; move inwards before travel
G1 F9600
G1 X89.525 Y103.580 E-0.05168 ; wipe and retract
G1 F9600
G1 X89.347 Y100.176 E-0.70832 ; wipe and retract
G1 E-0.04000 F2100.00000 ; retract
G1 Z0.800 F12000.000 ; lift Z
G1 X94.067 Y103.768 F12000.000 ; move to first perimeter point
G1 Z0.200 F12000.000 ; restore layer Z
G1 E0.80000 F2100.00000 ; unretract
G1 F1800
G1 X94.025 Y103.580 E0.00604 ; perimeter
G1 X93.730 Y97.938 E0.17714 ; perimeter
G1 X93.779 Y97.685 E0.00809 ; perimeter
G1 X93.900 Y97.506 E0.00676 ; perimeter
G1 X94.132 Y97.358 E0.00862 ; perimeter
G1 X94.323 Y97.325 E0.00608 ; perimeter
G1 X96.444 Y97.331 E0.06652 ; perimeter
G1 X96.723 Y97.455 E0.00956 ; perimeter
G1 X96.901 Y97.697 E0.00941 ; perimeter
G1 X96.943 Y97.885 E0.00604 ; perimeter
G1 X97.238 Y103.515 E0.17677 ; perimeter
G1 X97.219 Y103.693 E0.00563 ; perimeter
G1 X97.135 Y103.874 E0.00623 ; perimeter
G1 X96.998 Y104.018 E0.00624 ; perimeter
G1 X96.822 Y104.111 E0.00623 ; perimeter
G1 X96.645 Y104.140 E0.00564 ; perimeter
G1 X94.524 Y104.134 E0.06650 ; perimeter
G1 X94.246 Y104.010 E0.00956 ; perimeter
G1 X94.103 Y103.816 E0.00753 ; perimeter
G1 X93.875 Y103.753 F12000.000 ; move inwards before travel
G1 F9600
G1 X94.025 Y103.580 E-0.05168 ; wipe and retract
G1 F9600
G1 X93.847 Y100.176 E-0.70832 ; wipe and retract
G1 E-0.04000 F2100.00000 ; retract
G1 Z0.800 F12000.000 ; lift Z
G1 X98.567 Y103.768 F12000.000 ; move to first perimeter point
G1 Z0.200 F12000.000 ; restore layer Z
G1 E0.80000 F2100.00000 ; unretract
G1 F1800
G1 X98.525 Y103.580 E0.00604 ; perimeter
G1 X98.230 Y97.938 E0.17714 ; perimeter
G1 X98.279 Y97.685 E0.00809 ; perimeter
G1 X98.400 Y97.506 E0.00676 ; perimeter
G1 X98.632 Y97.358 E0.00862 ; perimeter
G1 X98.823 Y97.325 E0.00608 ; perimeter
G1 X100.944 Y97.331 E0.06652 ; perimeter
G1 X101.223 Y97.455 E0.00956 ; perimeter
G1 X101.401 Y97.697 E0.00941 ; perimeter
G1 X101.443 Y97.885 E0.00604 ; perimeter
G1 X101.738 Y103.515 E0.17677 ; perimeter
G1 X101.719 Y103.693 E0.00563 ; perimeter
G1 X101.635 Y103.874 E0.00623 ; perimeter
G1 X101.498 Y104.018 E0.00624 ; perimeter
G1 X101.322 Y104.111 E0.00623 ; perimeter
G1 X101.145 Y104.140 E0.00564 ; perimeter
G1 X99.024 Y104.134 E0.06650 ; perimeter
G1 X98.746 Y104.010 E0.00956 ; perimeter
G1 X98.603 Y103.816 E0.00753 ; perimeter
G1 X98.375 Y103.753 F12000.000 ; move inwards before travel
G1 X98.426 Y104.211 F12000.000 ; move to first perimeter point
G1 F1800
G1 X97.335 Y104.211 E0.03422 ; perimeter
G1 X97.452 Y104.088 E0.00533 ; perimeter
G1 X97.587 Y103.795 E0.01011 ; perimeter
G1 X97.616 Y103.525 E0.00852 ; perimeter
G1 X97.318 Y97.833 E0.17872 ; perimeter
G1 X97.252 Y97.536 E0.00953 ; perimeter
G1 X96.967 Y97.151 E0.01502 ; perimeter
G1 X96.525 Y96.954 E0.01517 ; perimeter
G1 X94.291 Y96.948 E0.07004 ; perimeter
G1 X93.993 Y96.999 E0.00950 ; perimeter
G1 X93.632 Y97.231 E0.01345 ; perimeter
G1 X93.424 Y97.537 E0.01159 ; perimeter
G1 X93.351 Y97.911 E0.01196 ; perimeter
G1 X93.650 Y103.631 E0.17960 ; perimeter
G1 X93.717 Y103.928 E0.00953 ; perimeter
G1 X93.926 Y104.212 E0.01105 ; perimeter
G1 X92.834 Y104.212 E0.03424 ; perimeter
G1 X92.952 Y104.088 E0.00534 ; perimeter
G1 X93.087 Y103.795 E0.01011 ; perimeter
G1 X93.116 Y103.525 E0.00852 ; perimeter
G1 X92.818 Y97.833 E0.17872 ; perimeter
G1 X92.752 Y97.536 E0.00953 ; perimeter
G1 X92.467 Y97.151 E0.01502 ; perimeter
G1 X92.025 Y96.954 E0.01517 ; perimeter
G1 X89.791 Y96.948 E0.07004 ; perimeter
G1 X89.493 Y96.999 E0.00950 ; perimeter
G1 X89.132 Y97.231 E0.01345 ; perimeter
G1 X88.924 Y97.537 E0.01159 ; perimeter
G1 X88.851 Y97.911 E0.01196 ; perimeter
G1 X89.150 Y103.631 E0.17960 ; perimeter
G1 X89.217 Y103.928 E0.00953 ; perimeter
G1 X89.427 Y104.212 E0.01107 ; perimeter
G1 X84.333 Y104.213 E0.15969 ; perimeter
G1 X84.452 Y104.088 E0.00538 ; perimeter
G1 X84.587 Y103.795 E0.01011 ; perimeter
G1 X84.616 Y103.525 E0.00852 ; perimeter
G1 X84.318 Y97.833 E0.17872 ; perimeter
G1 X84.252 Y97.536 E0.00953 ; perimeter
G1 X83.967 Y97.151 E0.01502 ; perimeter
G1 X83.525 Y96.954 E0.01517 ; perimeter
G1 X81.291 Y96.948 E0.07004 ; perimeter
G1 X80.993 Y96.999 E0.00950 ; perimeter
G1 X80.632 Y97.231 E0.01345 ; perimeter
G1 X80.424 Y97.537 E0.01159 ; perimeter
G1 X80.351 Y97.911 E0.01196 ; perimeter
G1 X80.650 Y103.632 E0.17960 ; perimeter
G1 X80.717 Y103.928 E0.00953 ; perimeter
G1 X80.927 Y104.213 E0.01110 ; perimeter
G1 X79.833 Y104.213 E0.03431 ; perimeter
G1 X79.952 Y104.088 E0.00540 ; perimeter
G1 X80.087 Y103.795 E0.01011 ; perimeter
G1 X80.116 Y103.525 E0.00852 ; perimeter
G1 X79.818 Y97.833 E0.17872 ; perimeter
G1 X79.752 Y97.536 E0.00953 ; perimeter
G1 X79.467 Y97.151 E0.01502 ; perimeter
G1 X79.025 Y96.954 E0.01517 ; perimeter
G1 X76.791 Y96.948 E0.07004 ; perimeter
G1 X76.493 Y96.999 E0.00950 ; perimeter
G1 X76.132 Y97.231 E0.01346 ; perimeter
G1 X75.924 Y97.537 E0.01159 ; perimeter
G1 X75.851 Y97.911 E0.01196 ; perimeter
G1 X76.150 Y103.632 E0.17960 ; perimeter
G1 X76.217 Y103.928 E0.00953 ; perimeter
G1 X76.427 Y104.213 E0.01112 ; perimeter
G1 X75.333 Y104.213 E0.03433 ; perimeter
G1 X75.452 Y104.088 E0.00542 ; perimeter
G1 X75.587 Y103.795 E0.01011 ; perimeter
G1 X75.616 Y103.525 E0.00852 ; perimeter
G1 X75.318 Y97.833 E0.17872 ; perimeter
G1 X75.252 Y97.536 E0.00953 ; perimeter
G1 X74.967 Y97.151 E0.01502 ; perimeter
G1 X74.525 Y96.954 E0.01517 ; perimeter
G1 X72.269 Y96.948 E0.07073 ; perimeter
G1 X71.895 Y97.040 E0.01208 ; perimeter
G1 X71.619 Y97.250 E0.01089 ; perimeter
G1 X71.424 Y97.537 E0.01086 ; perimeter
G1 X71.351 Y97.911 E0.01196 ; perimeter
G1 X71.650 Y103.631 E0.17960 ; perimeter
G1 X71.717 Y103.928 E0.00953 ; perimeter
G1 X71.928 Y104.214 E0.01114 ; perimeter
G1 X57.508 Y104.215 E0.45211 ; perimeter
G1 X56.554 Y96.446 E0.24543 ; perimeter
G1 X132.839 Y95.782 E2.39195 ; perimeter
G1 X134.629 Y95.797 E0.05613 ; perimeter
G1 X136.540 Y95.844 E0.05994 ; perimeter
G1 X138.441 Y95.925 E0.05966 ; perimeter
G1 X140.150 Y96.030 E0.05367 ; perimeter
G1 X141.878 Y96.168 E0.05436 ; perimeter
G1 X143.585 Y96.338 E0.05377 ; perimeter
G1 X145.250 Y96.537 E0.05260 ; perimeter
G1 X147.036 Y96.788 E0.05654 ; perimeter
G1 X148.742 Y97.064 E0.05418 ; perimeter
G1 X150.383 Y97.364 E0.05232 ; perimeter
G1 X152.036 Y97.699 E0.05286 ; perimeter
G1 X153.843 Y98.102 E0.05805 ; perimeter
G1 X155.526 Y98.511 E0.05431 ; perimeter
G1 X157.357 Y98.992 E0.05937 ; perimeter
G1 X159.175 Y99.503 E0.05919 ; perimeter
G1 X160.955 Y100.036 E0.05828 ; perimeter
G1 X163.460 Y100.834 E0.08243 ; perimeter
G1 X165.984 Y101.693 E0.08361 ; perimeter
G1 X168.654 Y102.653 E0.08895 ; perimeter
G1 X171.429 Y103.702 E0.09303 ; perimeter
G1 X174.409 Y104.877 E0.10043 ; perimeter
G1 X177.460 Y106.125 E0.10335 ; perimeter
G1 X180.759 Y107.521 E0.11233 ; perimeter
G1 X183.912 Y108.898 E0.10788 ; perimeter
G1 X186.413 Y110.025 E0.08601 ; perimeter
G1 X188.526 Y111.017 E0.07319 ; perimeter
G1 X190.213 Y111.861 E0.05914 ; perimeter
G1 X191.469 Y112.550 E0.04492 ; perimeter
G1 X192.312 Y113.080 E0.03123 ; perimeter
G1 X192.614 Y113.301 E0.01174 ; perimeter
G1 X192.856 Y113.507 E0.00995 ; perimeter
G1 X193.009 Y113.671 E0.00703 ; perimeter
G1 X193.074 Y113.773 E0.00380 ; perimeter
G1 X193.001 Y113.861 E0.00359 ; perimeter
G1 X192.836 Y113.986 E0.00648 ; perimeter
G1 X192.704 Y114.054 E0.00466 ; perimeter
G1 X192.347 Y114.168 E0.01175 ; perimeter
G1 X191.893 Y114.215 E0.01431 ; perimeter
G1 X182.073 Y114.220 E0.30791 ; perimeter
G1 X181.036 Y114.203 E0.03252 ; perimeter
G1 X180.249 Y114.149 E0.02473 ; perimeter
G1 X179.466 Y114.054 E0.02475 ; perimeter
G1 X178.687 Y113.913 E0.02482 ; perimeter
G1 X178.093 Y113.773 E0.01914 ; perimeter
G1 X177.505 Y113.604 E0.01918 ; perimeter
G1 X176.925 Y113.407 E0.01920 ; perimeter
G1 X176.360 Y113.182 E0.01908 ; perimeter
G1 X175.806 Y112.926 E0.01911 ; perimeter
G1 X175.265 Y112.643 E0.01914 ; perimeter
G1 X174.220 Y112.006 E0.03838 ; perimeter
G1 X173.633 Y111.599 E0.02239 ; perimeter
G1 X172.490 Y110.721 E0.04520 ; perimeter
G1 X168.829 Y107.619 E0.15046 ; perimeter
G1 X168.016 Y106.966 E0.03268 ; perimeter
G1 X167.133 Y106.293 E0.03481 ; perimeter
G1 X166.225 Y105.651 E0.03488 ; perimeter
G1 X165.290 Y105.046 E0.03491 ; perimeter
G1 X164.333 Y104.481 E0.03486 ; perimeter
G1 X163.495 Y104.031 E0.02982 ; perimeter
G1 X162.642 Y103.611 E0.02979 ; perimeter
G1 X161.775 Y103.223 E0.02980 ; perimeter
G1 X160.893 Y102.867 E0.02981 ; perimeter
G1 X159.998 Y102.544 E0.02983 ; perimeter
G1 X159.093 Y102.254 E0.02982 ; perimeter
G1 X158.178 Y101.996 E0.02980 ; perimeter
G1 X157.253 Y101.768 E0.02989 ; perimeter
G1 X155.638 Y101.444 E0.05164 ; perimeter
G1 X154.005 Y101.205 E0.05175 ; perimeter
G1 X152.375 Y101.052 E0.05134 ; perimeter
G1 X150.737 Y100.982 E0.05138 ; perimeter
G1 X149.097 Y100.997 E0.05143 ; perimeter
G1 X147.464 Y101.105 E0.05131 ; perimeter
