; generated by Slic3r 1.37.2.1-prusa3d on 2018-04-19 at 19:00:37

; 

; external perimeters extrusion width = 0.45mm
; perimeters extrusion width = 0.45mm
; infill extrusion width = 0.45mm
; solid infill extrusion width = 0.45mm
; top infill extrusion width = 0.40mm
; first layer extrusion width = 0.42mm

M107 ; disable fan
M115 U3.1.1-RC5 ; tell printer latest fw version
M83  ; extruder relative mode
M104 S215 ; set extruder temp
M140 S60 ; set bed temp
M190 S60 ; wait for bed temp
M109 S215 ; wait for extruder temp
G28 W ; home all without mesh bed level
G80 ; mesh bed leveling
G1 Y-3.0 F1000.0 ; go outside print area
G92 E0.0
G1 X60.0 E9.0  F1000.0 ; intro line
G1 X100.0 E12.5  F1000.0 ; intro line
G92 E0.0
M221 S95
M900 K30
G21 ; set units to millimeters
G90 ; use absolute coordinates
M83 ; use relative distances for extrusion
;BEFORE_LAYER_CHANGE
;0.2


G1 E-0.80000 F2100.00000 ; retract
G1 Z0.600 F12000.000 ; lift Z
;AFTER_LAYER_CHANGE
;0.2
G1 X56.647 Y106.336 F12000.000 ; move to first skirt point
G1 Z0.200 F12000.000 ; restore layer Z
G1 E0.80000 F2100.00000 ; unretract
M204 S1000 ; adjust acceleration
G1 F1800
G1 X180.355 Y96.325 E3.89146 ; skirt
G1 X182.367 Y96.244 E0.06314 ; skirt
G1 X190.738 Y96.244 E0.26246 ; skirt
G1 X193.157 Y96.321 E0.07587 ; skirt
G1 X193.957 Y96.525 E0.02590 ; skirt
G1 X194.740 Y96.879 E0.02695 ; skirt
G1 X195.485 Y97.428 E0.02901 ; skirt
G1 X196.073 Y98.117 E0.02839 ; skirt
G1 X196.463 Y98.914 E0.02782 ; skirt
G1 X196.624 Y99.710 E0.02547 ; skirt
G1 X196.965 Y142.927 E1.35508 ; skirt
G1 X196.696 Y144.018 E0.03523 ; skirt
G1 X196.055 Y144.996 E0.03668 ; skirt
G1 X195.086 Y145.774 E0.03896 ; skirt
G1 X193.978 Y146.229 E0.03755 ; skirt
G1 X192.556 Y146.411 E0.04495 ; skirt
G1 X182.712 Y146.413 E0.30867 ; skirt
G1 X180.703 Y146.332 E0.06303 ; skirt
G1 X57.439 Y136.403 E3.87738 ; skirt
G1 X56.742 Y136.236 E0.02249 ; skirt
G1 X56.126 Y135.868 E0.02249 ; skirt
G1 X55.648 Y135.334 E0.02249 ; skirt
G1 X55.351 Y134.685 E0.02237 ; skirt
G1 X54.195 Y125.486 E0.29069 ; skirt
G1 X53.849 Y117.266 E0.25797 ; skirt
G1 X54.995 Y108.034 E0.29169 ; skirt
G1 X55.223 Y107.462 E0.01929 ; skirt
G1 X55.593 Y106.966 E0.01941 ; skirt
G1 X56.079 Y106.582 E0.01941 ; skirt
G1 X56.592 Y106.360 E0.01753 ; skirt
G1 F9600
G1 X60.237 Y106.065 E-0.76000 ; wipe and retract
G1 E-0.04000 F2100.00000 ; retract
G1 Z0.800 F12000.000 ; lift Z
G1 X77.243 Y126.285 F12000.000 ; move to first perimeter point
G1 Z0.200 F12000.000 ; restore layer Z
G1 E0.80000 F2100.00000 ; unretract
G1 F1800
G1 X77.434 Y126.253 E0.00608 ; perimeter
G1 X79.556 Y126.258 E0.06652 ; perimeter
G1 X79.834 Y126.383 E0.00956 ; perimeter
G1 X80.013 Y126.624 E0.00941 ; perimeter
G1 X80.055 Y126.812 E0.00604 ; perimeter
G1 X80.350 Y132.442 E0.17677 ; perimeter
G1 X80.330 Y132.621 E0.00563 ; perimeter
G1 X80.247 Y132.802 E0.00623 ; perimeter
G1 X80.110 Y132.946 E0.00624 ; perimeter
G1 X79.934 Y133.039 E0.00623 ; perimeter
G1 X79.756 Y133.068 E0.00564 ; perimeter
G1 X77.635 Y133.062 E0.06650 ; perimeter
G1 X77.357 Y132.937 E0.00956 ; perimeter
G1 X77.179 Y132.696 E0.00941 ; perimeter
G1 X77.137 Y132.508 E0.00604 ; perimeter
G1 X76.841 Y126.866 E0.17715 ; perimeter
G1 X76.891 Y126.613 E0.00809 ; perimeter
G1 X77.012 Y126.434 E0.00676 ; perimeter
G1 X77.193 Y126.318 E0.00674 ; perimeter
G1 X77.274 Y126.094 F12000.000 ; move inwards before travel
G1 X76.994 Y125.998 F12000.000 ; move to first perimeter point
G1 F1800
G1 X76.743 Y126.159 E0.00935 ; perimeter
G1 X76.535 Y126.465 E0.01159 ; perimeter
G1 X76.462 Y126.839 E0.01196 ; perimeter
G1 X76.762 Y132.559 E0.17960 ; perimeter
G1 X76.828 Y132.856 E0.00953 ; perimeter
G1 X77.039 Y133.141 E0.01112 ; perimeter
G1 X75.944 Y133.141 E0.03433 ; perimeter
G1 X76.063 Y133.016 E0.00542 ; perimeter
G1 X76.198 Y132.723 E0.01011 ; perimeter
G1 X76.228 Y132.453 E0.00852 ; perimeter
G1 X75.929 Y126.761 E0.17872 ; perimeter
G1 X75.863 Y126.464 E0.00953 ; perimeter
G1 X75.579 Y126.079 E0.01502 ; perimeter
G1 X75.426 Y126.011 E0.00523 ; perimeter
G1 X76.934 Y125.998 E0.04727 ; perimeter
G1 F9600
G1 X76.743 Y126.159 E-0.05184 ; wipe and retract
G1 F9600
G1 X76.535 Y126.465 E-0.07684 ; wipe and retract
G1 F9600
G1 X76.462 Y126.839 E-0.07929 ; wipe and retract
G1 F9600
G1 X76.601 Y129.492 E-0.55203 ; wipe and retract
G1 E-0.04000 F2100.00000 ; retract
G1 Z0.800 F12000.000 ; lift Z
G1 X75.513 Y126.624 F12000.000 ; move to first perimeter point
G1 Z0.200 F12000.000 ; restore layer Z
G1 E0.80000 F2100.00000 ; unretract
G1 F1800
G1 X75.555 Y126.812 E0.00604 ; perimeter
G1 X75.850 Y132.442 E0.17677 ; perimeter
G1 X75.830 Y132.621 E0.00563 ; perimeter
G1 X75.747 Y132.802 E0.00623 ; perimeter
G1 X75.610 Y132.946 E0.00624 ; perimeter
G1 X75.434 Y133.039 E0.00623 ; perimeter
G1 X75.256 Y133.068 E0.00564 ; perimeter
G1 X73.135 Y133.062 E0.06650 ; perimeter
G1 X72.857 Y132.937 E0.00956 ; perimeter
G1 X72.679 Y132.696 E0.00941 ; perimeter
G1 X72.637 Y132.508 E0.00604 ; perimeter
G1 X72.341 Y126.866 E0.17714 ; perimeter
G1 X72.391 Y126.613 E0.00809 ; perimeter
G1 X72.512 Y126.434 E0.00676 ; perimeter
G1 X72.743 Y126.285 E0.00862 ; perimeter
G1 X72.934 Y126.253 E0.00608 ; perimeter
G1 X75.056 Y126.258 E0.06652 ; perimeter
G1 X75.334 Y126.383 E0.00956 ; perimeter
G1 X75.477 Y126.576 E0.00753 ; perimeter
G1 X75.705 Y126.640 F12000.000 ; move inwards before travel
G1 F9600
G1 X75.555 Y126.812 E-0.05168 ; wipe and retract
G1 F9600
G1 X75.733 Y130.216 E-0.70832 ; wipe and retract
G1 E-0.04000 F2100.00000 ; retract
G1 Z0.800 F12000.000 ; lift Z
G1 X72.433 Y126.037 F12000.000 ; move to first perimeter point
G1 Z0.200 F12000.000 ; restore layer Z
G1 E0.80000 F2100.00000 ; unretract
G1 F1800
G1 X72.243 Y126.159 E0.00706 ; perimeter
G1 X72.035 Y126.465 E0.01159 ; perimeter
G1 X71.962 Y126.839 E0.01196 ; perimeter
G1 X72.262 Y132.559 E0.17960 ; perimeter
G1 X72.328 Y132.856 E0.00953 ; perimeter
G1 X72.539 Y133.142 E0.01114 ; perimeter
G1 X58.120 Y133.143 E0.45211 ; perimeter
G1 X57.263 Y126.168 E0.22034 ; perimeter
G1 X72.373 Y126.037 E0.47376 ; perimeter
G1 F9600
G1 X72.243 Y126.159 E-0.03688 ; wipe and retract
G1 F9600
G1 X72.035 Y126.465 E-0.07684 ; wipe and retract
G1 F9600
G1 X71.962 Y126.839 E-0.07929 ; wipe and retract
G1 F9600
G1 X72.105 Y129.564 E-0.56699 ; wipe and retract
G1 E-0.04000 F2100.00000 ; retract
G1 Z0.800 F12000.000 ; lift Z
G1 X79.841 Y125.973 F12000.000 ; move to first perimeter point
G1 Z0.200 F12000.000 ; restore layer Z
G1 E0.80000 F2100.00000 ; unretract
G1 F1800
G1 X81.555 Y125.958 E0.05375 ; perimeter
G1 X81.243 Y126.159 E0.01163 ; perimeter
G1 X81.035 Y126.465 E0.01159 ; perimeter
G1 X80.962 Y126.839 E0.01196 ; perimeter
G1 X81.262 Y132.559 E0.17960 ; perimeter
G1 X81.328 Y132.856 E0.00953 ; perimeter
G1 X81.539 Y133.141 E0.01110 ; perimeter
G1 X80.444 Y133.141 E0.03431 ; perimeter
G1 X80.563 Y133.016 E0.00540 ; perimeter
G1 X80.698 Y132.723 E0.01011 ; perimeter
G1 X80.728 Y132.453 E0.00852 ; perimeter
G1 X80.429 Y126.761 E0.17872 ; perimeter
G1 X80.363 Y126.464 E0.00953 ; perimeter
G1 X80.079 Y126.079 E0.01502 ; perimeter
G1 X79.896 Y125.997 E0.00628 ; perimeter
G1 F9600
G1 X81.555 Y125.958 E-0.34493 ; wipe and retract
G1 F9600
G1 X81.243 Y126.159 E-0.07708 ; wipe and retract
G1 F9600
G1 X81.035 Y126.465 E-0.07685 ; wipe and retract
G1 F9600
G1 X80.962 Y126.839 E-0.07929 ; wipe and retract
G1 F9600
G1 X81.008 Y127.713 E-0.18185 ; wipe and retract
G1 E-0.04000 F2100.00000 ; retract
G1 Z0.800 F12000.000 ; lift Z
G1 X81.743 Y126.285 F12000.000 ; move to first perimeter point
G1 Z0.200 F12000.000 ; restore layer Z
G1 E0.80000 F2100.00000 ; unretract
G1 F1800
G1 X81.934 Y126.253 E0.00608 ; perimeter
G1 X84.056 Y126.258 E0.06652 ; perimeter
G1 X84.334 Y126.383 E0.00956 ; perimeter
G1 X84.513 Y126.624 E0.00941 ; perimeter
G1 X84.555 Y126.812 E0.00604 ; perimeter
G1 X84.850 Y132.442 E0.17677 ; perimeter
G1 X84.830 Y132.621 E0.00563 ; perimeter
G1 X84.747 Y132.802 E0.00623 ; perimeter
G1 X84.610 Y132.946 E0.00624 ; perimeter
G1 X84.434 Y133.039 E0.00623 ; perimeter
G1 X84.256 Y133.068 E0.00564 ; perimeter
G1 X82.135 Y133.062 E0.06650 ; perimeter
G1 X81.857 Y132.937 E0.00956 ; perimeter
G1 X81.679 Y132.696 E0.00941 ; perimeter
G1 X81.637 Y132.508 E0.00604 ; perimeter
G1 X81.341 Y126.866 E0.17714 ; perimeter
G1 X81.391 Y126.613 E0.00809 ; perimeter
G1 X81.512 Y126.434 E0.00676 ; perimeter
G1 X81.693 Y126.318 E0.00674 ; perimeter
G1 X81.774 Y126.094 F12000.000 ; move inwards before travel
G1 F9600
G1 X81.934 Y126.253 E-0.05197 ; wipe and retract
G1 F9600
G1 X84.056 Y126.258 E-0.44089 ; wipe and retract
G1 F9600
G1 X84.334 Y126.383 E-0.06336 ; wipe and retract
G1 F9600
G1 X84.513 Y126.624 E-0.06239 ; wipe and retract
G1 F9600
G1 X84.555 Y126.812 E-0.04003 ; wipe and retract
G1 F9600
G1 X84.580 Y127.299 E-0.10136 ; wipe and retract
G1 E-0.04000 F2100.00000 ; retract
G1 Z0.800 F12000.000 ; lift Z
G1 X84.256 Y125.935 F12000.000 ; move to first perimeter point
G1 Z0.200 F12000.000 ; restore layer Z
G1 E0.80000 F2100.00000 ; unretract
G1 F1800
G1 X90.366 Y125.882 E0.19159 ; perimeter
G1 X90.104 Y125.927 E0.00833 ; perimeter
G1 X89.743 Y126.159 E0.01345 ; perimeter
G1 X89.535 Y126.465 E0.01159 ; perimeter
G1 X89.462 Y126.839 E0.01196 ; perimeter
G1 X89.762 Y132.559 E0.17960 ; perimeter
G1 X89.828 Y132.856 E0.00953 ; perimeter
G1 X90.038 Y133.140 E0.01107 ; perimeter
G1 X84.945 Y133.141 E0.15969 ; perimeter
G1 X85.063 Y133.016 E0.00538 ; perimeter
G1 X85.198 Y132.723 E0.01011 ; perimeter
G1 X85.228 Y132.453 E0.00852 ; perimeter
G1 X84.929 Y126.761 E0.17872 ; perimeter
G1 X84.863 Y126.464 E0.00953 ; perimeter
G1 X84.579 Y126.079 E0.01502 ; perimeter
G1 X84.311 Y125.959 E0.00921 ; perimeter
G1 F9600
G1 X87.967 Y125.913 E-0.76000 ; wipe and retract
G1 E-0.04000 F2100.00000 ; retract
G1 Z0.800 F12000.000 ; lift Z
G1 X90.243 Y126.285 F12000.000 ; move to first perimeter point
G1 Z0.200 F12000.000 ; restore layer Z
G1 E0.80000 F2100.00000 ; unretract
G1 F1800
G1 X90.434 Y126.253 E0.00608 ; perimeter
G1 X92.556 Y126.258 E0.06652 ; perimeter
G1 X92.834 Y126.383 E0.00956 ; perimeter
G1 X93.013 Y126.624 E0.00941 ; perimeter
G1 X93.055 Y126.812 E0.00604 ; perimeter
G1 X93.350 Y132.442 E0.17677 ; perimeter
G1 X93.330 Y132.621 E0.00563 ; perimeter
G1 X93.247 Y132.802 E0.00623 ; perimeter
G1 X93.110 Y132.946 E0.00624 ; perimeter
G1 X92.934 Y133.039 E0.00623 ; perimeter
G1 X92.756 Y133.068 E0.00564 ; perimeter
G1 X90.635 Y133.062 E0.06650 ; perimeter
G1 X90.357 Y132.937 E0.00956 ; perimeter
G1 X90.179 Y132.696 E0.00941 ; perimeter
G1 X90.137 Y132.508 E0.00604 ; perimeter
G1 X89.841 Y126.866 E0.17714 ; perimeter
G1 X89.891 Y126.613 E0.00809 ; perimeter
G1 X90.012 Y126.434 E0.00676 ; perimeter
G1 X90.193 Y126.318 E0.00674 ; perimeter
G1 X90.274 Y126.094 F12000.000 ; move inwards before travel
G1 F9600
G1 X90.434 Y126.253 E-0.05197 ; wipe and retract
G1 F9600
G1 X92.556 Y126.258 E-0.44090 ; wipe and retract
G1 F9600
G1 X92.834 Y126.383 E-0.06336 ; wipe and retract
G1 F9600
G1 X93.013 Y126.624 E-0.06239 ; wipe and retract
G1 F9600
G1 X93.055 Y126.812 E-0.04003 ; wipe and retract
G1 F9600
G1 X93.080 Y127.299 E-0.10135 ; wipe and retract
G1 E-0.04000 F2100.00000 ; retract
G1 Z0.800 F12000.000 ; lift Z
G1 X94.743 Y126.285 F12000.000 ; move to first perimeter point
G1 Z0.200 F12000.000 ; restore layer Z
G1 E0.80000 F2100.00000 ; unretract
G1 F1800
G1 X94.934 Y126.253 E0.00608 ; perimeter
G1 X97.056 Y126.258 E0.06652 ; perimeter
G1 X97.334 Y126.383 E0.00956 ; perimeter
G1 X97.513 Y126.624 E0.00941 ; perimeter
G1 X97.555 Y126.812 E0.00604 ; perimeter
G1 X97.850 Y132.442 E0.17677 ; perimeter
G1 X97.830 Y132.621 E0.00563 ; perimeter
G1 X97.747 Y132.802 E0.00623 ; perimeter
G1 X97.610 Y132.946 E0.00624 ; perimeter
G1 X97.434 Y133.039 E0.00623 ; perimeter
G1 X97.256 Y133.068 E0.00564 ; perimeter
G1 X95.135 Y133.062 E0.06650 ; perimeter
G1 X94.857 Y132.937 E0.00956 ; perimeter
G1 X94.679 Y132.696 E0.00941 ; perimeter
G1 X94.637 Y132.508 E0.00604 ; perimeter
G1 X94.341 Y126.866 E0.17714 ; perimeter
G1 X94.391 Y126.613 E0.00809 ; perimeter
G1 X94.512 Y126.434 E0.00676 ; perimeter
G1 X94.693 Y126.318 E0.00674 ; perimeter
G1 X94.774 Y126.094 F12000.000 ; move inwards before travel
G1 F9600
G1 X94.934 Y126.253 E-0.05197 ; wipe and retract
G1 F9600
G1 X97.056 Y126.258 E-0.44090 ; wipe and retract
G1 F9600
G1 X97.334 Y126.383 E-0.06336 ; wipe and retract
G1 F9600
G1 X97.513 Y126.624 E-0.06239 ; wipe and retract
G1 F9600
G1 X97.555 Y126.812 E-0.04003 ; wipe and retract
G1 F9600
G1 X97.580 Y127.299 E-0.10135 ; wipe and retract
G1 E-0.04000 F2100.00000 ; retract
G1 Z0.800 F12000.000 ; lift Z
G1 X99.243 Y126.285 F12000.000 ; move to first perimeter point
G1 Z0.200 F12000.000 ; restore layer Z
G1 E0.80000 F2100.00000 ; unretract
G1 F1800
G1 X99.434 Y126.253 E0.00608 ; perimeter
G1 X101.556 Y126.258 E0.06652 ; perimeter
G1 X101.834 Y126.383 E0.00956 ; perimeter
G1 X102.013 Y126.624 E0.00941 ; perimeter
G1 X102.055 Y126.812 E0.00604 ; perimeter
G1 X102.350 Y132.442 E0.17677 ; perimeter
G1 X102.330 Y132.621 E0.00563 ; perimeter
G1 X102.247 Y132.802 E0.00623 ; perimeter
G1 X102.110 Y132.946 E0.00624 ; perimeter
G1 X101.934 Y133.039 E0.00623 ; perimeter
G1 X101.756 Y133.068 E0.00564 ; perimeter
G1 X99.635 Y133.062 E0.06650 ; perimeter
G1 X99.357 Y132.937 E0.00956 ; perimeter
G1 X99.179 Y132.696 E0.00941 ; perimeter
G1 X99.137 Y132.508 E0.00604 ; perimeter
G1 X98.841 Y126.866 E0.17714 ; perimeter
G1 X98.891 Y126.613 E0.00809 ; perimeter
G1 X99.012 Y126.434 E0.00676 ; perimeter
G1 X99.193 Y126.318 E0.00674 ; perimeter
G1 X99.274 Y126.094 F12000.000 ; move inwards before travel
G1 F9600
G1 X99.434 Y126.253 E-0.05197 ; wipe and retract
G1 F9600
G1 X101.556 Y126.258 E-0.44089 ; wipe and retract
G1 F9600
G1 X101.834 Y126.383 E-0.06336 ; wipe and retract
G1 F9600
G1 X102.013 Y126.624 E-0.06239 ; wipe and retract
G1 F9600
G1 X102.055 Y126.812 E-0.04003 ; wipe and retract
G1 F9600
G1 X102.080 Y127.299 E-0.10136 ; wipe and retract
G1 E-0.04000 F2100.00000 ; retract
G1 Z0.800 F12000.000 ; lift Z
G1 X102.079 Y126.079 F12000.000 ; move to first perimeter point
G1 Z0.200 F12000.000 ; restore layer Z
G1 E0.80000 F2100.00000 ; unretract
G1 F1800
G1 X101.637 Y125.882 E0.01517 ; perimeter
G1 X99.403 Y125.876 E0.07004 ; perimeter
G1 X99.104 Y125.927 E0.00950 ; perimeter
G1 X98.743 Y126.159 E0.01345 ; perimeter
G1 X98.535 Y126.465 E0.01159 ; perimeter
G1 X98.462 Y126.839 E0.01196 ; perimeter
G1 X98.762 Y132.559 E0.17960 ; perimeter
G1 X98.828 Y132.856 E0.00953 ; perimeter
G1 X99.037 Y133.139 E0.01104 ; perimeter
G1 X97.946 Y133.139 E0.03422 ; perimeter
G1 X98.063 Y133.016 E0.00533 ; perimeter
G1 X98.198 Y132.723 E0.01011 ; perimeter
G1 X98.228 Y132.453 E0.00852 ; perimeter
G1 X97.929 Y126.761 E0.17872 ; perimeter
G1 X97.863 Y126.464 E0.00953 ; perimeter
G1 X97.579 Y126.079 E0.01502 ; perimeter
G1 X97.137 Y125.882 E0.01517 ; perimeter
G1 X94.903 Y125.876 E0.07004 ; perimeter
G1 X94.604 Y125.927 E0.00950 ; perimeter
G1 X94.243 Y126.159 E0.01345 ; perimeter
G1 X94.035 Y126.465 E0.01159 ; perimeter
G1 X93.962 Y126.839 E0.01196 ; perimeter
G1 X94.262 Y132.559 E0.17960 ; perimeter
G1 X94.328 Y132.856 E0.00953 ; perimeter
G1 X94.538 Y133.140 E0.01106 ; perimeter
G1 X93.446 Y133.140 E0.03424 ; perimeter
G1 X93.563 Y133.016 E0.00535 ; perimeter
G1 X93.698 Y132.723 E0.01011 ; perimeter
G1 X93.728 Y132.453 E0.00852 ; perimeter
G1 X93.429 Y126.761 E0.17872 ; perimeter
G1 X93.363 Y126.464 E0.00953 ; perimeter
G1 X93.079 Y126.079 E0.01502 ; perimeter
G1 X92.637 Y125.882 E0.01517 ; perimeter
G1 X90.933 Y125.877 E0.05343 ; perimeter
G1 X134.704 Y125.499 E1.37247 ; perimeter
G1 X138.748 Y125.547 E0.12679 ; perimeter
G1 X140.708 Y125.612 E0.06150 ; perimeter
G1 X142.417 Y125.696 E0.05366 ; perimeter
G1 X144.121 Y125.809 E0.05353 ; perimeter
G1 X145.849 Y125.956 E0.05437 ; perimeter
G1 X147.479 Y126.127 E0.05141 ; perimeter
G1 X149.105 Y126.331 E0.05138 ; perimeter
G1 X150.727 Y126.570 E0.05141 ; perimeter
G1 X152.346 Y126.842 E0.05146 ; perimeter
G1 X153.960 Y127.146 E0.05151 ; perimeter
