; generated by Slic3r Prusa Edition 1.39.1-prusa3d on 2018-06-19 at 20:59:35

; 

; external perimeters extrusion width = 0.45mm
; perimeters extrusion width = 0.45mm
; infill extrusion width = 0.45mm
; solid infill extrusion width = 0.45mm
; top infill extrusion width = 0.40mm
; first layer extrusion width = 0.42mm

M107
M115 U3.1.1-RC5 ; tell printer latest fw version
M201 X1000 Y1000 Z200 E5000 ; sets maximum accelerations, mm/sec^2
M203 X200 Y200 Z12 E120 ; sets maximum feedrates, mm/sec
M204 S1250 T1250 ; sets acceleration (S) and retract acceleration (T)
M205 X10 Y10 Z0.4 E2.5 ; sets the jerk limits, mm/sec
M205 S0 T0 ; sets the minimum extruding and travel feed rate, mm/sec
M83  ; extruder relative mode
M104 S240 ; set extruder temp
M140 S50 ; set bed temp
M190 S50 ; wait for bed temp
M109 S240 ; wait for extruder temp
G28 W ; home all without mesh bed level
G80 ; mesh bed leveling
G1 Y-3.0 F1000.0 ; go outside print area
G92 E0.0
G1 X60.0 E9.0  F1000.0 ; intro line
G1 X100.0 E12.5  F1000.0 ; intro line
G92 E0.0
M221 S95
M900 K10; Filament gcode
G21 ; set units to millimeters
G90 ; use absolute coordinates
M83 ; use relative distances for extrusion
;BEFORE_LAYER_CHANGE
;0.2


G1 Z0.200 F10200.000
;AFTER_LAYER_CHANGE
;0.2
G1 X63.635 Y75.176 F10200.000
M204 S1000
G1 F540
G1 X65.719 Y73.684 E0.09643
G1 X67.911 Y72.358 E0.09640
G1 X70.888 Y70.898 E0.12476
G1 X73.280 Y69.976 E0.09643
G1 X75.734 Y69.241 E0.09640
G1 X78.982 Y68.574 E0.12476
G1 X81.528 Y68.281 E0.09643
G1 X84.063 Y68.185 E0.09543
G1 X151.559 Y68.542 E2.53957
G1 X154.917 Y68.884 E0.12702
G1 X158.253 Y69.571 E0.12814
G1 X160.621 Y70.281 E0.09302
G1 X162.205 Y70.866 E0.06353
G1 X165.287 Y72.280 E0.12759
G1 X168.207 Y73.997 E0.12745
G1 X170.908 Y75.979 E0.12602
G1 X172.853 Y77.692 E0.09755
G1 X175.177 Y80.141 E0.12702
G1 X177.224 Y82.788 E0.12590
G1 X179.010 Y85.653 E0.12702
G1 X180.497 Y88.684 E0.12702
G1 X181.669 Y91.850 E0.12702
G1 X182.514 Y95.114 E0.12688
G1 X183.023 Y98.425 E0.12602
G1 X183.189 Y101.169 E0.10344
G1 X183.099 Y104.387 E0.12113
G1 X182.675 Y107.706 E0.12590
G1 X181.911 Y110.995 E0.12702
G1 X180.819 Y114.189 E0.12702
G1 X179.417 Y117.244 E0.12645
G1 X178.577 Y118.756 E0.06511
G1 X177.241 Y120.840 E0.09313
G1 X175.138 Y123.557 E0.12928
G1 X173.457 Y125.371 E0.09302
G1 X172.212 Y126.556 E0.06468
G1 X170.386 Y128.089 E0.08971
G1 X168.909 Y129.180 E0.06910
G1 X166.903 Y130.470 E0.08971
G1 X165.300 Y131.366 E0.06910
G1 X163.757 Y132.122 E0.06465
G1 X161.473 Y133.068 E0.09302
G1 X158.195 Y134.097 E0.12928
G1 X155.779 Y134.625 E0.09302
G1 X154.077 Y134.887 E0.06482
G1 X151.588 Y135.109 E0.09400
G1 X149.866 Y135.154 E0.06482
G1 X82.386 Y134.797 E2.53900
G1 X79.012 Y134.454 E0.12759
G1 X75.679 Y133.768 E0.12802
G1 X74.053 Y133.301 E0.06365
G1 X71.724 Y132.472 E0.09302
G1 X68.642 Y131.058 E0.12759
G1 X66.430 Y129.794 E0.09586
G1 X64.309 Y128.356 E0.09640
G1 X61.739 Y126.261 E0.12476
G1 X59.903 Y124.473 E0.09643
G1 X58.213 Y122.551 E0.09629
G1 X56.314 Y119.974 E0.12045
G1 X54.923 Y117.692 E0.10056
G1 X53.775 Y115.426 E0.09557
G1 X52.796 Y113.058 E0.09640
G1 X51.803 Y109.894 E0.12476
G1 X51.254 Y107.391 E0.09643
G1 X50.903 Y104.883 E0.09528
G1 X50.742 Y102.329 E0.09629
G1 X50.826 Y99.011 E0.12487
G1 X51.116 Y96.465 E0.09643
G1 X51.601 Y93.949 E0.09640
G1 X52.513 Y90.761 E0.12476
G1 X53.421 Y88.397 E0.09528
G1 X54.519 Y86.081 E0.09643
G1 X55.792 Y83.857 E0.09640
G1 X57.686 Y81.136 E0.12476
G1 X59.330 Y79.169 E0.09643
G1 X61.119 Y77.336 E0.09640
G1 X63.590 Y75.215 E0.12250
G1 X65.408 Y77.564 F10200.000
G1 F540
G1 X66.088 Y77.038 E0.03233
G1 X67.350 Y76.160 E0.05788
G1 X68.656 Y75.346 E0.05788
G1 X70.001 Y74.599 E0.05788
G1 X71.382 Y73.922 E0.05788
G1 X72.796 Y73.315 E0.05788
G1 X74.238 Y72.781 E0.05788
G1 X75.706 Y72.320 E0.05788
G1 X77.195 Y71.935 E0.05788
G1 X78.702 Y71.625 E0.05788
G1 X80.223 Y71.392 E0.05788
G1 X81.753 Y71.237 E0.05788
G1 X83.292 Y71.159 E0.05797
G1 X84.210 Y71.151 E0.03455
G1 X85.596 Y71.188 E0.05217
G1 X87.130 Y71.305 E0.05790
G1 X88.657 Y71.499 E0.05788
G1 X90.171 Y71.770 E0.05788
G1 X91.669 Y72.118 E0.05788
G1 X93.148 Y72.541 E0.05788
G1 X94.604 Y73.039 E0.05788
G1 X96.032 Y73.610 E0.05788
G1 X97.430 Y74.252 E0.05788
G1 X98.794 Y74.964 E0.05788
G1 X100.122 Y75.746 E0.05797
G1 X100.893 Y76.245 E0.03455
G1 X102.029 Y77.038 E0.05217
G1 X103.246 Y77.980 E0.05790
G1 X104.413 Y78.982 E0.05788
G1 X105.528 Y80.042 E0.05788
G1 X106.590 Y81.159 E0.05797
G1 X107.194 Y81.850 E0.03455
G1 X108.069 Y82.926 E0.05217
G1 X108.979 Y84.166 E0.05790
G1 X109.826 Y85.451 E0.05788
G1 X110.606 Y86.777 E0.05788
G1 X111.319 Y88.140 E0.05788
G1 X111.961 Y89.538 E0.05788
G1 X112.531 Y90.967 E0.05788
G1 X113.029 Y92.422 E0.05788
G1 X113.452 Y93.901 E0.05788
G1 X113.800 Y95.400 E0.05788
G1 X114.071 Y96.914 E0.05788
G1 X114.266 Y98.440 E0.05788
G1 X114.383 Y99.974 E0.05788
G1 X114.421 Y101.512 E0.05788
G1 X114.383 Y103.050 E0.05788
G1 X114.266 Y104.583 E0.05788
G1 X114.071 Y106.109 E0.05788
G1 X113.800 Y107.624 E0.05788
G1 X113.452 Y109.122 E0.05788
G1 X113.029 Y110.601 E0.05788
G1 X112.531 Y112.057 E0.05788
G1 X111.961 Y113.485 E0.05788
G1 X111.319 Y114.883 E0.05788
G1 X110.606 Y116.247 E0.05788
G1 X109.826 Y117.572 E0.05788
G1 X108.977 Y118.860 E0.05802
G1 X108.534 Y119.480 E0.02866
G1 X107.590 Y120.699 E0.05802
G1 X106.588 Y121.866 E0.05788
G1 X105.528 Y122.981 E0.05788
G1 X104.412 Y124.043 E0.05797
G1 X103.720 Y124.647 E0.03455
G1 X102.644 Y125.522 E0.05217
G1 X101.404 Y126.432 E0.05790
G1 X100.120 Y127.279 E0.05788
G1 X98.794 Y128.059 E0.05788
G1 X97.430 Y128.771 E0.05788
G1 X96.032 Y129.414 E0.05788
G1 X94.604 Y129.984 E0.05788
G1 X93.148 Y130.482 E0.05788
G1 X91.669 Y130.905 E0.05788
G1 X90.171 Y131.253 E0.05788
G1 X88.657 Y131.524 E0.05788
G1 X87.130 Y131.719 E0.05788
G1 X85.597 Y131.835 E0.05788
G1 X84.059 Y131.874 E0.05788
G1 X82.521 Y131.835 E0.05788
G1 X80.987 Y131.719 E0.05788
G1 X79.461 Y131.524 E0.05788
G1 X77.947 Y131.253 E0.05788
G1 X76.448 Y130.905 E0.05788
G1 X74.969 Y130.482 E0.05788
G1 X73.514 Y129.984 E0.05788
G1 X72.085 Y129.414 E0.05788
G1 X70.687 Y128.771 E0.05788
G1 X69.324 Y128.059 E0.05788
G1 X67.998 Y127.279 E0.05788
G1 X66.713 Y126.432 E0.05788
G1 X65.474 Y125.522 E0.05788
G1 X64.281 Y124.550 E0.05788
G1 X63.137 Y123.516 E0.05802
G1 X62.592 Y122.984 E0.02866
G1 X61.529 Y121.866 E0.05802
G1 X60.527 Y120.699 E0.05788
G1 X59.586 Y119.483 E0.05788
G1 X58.707 Y118.220 E0.05788
G1 X57.893 Y116.915 E0.05788
G1 X57.146 Y115.570 E0.05788
G1 X56.468 Y114.186 E0.05797
G1 X56.099 Y113.346 E0.03455
G1 X55.586 Y112.057 E0.05217
G1 X55.088 Y110.601 E0.05790
G1 X54.665 Y109.122 E0.05788
G1 X54.318 Y107.624 E0.05788
G1 X54.046 Y106.109 E0.05788
G1 X53.852 Y104.583 E0.05788
G1 X53.735 Y103.050 E0.05788
G1 X53.696 Y101.512 E0.05788
G1 X53.735 Y99.974 E0.05788
G1 X53.852 Y98.440 E0.05788
G1 X54.046 Y96.914 E0.05788
G1 X54.318 Y95.396 E0.05802
G1 X54.481 Y94.652 E0.02866
G1 X54.868 Y93.159 E0.05802
G1 X55.328 Y91.691 E0.05788
G1 X55.862 Y90.249 E0.05788
G1 X56.469 Y88.835 E0.05788
G1 X57.146 Y87.454 E0.05788
G1 X57.893 Y86.109 E0.05788
G1 X58.707 Y84.803 E0.05788
G1 X59.586 Y83.541 E0.05788
G1 X60.527 Y82.324 E0.05788
G1 X61.529 Y81.157 E0.05788
G1 X62.589 Y80.042 E0.05788
G1 X63.704 Y78.982 E0.05788
G1 X64.871 Y77.980 E0.05788
G1 X65.361 Y77.601 E0.02330
G1 X65.130 Y77.303 F10200.000
G1 F540
G1 X65.864 Y76.734 E0.03494
G1 X67.143 Y75.845 E0.05860
G1 X68.465 Y75.021 E0.05860
G1 X69.826 Y74.265 E0.05860
G1 X71.225 Y73.579 E0.05860
G1 X72.656 Y72.965 E0.05860
G1 X74.116 Y72.424 E0.05860
G1 X75.602 Y71.958 E0.05860
G1 X77.110 Y71.567 E0.05860
G1 X78.636 Y71.254 E0.05860
G1 X80.175 Y71.018 E0.05860
G1 X81.725 Y70.860 E0.05860
G1 X83.281 Y70.782 E0.05863
G1 X84.214 Y70.774 E0.03510
G1 X85.616 Y70.811 E0.05277
G1 X87.169 Y70.929 E0.05860
G1 X88.714 Y71.126 E0.05860
G1 X90.247 Y71.401 E0.05860
G1 X91.764 Y71.753 E0.05860
G1 X93.261 Y72.182 E0.05860
G1 X94.735 Y72.685 E0.05860
G1 X96.181 Y73.263 E0.05860
G1 X97.596 Y73.913 E0.05860
G1 X98.977 Y74.634 E0.05860
G1 X100.320 Y75.425 E0.05863
G1 X101.103 Y75.932 E0.03510
G1 X102.253 Y76.734 E0.05277
G1 X103.485 Y77.688 E0.05861
G1 X104.666 Y78.702 E0.05860
G1 X105.795 Y79.775 E0.05860
G1 X106.869 Y80.905 E0.05863
G1 X107.482 Y81.607 E0.03510
G1 X108.367 Y82.695 E0.05277
G1 X109.289 Y83.951 E0.05860
G1 X110.146 Y85.251 E0.05860
G1 X110.936 Y86.594 E0.05860
G1 X111.657 Y87.974 E0.05860
G1 X112.307 Y89.389 E0.05860
G1 X112.885 Y90.836 E0.05860
G1 X113.389 Y92.309 E0.05860
G1 X113.817 Y93.807 E0.05860
G1 X114.169 Y95.324 E0.05860
G1 X114.444 Y96.857 E0.05860
G1 X114.641 Y98.402 E0.05860
G1 X114.759 Y99.955 E0.05860
G1 X114.799 Y101.512 E0.05860
G1 X114.759 Y103.069 E0.05860
G1 X114.641 Y104.622 E0.05860
G1 X114.444 Y106.167 E0.05860
G1 X114.169 Y107.700 E0.05860
G1 X113.817 Y109.217 E0.05860
G1 X113.389 Y110.714 E0.05860
G1 X112.885 Y112.188 E0.05860
G1 X112.307 Y113.634 E0.05860
G1 X111.657 Y115.049 E0.05860
G1 X110.936 Y116.430 E0.05860
G1 X110.146 Y117.772 E0.05860
G1 X109.288 Y119.074 E0.05865
G1 X108.837 Y119.705 E0.02920
G1 X107.883 Y120.938 E0.05865
G1 X106.868 Y122.119 E0.05860
G1 X105.795 Y123.248 E0.05860
G1 X104.666 Y124.322 E0.05863
G1 X103.963 Y124.935 E0.03510
G1 X102.875 Y125.820 E0.05277
G1 X101.619 Y126.742 E0.05860
G1 X100.319 Y127.599 E0.05860
G1 X98.977 Y128.389 E0.05860
G1 X97.596 Y129.110 E0.05860
G1 X96.181 Y129.760 E0.05860
G1 X94.735 Y130.338 E0.05860
G1 X93.261 Y130.842 E0.05860
G1 X91.764 Y131.270 E0.05860
G1 X90.247 Y131.622 E0.05860
G1 X88.714 Y131.897 E0.05860
G1 X87.169 Y132.094 E0.05860
G1 X85.616 Y132.212 E0.05860
G1 X84.059 Y132.252 E0.05860
G1 X82.502 Y132.212 E0.05860
G1 X80.949 Y132.094 E0.05860
G1 X79.404 Y131.897 E0.05860
G1 X77.871 Y131.622 E0.05860
G1 X76.354 Y131.270 E0.05860
G1 X74.856 Y130.842 E0.05860
G1 X73.383 Y130.338 E0.05860
G1 X71.936 Y129.760 E0.05860
G1 X70.521 Y129.110 E0.05860
G1 X69.141 Y128.389 E0.05860
G1 X67.798 Y127.599 E0.05860
G1 X66.498 Y126.742 E0.05860
G1 X65.243 Y125.820 E0.05860
G1 X64.036 Y124.836 E0.05860
G1 X62.879 Y123.791 E0.05865
G1 X62.323 Y123.249 E0.02920
G1 X61.249 Y122.119 E0.05865
G1 X60.235 Y120.938 E0.05860
G1 X59.281 Y119.706 E0.05860
G1 X58.392 Y118.428 E0.05860
G1 X57.568 Y117.106 E0.05860
G1 X56.812 Y115.744 E0.05860
G1 X56.126 Y114.345 E0.05863
G1 X55.751 Y113.491 E0.03510
G1 X55.232 Y112.188 E0.05277
G1 X54.729 Y110.714 E0.05860
G1 X54.300 Y109.217 E0.05860
G1 X53.948 Y107.700 E0.05860
G1 X53.673 Y106.167 E0.05860
G1 X53.477 Y104.622 E0.05860
G1 X53.358 Y103.069 E0.05860
G1 X53.319 Y101.512 E0.05860
G1 X53.358 Y99.955 E0.05860
G1 X53.477 Y98.402 E0.05860
G1 X53.673 Y96.857 E0.05860
G1 X53.948 Y95.322 E0.05865
G1 X54.114 Y94.564 E0.02920
G1 X54.505 Y93.055 E0.05865
G1 X54.971 Y91.569 E0.05860
G1 X55.512 Y90.109 E0.05860
G1 X56.126 Y88.677 E0.05860
G1 X56.812 Y87.279 E0.05860
G1 X57.568 Y85.917 E0.05860
G1 X58.392 Y84.596 E0.05860
G1 X59.281 Y83.317 E0.05860
G1 X60.235 Y82.086 E0.05860
G1 X61.249 Y80.904 E0.05860
G1 X62.322 Y79.775 E0.05860
G1 X63.451 Y78.702 E0.05860
G1 X64.633 Y77.688 E0.05860
G1 X65.083 Y77.340 E0.02140
G1 X65.502 Y77.450 F10200.000
G1 X97.229 Y74.284 F10200.000
G1 F540
G1 X111.287 Y88.341 E0.75053
G1 X111.741 Y89.331 F10200.000
G1 F540
G1 X96.585 Y74.175 E0.80922
G1 X95.627 Y73.752 E0.03950
G1 X111.818 Y89.943 E0.86443
G1 X112.174 Y90.834 E0.03622
G1 X94.736 Y73.396 E0.93100
G1 X93.903 Y73.098 E0.03341
G1 X112.472 Y91.667 E0.99140
G1 X112.750 Y92.480 E0.03243
G1 X93.090 Y72.820 E1.04963
G1 X92.339 Y72.604 E0.02953
G1 X112.967 Y93.232 E1.10133
G1 X113.180 Y93.981 E0.02940
G1 X91.590 Y72.390 E1.15273
G1 X90.893 Y72.228 E0.02700
G1 X113.342 Y94.677 E1.19856
G1 X113.504 Y95.374 E0.02700
G1 X90.196 Y72.067 E1.24439
G1 X89.539 Y71.945 E0.02524
G1 X113.626 Y96.031 E1.28600
G1 X113.743 Y96.683 E0.02500
G1 X88.887 Y71.828 E1.32705
G1 X88.258 Y71.733 E0.02403
G1 X113.837 Y97.313 E1.36569
G1 X113.915 Y97.926 E0.02334
G1 X87.644 Y71.655 E1.40260
G1 X87.035 Y71.581 E0.02317
G1 X113.989 Y98.535 E1.43908
G1 X114.033 Y99.114 E0.02193
G1 X86.456 Y71.537 E1.47236
G1 X85.877 Y71.493 E0.02193
G1 X114.078 Y99.694 E1.50564
G1 X114.107 Y100.258 E0.02133
G1 X85.312 Y71.463 E1.53735
G1 X84.762 Y71.448 E0.02076
G1 X114.121 Y100.807 E1.56745
G1 X114.135 Y101.356 E0.02073
G1 X84.213 Y71.434 E1.59755
G1 X83.682 Y71.438 E0.02004
G1 X114.129 Y101.885 E1.62559
G1 X114.116 Y102.407 E0.01971
G1 X83.157 Y71.449 E1.65289
G1 X82.648 Y71.474 E0.01925
G1 X114.103 Y102.929 E1.67937
G1 X114.070 Y103.431 E0.01900
G1 X82.139 Y71.500 E1.70481
G1 X81.636 Y71.533 E0.01901
G1 X114.032 Y103.929 E1.72962
G1 X113.994 Y104.426 E0.01883
G1 X81.150 Y71.582 E1.75353
G1 X80.665 Y71.632 E0.01843
G1 X113.940 Y104.906 E1.77654
G1 X113.879 Y105.381 E0.01806
G1 X80.183 Y71.684 E1.79906
G1 X79.719 Y71.756 E0.01772
G1 X113.819 Y105.856 E1.82060
G1 X113.747 Y106.319 E0.01769
G1 X79.255 Y71.827 E1.84153
G1 X78.791 Y71.898 E0.01772
G1 X113.665 Y106.772 E1.86196
G1 X113.584 Y107.226 E0.01740
G1 X78.345 Y71.987 E1.88140
G1 X77.901 Y72.078 E0.01711
G1 X113.498 Y107.675 E1.90050
G1 X113.397 Y108.109 E0.01683
G1 X77.457 Y72.170 E1.91882
G1 X77.024 Y72.271 E0.01681
G1 X113.296 Y108.544 E1.93658
G1 X113.195 Y108.978 E0.01683
G1 X76.599 Y72.381 E1.95389
G1 X76.174 Y72.491 E0.01658
G1 X113.079 Y109.397 E1.97039
G1 X112.960 Y109.813 E0.01634
G1 X75.750 Y72.603 E1.98665
G1 X75.343 Y72.731 E0.01612
G1 X112.841 Y110.229 E2.00204
G1 X112.717 Y110.640 E0.01620
G1 X74.936 Y72.859 E2.01714
G1 X74.528 Y72.986 E0.01612
G1 X112.581 Y111.039 E2.03161
G1 X112.444 Y111.437 E0.01591
G1 X74.130 Y73.123 E2.04562
G1 X73.739 Y73.267 E0.01572
G1 X112.308 Y111.836 E2.05919
G1 X112.160 Y112.223 E0.01565
G1 X73.349 Y73.412 E2.07215
G1 X72.958 Y73.557 E0.01572
G1 X112.008 Y112.606 E2.08484
G1 X111.855 Y112.988 E0.01554
G1 X72.582 Y73.715 E2.09681
G1 X72.207 Y73.876 E0.01538
G1 X111.702 Y113.371 E2.10864
G1 X111.534 Y113.737 E0.01523
G1 X71.833 Y74.036 E2.11965
G1 X71.460 Y74.199 E0.01535
G1 X111.365 Y114.104 E2.13055
G1 X111.197 Y114.471 E0.01523
G1 X71.101 Y74.375 E2.14072
G1 X70.742 Y74.551 E0.01510
G1 X111.025 Y114.834 E2.15072
G1 X110.842 Y115.185 E0.01497
G1 X70.383 Y74.727 E2.16009
G1 X70.029 Y74.907 E0.01502
G1 X110.658 Y115.537 E2.16921
G1 X110.474 Y115.888 E0.01497
G1 X69.685 Y75.098 E2.17778
G1 X69.340 Y75.289 E0.01486
G1 X110.285 Y116.234 E2.18606
G1 X110.087 Y116.571 E0.01475
G1 X68.996 Y75.480 E2.19384
G1 X68.658 Y75.678 E0.01477
G1 X109.889 Y116.908 E2.20130
G1 X109.691 Y117.245 E0.01475
G1 X68.329 Y75.883 E2.20831
G1 X67.999 Y76.088 E0.01466
G1 X109.486 Y117.575 E2.21497
G1 X109.273 Y117.897 E0.01458
G1 X67.670 Y76.294 E2.22122
G1 X67.347 Y76.506 E0.01458
G1 X109.061 Y118.220 E2.22709
G1 X108.848 Y118.542 E0.01458
G1 X67.032 Y76.726 E2.23258
G1 X66.716 Y76.946 E0.01451
G1 X108.630 Y118.860 E2.23779
G1 X108.407 Y119.172 E0.01448
G1 X66.401 Y77.165 E2.24272
G1 X66.093 Y77.392 E0.01445
G1 X108.178 Y119.478 E2.24695
G1 X107.945 Y119.779 E0.01440
G1 X65.791 Y77.626 E2.25059
G1 X65.489 Y77.859 E0.01440
G1 X107.711 Y120.081 E2.25423
G1 X107.478 Y120.383 E0.01440
G1 X65.188 Y78.093 E2.25787
G1 X64.894 Y78.334 E0.01435
G1 X107.237 Y120.677 E2.26071
G1 X106.990 Y120.965 E0.01433
G1 X64.606 Y78.581 E2.26289
G1 X64.318 Y78.828 E0.01433
G1 X106.743 Y121.253 E2.26506
G1 X106.495 Y121.541 E0.01433
G1 X64.030 Y79.075 E2.26724
G1 X63.749 Y79.329 E0.01430
G1 X106.241 Y121.821 E2.26865
G1 X105.980 Y122.096 E0.01429
G1 X63.475 Y79.590 E2.26937
G1 X63.200 Y79.851 E0.01429
G1 X105.719 Y122.370 E2.27009
G1 X105.459 Y122.644 E0.01429
G1 X62.926 Y80.112 E2.27082
G1 X62.789 Y80.242 E0.00714
G1 X62.659 Y80.379 E0.00715
G1 X105.191 Y122.912 E2.27082
G1 X104.917 Y123.173 E0.01429
G1 X62.398 Y80.654 E2.27009
G1 X62.137 Y80.928 E0.01429
G1 X104.643 Y123.433 E2.26937
G1 X104.368 Y123.694 E0.01429
G1 X61.876 Y81.202 E2.26865
G1 X61.622 Y81.483 E0.01430
G1 X104.089 Y123.950 E2.26730
G1 X103.803 Y124.199 E0.01432
G1 X61.375 Y81.771 E2.26524
G1 X61.128 Y82.059 E0.01433
G1 X103.517 Y124.448 E2.26315
G1 X103.222 Y124.688 E0.01436
G1 X60.881 Y82.347 E2.26059
G1 X60.640 Y82.641 E0.01435
