; generated by Slic3r 1.37.2.1-prusa3d on 2018-06-19 at 01:34:12

; 

; external perimeters extrusion width = 0.45mm
; perimeters extrusion width = 0.45mm
; infill extrusion width = 0.45mm
; solid infill extrusion width = 0.45mm
; top infill extrusion width = 0.40mm
; support material extrusion width = 0.35mm
; first layer extrusion width = 0.42mm

M107 ; disable fan
M115 U3.1.1-RC5 ; tell printer latest fw version
M83  ; extruder relative mode
M104 S215 ; set extruder temp
M140 S60 ; set bed temp
M190 S60 ; wait for bed temp
M109 S215 ; wait for extruder temp
G28 W ; home all without mesh bed level
G80 ; mesh bed leveling
G1 Y-3.0 F1000.0 ; go outside print area
G92 E0.0
G1 X60.0 E9.0  F1000.0 ; intro line
G1 X100.0 E12.5  F1000.0 ; intro line
G92 E0.0
M221 S95
M900 K30
G21 ; set units to millimeters
G90 ; use absolute coordinates
M83 ; use relative distances for extrusion
;BEFORE_LAYER_CHANGE
;0.2


G1 E-0.80000 F2100.00000 ; retract
G1 Z0.600 F12000.000 ; lift Z
;AFTER_LAYER_CHANGE
;0.2
G1 X73.400 Y77.333 F12000.000 ; move to first skirt point
G1 Z0.200 F12000.000 ; restore layer Z
G1 E0.80000 F2100.00000 ; unretract
M204 S1000 ; adjust acceleration
G1 F1800
G1 X76.777 Y74.640 E0.13544 ; skirt
G1 X79.049 Y73.170 E0.08484 ; skirt
G1 X81.489 Y71.849 E0.08700 ; skirt
G1 X83.742 Y70.837 E0.07745 ; skirt
G1 X86.340 Y69.896 E0.08664 ; skirt
G1 X88.949 Y69.174 E0.08488 ; skirt
G1 X91.854 Y68.616 E0.09274 ; skirt
G1 X94.523 Y68.321 E0.08421 ; skirt
G1 X97.312 Y68.230 E0.08748 ; skirt
G1 X167.922 Y71.845 E2.21682 ; skirt
G1 X171.286 Y72.359 E0.10673 ; skirt
G1 X174.560 Y73.207 E0.10601 ; skirt
G1 X177.730 Y74.381 E0.10601 ; skirt
G1 X180.756 Y75.865 E0.10565 ; skirt
G1 X183.635 Y77.659 E0.10637 ; skirt
G1 X186.285 Y79.709 E0.10506 ; skirt
G1 X188.244 Y81.530 E0.08387 ; skirt
G1 X190.454 Y83.984 E0.10355 ; skirt
G1 X192.436 Y86.686 E0.10508 ; skirt
G1 X194.152 Y89.600 E0.10601 ; skirt
G1 X195.563 Y92.672 E0.10601 ; skirt
G1 X196.657 Y95.872 E0.10601 ; skirt
G1 X197.421 Y99.165 E0.10601 ; skirt
G1 X197.846 Y102.489 E0.10506 ; skirt
G1 X197.944 Y105.083 E0.08141 ; skirt
G1 X197.770 Y108.460 E0.10601 ; skirt
G1 X197.261 Y111.772 E0.10508 ; skirt
G1 X196.414 Y115.045 E0.10601 ; skirt
G1 X195.239 Y118.216 E0.10601 ; skirt
G1 X193.756 Y121.241 E0.10565 ; skirt
G1 X192.877 Y122.734 E0.05431 ; skirt
G1 X191.488 Y124.784 E0.07764 ; skirt
G1 X189.315 Y127.449 E0.10780 ; skirt
G1 X187.585 Y129.224 E0.07773 ; skirt
G1 X186.308 Y130.379 E0.05398 ; skirt
G1 X184.974 Y131.465 E0.05395 ; skirt
G1 X182.960 Y132.905 E0.07764 ; skirt
G1 X179.997 Y134.650 E0.10780 ; skirt
G1 X177.757 Y135.713 E0.07773 ; skirt
G1 X176.159 Y136.353 E0.05398 ; skirt
G1 X174.533 Y136.908 E0.05386 ; skirt
G1 X172.141 Y137.559 E0.07773 ; skirt
G1 X168.757 Y138.166 E0.10780 ; skirt
G1 X166.288 Y138.386 E0.07773 ; skirt
G1 X164.590 Y138.430 E0.05326 ; skirt
G1 X95.671 Y138.805 E2.16092 ; skirt
G1 X93.835 Y138.685 E0.05771 ; skirt
G1 X91.404 Y138.376 E0.07683 ; skirt
G1 X87.872 Y137.616 E0.11327 ; skirt
G1 X85.610 Y136.924 E0.07420 ; skirt
G1 X83.754 Y136.229 E0.06212 ; skirt
G1 X81.977 Y135.446 E0.06088 ; skirt
G1 X80.032 Y134.454 E0.06848 ; skirt
G1 X78.338 Y133.459 E0.06160 ; skirt
G1 X76.743 Y132.395 E0.06010 ; skirt
G1 X73.359 Y129.692 E0.13580 ; skirt
G1 X70.911 Y127.245 E0.10854 ; skirt
G1 X69.119 Y125.105 E0.08751 ; skirt
G1 X67.565 Y122.927 E0.08390 ; skirt
G1 X65.881 Y120.084 E0.10360 ; skirt
G1 X64.683 Y117.599 E0.08650 ; skirt
G1 X63.510 Y114.510 E0.10361 ; skirt
G1 X62.774 Y111.937 E0.08388 ; skirt
G1 X62.216 Y109.188 E0.08797 ; skirt
G1 X61.850 Y106.060 E0.09875 ; skirt
G1 X61.826 Y101.406 E0.14591 ; skirt
G1 X61.905 Y100.322 E0.03408 ; skirt
G1 X62.269 Y97.555 E0.08753 ; skirt
G1 X62.973 Y94.352 E0.10280 ; skirt
G1 X63.807 Y91.681 E0.08775 ; skirt
G1 X65.023 Y88.705 E0.10080 ; skirt
G1 X66.517 Y85.833 E0.10151 ; skirt
G1 X68.148 Y83.276 E0.09509 ; skirt
G1 X70.148 Y80.685 E0.10260 ; skirt
G1 X72.052 Y78.615 E0.08820 ; skirt
G1 X73.356 Y77.375 E0.05643 ; skirt
G1 F9600
G1 X76.213 Y75.091 E-0.76000 ; wipe and retract
G1 E-0.04000 F2100.00000 ; retract
G1 Z0.800 F12000.000 ; lift Z
G1 X66.034 Y106.728 F12000.000 ; move to first support material interface point
G1 Z0.200 F12000.000 ; restore layer Z
G1 E0.80000 F2100.00000 ; unretract
G1 F1800
G1 X66.034 Y102.425 E0.10987 ; support material interface
G1 X66.051 Y101.971 E0.01161 ; support material interface
G1 X66.169 Y100.415 E0.03985 ; support material interface
G1 X66.257 Y99.639 E0.01992 ; support material interface
G1 X66.365 Y98.866 E0.01992 ; support material interface
G1 X66.552 Y97.779 E0.02818 ; support material interface
G1 X66.552 Y109.283 E0.29374 ; support material interface
G1 X66.803 Y110.494 E0.03159 ; support material interface
G1 X67.070 Y111.556 E0.02797 ; support material interface
G1 X67.070 Y95.505 E0.40986 ; support material interface
G1 X67.414 Y94.308 E0.03180 ; support material interface
G1 X67.588 Y93.772 E0.01439 ; support material interface
G1 X67.588 Y113.289 E0.49835 ; support material interface
G1 X68.106 Y114.732 E0.03915 ; support material interface
G1 X68.106 Y92.329 E0.57204 ; support material interface
G1 X68.623 Y91.074 E0.03467 ; support material interface
G1 X68.623 Y115.988 E0.63615 ; support material interface
G1 X69.141 Y117.114 E0.03165 ; support material interface
G1 X69.141 Y89.948 E0.69365 ; support material interface
G1 X69.659 Y88.936 E0.02902 ; support material interface
G1 X69.659 Y118.125 E0.74531 ; support material interface
G1 X70.177 Y119.061 E0.02730 ; support material interface
G1 X70.177 Y88.001 E0.79308 ; support material interface
G1 X70.695 Y87.137 E0.02572 ; support material interface
G1 X70.695 Y119.925 E0.83720 ; support material interface
G1 X71.212 Y120.728 E0.02439 ; support material interface
G1 X71.212 Y86.334 E0.87820 ; support material interface
G1 X71.730 Y85.580 E0.02335 ; support material interface
G1 X71.730 Y121.481 E0.91669 ; support material interface
G1 X72.248 Y122.191 E0.02243 ; support material interface
G1 X72.248 Y84.870 E0.95293 ; support material interface
G1 X72.766 Y84.201 E0.02162 ; support material interface
G1 X72.766 Y122.861 E0.98714 ; support material interface
G1 X73.284 Y123.495 E0.02090 ; support material interface
G1 X73.284 Y83.567 E1.01951 ; support material interface
G1 X73.801 Y82.966 E0.02026 ; support material interface
G1 X73.801 Y124.096 E1.05021 ; support material interface
G1 X74.319 Y124.667 E0.01968 ; support material interface
G1 X74.319 Y82.395 E1.07937 ; support material interface
G1 X74.837 Y81.851 E0.01917 ; support material interface
G1 X74.837 Y125.210 E1.10713 ; support material interface
G1 X75.355 Y125.728 E0.01870 ; support material interface
G1 X75.355 Y81.333 E1.13358 ; support material interface
G1 X75.873 Y80.839 E0.01828 ; support material interface
G1 X75.873 Y126.223 E1.15883 ; support material interface
G1 X76.390 Y126.695 E0.01790 ; support material interface
G1 X76.390 Y80.366 E1.18296 ; support material interface
G1 X76.908 Y79.914 E0.01755 ; support material interface
G1 X76.908 Y127.147 E1.20604 ; support material interface
G1 X77.426 Y127.580 E0.01723 ; support material interface
G1 X77.426 Y79.481 E1.22815 ; support material interface
G1 X77.944 Y79.066 E0.01694 ; support material interface
G1 X77.944 Y127.995 E1.24933 ; support material interface
G1 X78.462 Y128.391 E0.01665 ; support material interface
G1 X78.462 Y78.670 E1.26958 ; support material interface
G1 X78.980 Y78.292 E0.01636 ; support material interface
G1 X78.980 Y128.769 E1.28886 ; support material interface
G1 X79.497 Y129.131 E0.01614 ; support material interface
G1 X79.497 Y77.930 E1.30736 ; support material interface
G1 X80.015 Y77.582 E0.01593 ; support material interface
G1 X80.015 Y129.479 E1.32512 ; support material interface
G1 X80.533 Y129.813 E0.01573 ; support material interface
G1 X80.533 Y77.248 E1.34217 ; support material interface
G1 X81.051 Y76.929 E0.01554 ; support material interface
G1 X81.051 Y130.133 E1.35849 ; support material interface
G1 X81.569 Y130.436 E0.01532 ; support material interface
G1 X81.569 Y76.626 E1.37397 ; support material interface
G1 X82.086 Y76.335 E0.01517 ; support material interface
G1 X82.086 Y130.727 E1.38884 ; support material interface
G1 X82.604 Y131.006 E0.01503 ; support material interface
G1 X82.604 Y76.055 E1.40312 ; support material interface
G1 X83.122 Y75.787 E0.01489 ; support material interface
G1 X83.122 Y131.274 E1.41680 ; support material interface
G1 X83.640 Y131.526 E0.01471 ; support material interface
G1 X83.640 Y75.535 E1.42968 ; support material interface
G1 X84.158 Y75.293 E0.01459 ; support material interface
G1 X84.158 Y131.768 E1.44203 ; support material interface
G1 X84.675 Y132.000 E0.01449 ; support material interface
G1 X84.675 Y75.061 E1.45388 ; support material interface
G1 X85.193 Y74.841 E0.01437 ; support material interface
G1 X85.193 Y132.221 E1.46513 ; support material interface
G1 X85.711 Y132.428 E0.01424 ; support material interface
G1 X85.711 Y74.633 E1.47571 ; support material interface
G1 X86.229 Y74.435 E0.01416 ; support material interface
G1 X86.229 Y132.626 E1.48584 ; support material interface
G1 X86.747 Y132.816 E0.01408 ; support material interface
G1 X86.747 Y74.246 E1.49552 ; support material interface
G1 X87.264 Y74.070 E0.01396 ; support material interface
G1 X87.264 Y132.991 E1.50448 ; support material interface
G1 X87.782 Y133.158 E0.01389 ; support material interface
G1 X87.782 Y73.903 E1.51299 ; support material interface
G1 X88.300 Y73.745 E0.01383 ; support material interface
G1 X88.300 Y133.317 E1.52109 ; support material interface
G1 X88.818 Y133.463 E0.01374 ; support material interface
G1 X88.818 Y73.598 E1.52860 ; support material interface
G1 X89.336 Y73.461 E0.01368 ; support material interface
G1 X89.336 Y133.600 E1.53558 ; support material interface
G1 X89.854 Y133.730 E0.01363 ; support material interface
G1 X89.854 Y73.332 E1.54219 ; support material interface
G1 X90.371 Y73.212 E0.01357 ; support material interface
G1 X90.371 Y133.849 E1.54827 ; support material interface
G1 X90.889 Y133.957 E0.01351 ; support material interface
G1 X90.889 Y73.104 E1.55381 ; support material interface
G1 X91.407 Y73.003 E0.01347 ; support material interface
G1 X91.407 Y134.058 E1.55898 ; support material interface
G1 X91.925 Y134.150 E0.01343 ; support material interface
G1 X91.925 Y72.911 E1.56368 ; support material interface
G1 X92.443 Y72.830 E0.01338 ; support material interface
G1 X92.443 Y134.231 E1.56781 ; support material interface
G1 X92.960 Y134.306 E0.01336 ; support material interface
G1 X92.960 Y72.756 E1.57160 ; support material interface
G1 X93.478 Y72.690 E0.01333 ; support material interface
G1 X93.478 Y134.371 E1.57494 ; support material interface
G1 X93.996 Y134.425 E0.01329 ; support material interface
G1 X93.996 Y72.636 E1.57771 ; support material interface
G1 X94.514 Y72.588 E0.01328 ; support material interface
G1 X94.514 Y134.473 E1.58014 ; support material interface
G1 X95.032 Y134.512 E0.01326 ; support material interface
G1 X95.032 Y72.549 E1.58214 ; support material interface
G1 X95.549 Y72.521 E0.01324 ; support material interface
G1 X95.549 Y134.540 E1.58357 ; support material interface
G1 X96.067 Y134.562 E0.01323 ; support material interface
G1 X96.067 Y72.500 E1.58467 ; support material interface
G1 X96.585 Y72.487 E0.01323 ; support material interface
G1 X96.585 Y134.575 E1.58534 ; support material interface
G1 X97.103 Y134.577 E0.01322 ; support material interface
G1 X97.103 Y72.485 E1.58545 ; support material interface
G1 X97.621 Y72.489 E0.01322 ; support material interface
G1 X97.621 Y134.573 E1.58523 ; support material interface
G1 X98.138 Y134.559 E0.01323 ; support material interface
G1 X98.138 Y72.502 E1.58457 ; support material interface
G1 X98.231 Y72.504 E0.00236 ; support material interface
G1 X98.656 Y72.526 E0.01087 ; support material interface
G1 X98.656 Y134.536 E1.58336 ; support material interface
G1 X99.174 Y134.506 E0.01324 ; support material interface
G1 X99.174 Y72.556 E1.58181 ; support material interface
G1 X99.692 Y72.595 E0.01326 ; support material interface
G1 X99.692 Y134.466 E1.57982 ; support material interface
G1 X100.210 Y134.417 E0.01328 ; support material interface
G1 X100.210 Y72.645 E1.57727 ; support material interface
G1 X100.728 Y72.701 E0.01330 ; support material interface
G1 X100.728 Y134.360 E1.57440 ; support material interface
G1 X101.245 Y134.295 E0.01333 ; support material interface
G1 X101.245 Y72.766 E1.57105 ; support material interface
G1 X101.763 Y72.843 E0.01336 ; support material interface
G1 X101.763 Y134.219 E1.56716 ; support material interface
G1 X102.281 Y134.136 E0.01339 ; support material interface
G1 X102.281 Y72.926 E1.56292 ; support material interface
G1 X102.799 Y73.018 E0.01343 ; support material interface
G1 X102.799 Y134.043 E1.55822 ; support material interface
G1 X103.317 Y133.940 E0.01348 ; support material interface
G1 X103.317 Y73.121 E1.55293 ; support material interface
G1 X103.834 Y73.232 E0.01352 ; support material interface
G1 X103.834 Y133.829 E1.54729 ; support material interface
G1 X104.352 Y133.710 E0.01357 ; support material interface
G1 X104.352 Y73.351 E1.54120 ; support material interface
G1 X104.870 Y73.483 E0.01364 ; support material interface
G1 X104.870 Y133.579 E1.53448 ; support material interface
G1 X105.388 Y133.440 E0.01369 ; support material interface
G1 X105.388 Y73.622 E1.52738 ; support material interface
G1 X105.906 Y73.769 E0.01374 ; support material interface
G1 X105.906 Y133.293 E1.51987 ; support material interface
G1 X106.423 Y133.132 E0.01385 ; support material interface
G1 X106.423 Y73.930 E1.51166 ; support material interface
G1 X106.941 Y74.099 E0.01391 ; support material interface
G1 X106.941 Y132.963 E1.50302 ; support material interface
G1 X107.459 Y132.785 E0.01398 ; support material interface
G1 X107.459 Y74.276 E1.49397 ; support material interface
G1 X107.977 Y74.466 E0.01408 ; support material interface
G1 X107.977 Y132.595 E1.48426 ; support material interface
G1 X108.495 Y132.395 E0.01418 ; support material interface
G1 X108.495 Y74.667 E1.47401 ; support material interface
G1 X109.012 Y74.876 E0.01426 ; support material interface
G1 X109.012 Y132.185 E1.46330 ; support material interface
G1 X109.530 Y131.965 E0.01437 ; support material interface
G1 X109.530 Y75.097 E1.45206 ; support material interface
G1 X110.048 Y75.331 E0.01451 ; support material interface
G1 X110.048 Y131.730 E1.44008 ; support material interface
G1 X110.566 Y131.486 E0.01462 ; support material interface
G1 X110.566 Y75.576 E1.42759 ; support material interface
G1 X111.084 Y75.831 E0.01474 ; support material interface
G1 X111.084 Y131.231 E1.41458 ; support material interface
G1 X111.602 Y130.963 E0.01489 ; support material interface
G1 X111.602 Y76.098 E1.40089 ; support material interface
G1 X112.119 Y76.381 E0.01506 ; support material interface
G1 X112.119 Y130.681 E1.38648 ; support material interface
G1 X112.637 Y130.387 E0.01520 ; support material interface
G1 X112.637 Y76.675 E1.37147 ; support material interface
G1 X113.155 Y76.981 E0.01536 ; support material interface
G1 X113.155 Y130.081 E1.35584 ; support material interface
G1 X113.673 Y129.761 E0.01554 ; support material interface
G1 X113.673 Y77.300 E1.33952 ; support material interface
G1 X114.191 Y77.637 E0.01577 ; support material interface
G1 X114.191 Y129.424 E1.32232 ; support material interface
G1 X114.708 Y129.073 E0.01597 ; support material interface
G1 X114.708 Y77.988 E1.30440 ; support material interface
G1 X115.226 Y78.353 E0.01618 ; support material interface
G1 X115.226 Y128.708 E1.28574 ; support material interface
G1 X115.744 Y128.327 E0.01641 ; support material interface
G1 X115.744 Y78.734 E1.26629 ; support material interface
G1 X116.262 Y79.131 E0.01666 ; support material interface
G1 X116.262 Y127.930 E1.24601 ; support material interface
