; generated by Slic3r 1.37.2.1-prusa3d on 2019-01-26 at 12:54:14

; 

; external perimeters extrusion width = 0.45mm
; perimeters extrusion width = 0.45mm
; infill extrusion width = 0.45mm
; solid infill extrusion width = 0.45mm
; top infill extrusion width = 0.40mm
; first layer extrusion width = 0.42mm

M107 ; disable fan
M115 U3.4.0 ; tell printer latest fw version
M83  ; extruder relative mode
M104 S230 ; set extruder temp
M140 S85 ; set bed temp
M190 S85 ; wait for bed temp
M109 S230 ; wait for extruder temp
G28 W ; home all without mesh bed level
G80 ; mesh bed leveling
G1 Y-3.0 F1000.0 ; go outside print area
G92 E0.0
G1 X60.0 E9.0  F1000.0 ; intro line
G1 X100.0 E12.5  F1000.0 ; intro line
G92 E0.0
M221 S95
M900 K45
G21 ; set units to millimeters
G90 ; use absolute coordinates
M83 ; use relative distances for extrusion
;BEFORE_LAYER_CHANGE
G92 E0.0
;0.2


G1 E-0.80000 F2100.00000 ; retract
G1 Z0.600 F10800.000 ; lift Z
;AFTER_LAYER_CHANGE
;0.2
G1 X104.433 Y86.823 F10800.000 ; move to first skirt point
G1 Z0.200 F10800.000 ; restore layer Z
G1 E0.80000 F2100.00000 ; unretract
M204 S1000 ; adjust acceleration
G1 F1200
G1 X106.613 Y84.528 E0.09926 ; skirt
G1 X108.270 Y83.055 E0.06950 ; skirt
G1 X110.839 Y81.141 E0.10045 ; skirt
G1 X113.554 Y79.514 E0.09925 ; skirt
G1 X116.486 Y78.139 E0.10152 ; skirt
G1 X119.477 Y77.090 E0.09938 ; skirt
G1 X122.588 Y76.340 E0.10033 ; skirt
G1 X125.762 Y75.908 E0.10045 ; skirt
G1 X128.930 Y75.800 E0.09938 ; skirt
G1 X132.161 Y76.016 E0.10152 ; skirt
G1 X135.282 Y76.547 E0.09926 ; skirt
G1 X137.467 Y77.114 E0.07079 ; skirt
G1 X140.449 Y78.168 E0.09916 ; skirt
G1 X143.313 Y79.515 E0.09925 ; skirt
G1 X146.060 Y81.164 E0.10045 ; skirt
G1 X148.623 Y83.080 E0.10033 ; skirt
G1 X150.982 Y85.247 E0.10045 ; skirt
G1 X153.110 Y87.642 E0.10045 ; skirt
G1 X154.985 Y90.240 E0.10045 ; skirt
G1 X156.587 Y93.015 E0.10045 ; skirt
G1 X157.886 Y95.902 E0.09926 ; skirt
G1 X158.911 Y98.977 E0.10164 ; skirt
G1 X159.602 Y102.067 E0.09926 ; skirt
G1 X159.984 Y105.248 E0.10045 ; skirt
G1 X160.059 Y107.463 E0.06950 ; skirt
G1 X159.897 Y110.624 E0.09925 ; skirt
G1 X159.411 Y113.791 E0.10045 ; skirt
G1 X158.609 Y116.889 E0.10033 ; skirt
G1 X157.497 Y119.893 E0.10045 ; skirt
G1 X156.086 Y122.770 E0.10045 ; skirt
G1 X154.392 Y125.489 E0.10045 ; skirt
G1 X152.431 Y128.022 E0.10045 ; skirt
G1 X150.251 Y130.318 E0.09926 ; skirt
G1 X147.820 Y132.410 E0.10057 ; skirt
G1 X145.921 Y133.772 E0.07325 ; skirt
G1 X143.307 Y135.334 E0.09550 ; skirt
G1 X140.374 Y136.708 E0.10153 ; skirt
G1 X137.387 Y137.755 E0.09925 ; skirt
G1 X134.273 Y138.506 E0.10045 ; skirt
G1 X131.098 Y138.937 E0.10045 ; skirt
G1 X127.900 Y139.045 E0.10033 ; skirt
G1 X124.704 Y138.829 E0.10045 ; skirt
G1 X121.583 Y138.299 E0.09926 ; skirt
G1 X119.240 Y137.682 E0.07595 ; skirt
G1 X116.415 Y136.678 E0.09400 ; skirt
G1 X113.551 Y135.330 E0.09925 ; skirt
G1 X110.804 Y133.682 E0.10045 ; skirt
G1 X108.238 Y131.763 E0.10045 ; skirt
G1 X105.879 Y129.595 E0.10045 ; skirt
G1 X103.752 Y127.200 E0.10045 ; skirt
G1 X101.879 Y124.605 E0.10033 ; skirt
G1 X100.277 Y121.830 E0.10045 ; skirt
G1 X98.978 Y118.944 E0.09926 ; skirt
G1 X97.964 Y115.905 E0.10045 ; skirt
G1 X97.445 Y113.750 E0.06950 ; skirt
G1 X96.967 Y110.621 E0.09925 ; skirt
G1 X96.805 Y107.383 E0.10165 ; skirt
G1 X96.967 Y104.221 E0.09925 ; skirt
G1 X97.453 Y101.054 E0.10045 ; skirt
G1 X98.255 Y97.957 E0.10033 ; skirt
G1 X99.367 Y94.952 E0.10045 ; skirt
G1 X100.778 Y92.076 E0.10045 ; skirt
G1 X102.473 Y89.357 E0.10045 ; skirt
G1 X104.397 Y86.871 E0.09857 ; skirt
G1 F8640
G1 X106.613 Y84.528 E-0.74476 ; wipe and retract
G1 F8640
G1 X106.663 Y84.484 E-0.01524 ; wipe and retract
G1 E-0.04000 F2100.00000 ; retract
G1 Z0.800 F10800.000 ; lift Z
G1 X128.845 Y81.552 F10800.000 ; move to first perimeter point
G1 Z0.200 F10800.000 ; restore layer Z
G1 E0.80000 F2100.00000 ; unretract
G1 F1200
G1 X131.175 Y81.727 E0.07326 ; perimeter
G1 X132.089 Y81.841 E0.02889 ; perimeter
G1 X132.995 Y81.987 E0.02876 ; perimeter
G1 X133.895 Y82.165 E0.02876 ; perimeter
G1 X134.787 Y82.375 E0.02876 ; perimeter
G1 X135.672 Y82.616 E0.02876 ; perimeter
G1 X136.548 Y82.889 E0.02876 ; perimeter
G1 X137.414 Y83.192 E0.02876 ; perimeter
G1 X138.268 Y83.526 E0.02876 ; perimeter
G1 X139.110 Y83.891 E0.02876 ; perimeter
G1 X139.939 Y84.284 E0.02876 ; perimeter
G1 X140.752 Y84.707 E0.02876 ; perimeter
G1 X141.551 Y85.159 E0.02876 ; perimeter
G1 X142.333 Y85.638 E0.02876 ; perimeter
G1 X143.097 Y86.146 E0.02876 ; perimeter
G1 X143.843 Y86.679 E0.02876 ; perimeter
G1 X144.570 Y87.239 E0.02876 ; perimeter
G1 X145.276 Y87.825 E0.02876 ; perimeter
G1 X145.961 Y88.435 E0.02876 ; perimeter
G1 X146.629 Y89.075 E0.02901 ; perimeter
G1 X147.263 Y89.726 E0.02851 ; perimeter
G1 X147.880 Y90.406 E0.02876 ; perimeter
G1 X148.476 Y91.113 E0.02901 ; perimeter
G1 X149.038 Y91.828 E0.02851 ; perimeter
G1 X149.578 Y92.569 E0.02876 ; perimeter
G1 X150.092 Y93.329 E0.02876 ; perimeter
G1 X150.579 Y94.107 E0.02876 ; perimeter
G1 X151.037 Y94.901 E0.02876 ; perimeter
G1 X151.467 Y95.711 E0.02876 ; perimeter
G1 X151.869 Y96.536 E0.02876 ; perimeter
G1 X152.243 Y97.382 E0.02901 ; perimeter
G1 X152.582 Y98.226 E0.02851 ; perimeter
G1 X152.893 Y99.089 E0.02876 ; perimeter
G1 X153.173 Y99.962 E0.02876 ; perimeter
G1 X153.422 Y100.845 E0.02876 ; perimeter
G1 X153.640 Y101.736 E0.02876 ; perimeter
G1 X153.826 Y102.635 E0.02876 ; perimeter
G1 X153.980 Y103.539 E0.02876 ; perimeter
G1 X154.103 Y104.456 E0.02901 ; perimeter
G1 X154.191 Y105.361 E0.02851 ; perimeter
G1 X154.248 Y106.276 E0.02876 ; perimeter
G1 X154.272 Y107.201 E0.02901 ; perimeter
G1 X154.264 Y108.111 E0.02851 ; perimeter
G1 X154.224 Y109.027 E0.02876 ; perimeter
G1 X154.151 Y109.941 E0.02876 ; perimeter
G1 X154.045 Y110.853 E0.02876 ; perimeter
G1 X153.907 Y111.759 E0.02876 ; perimeter
G1 X153.737 Y112.661 E0.02876 ; perimeter
G1 X153.535 Y113.556 E0.02876 ; perimeter
G1 X153.302 Y114.443 E0.02876 ; perimeter
G1 X153.037 Y115.321 E0.02876 ; perimeter
G1 X152.741 Y116.189 E0.02876 ; perimeter
G1 X152.415 Y117.046 E0.02876 ; perimeter
G1 X152.058 Y117.891 E0.02876 ; perimeter
G1 X151.672 Y118.722 E0.02870 ; perimeter
G1 X151.028 Y119.990 E0.04461 ; perimeter
G1 X145.917 Y117.054 E0.18479 ; perimeter
G1 X145.853 Y117.054 E0.00201 ; perimeter
G1 X145.755 Y117.112 E0.00357 ; perimeter
G1 X145.510 Y117.519 E0.01491 ; perimeter
G1 X145.476 Y117.666 E0.00473 ; perimeter
G1 X145.530 Y117.758 E0.00335 ; perimeter
G1 X150.617 Y120.710 E0.18440 ; perimeter
G1 X149.838 Y121.899 E0.04459 ; perimeter
G1 X149.311 Y122.649 E0.02873 ; perimeter
G1 X148.758 Y123.380 E0.02876 ; perimeter
G1 X148.179 Y124.092 E0.02876 ; perimeter
G1 X147.575 Y124.782 E0.02876 ; perimeter
G1 X146.946 Y125.451 E0.02876 ; perimeter
G1 X146.295 Y126.096 E0.02876 ; perimeter
G1 X145.621 Y126.718 E0.02876 ; perimeter
G1 X144.925 Y127.316 E0.02876 ; perimeter
G1 X144.209 Y127.889 E0.02876 ; perimeter
G1 X143.473 Y128.436 E0.02876 ; perimeter
G1 X142.717 Y128.957 E0.02876 ; perimeter
G1 X141.937 Y129.454 E0.02901 ; perimeter
G1 X141.154 Y129.916 E0.02851 ; perimeter
G1 X140.347 Y130.353 E0.02876 ; perimeter
G1 X139.526 Y130.762 E0.02876 ; perimeter
G1 X138.683 Y131.144 E0.02901 ; perimeter
G1 X137.843 Y131.490 E0.02851 ; perimeter
G1 X136.982 Y131.809 E0.02876 ; perimeter
G1 X136.112 Y132.097 E0.02876 ; perimeter
G1 X135.231 Y132.354 E0.02876 ; perimeter
G1 X134.342 Y132.579 E0.02876 ; perimeter
G1 X133.445 Y132.773 E0.02876 ; perimeter
G1 X132.535 Y132.936 E0.02901 ; perimeter
G1 X131.634 Y133.065 E0.02851 ; perimeter
G1 X130.722 Y133.162 E0.02876 ; perimeter
G1 X129.807 Y133.228 E0.02876 ; perimeter
G1 X128.891 Y133.260 E0.02876 ; perimeter
G1 X127.973 Y133.260 E0.02876 ; perimeter
G1 X127.057 Y133.228 E0.02876 ; perimeter
G1 X126.142 Y133.162 E0.02876 ; perimeter
G1 X125.222 Y133.064 E0.02901 ; perimeter
G1 X124.322 Y132.935 E0.02851 ; perimeter
G1 X123.419 Y132.773 E0.02876 ; perimeter
G1 X122.522 Y132.579 E0.02876 ; perimeter
G1 X121.633 Y132.354 E0.02876 ; perimeter
G1 X120.753 Y132.097 E0.02876 ; perimeter
G1 X119.882 Y131.809 E0.02876 ; perimeter
G1 X119.022 Y131.490 E0.02876 ; perimeter
G1 X118.173 Y131.141 E0.02876 ; perimeter
G1 X117.338 Y130.762 E0.02876 ; perimeter
G1 X116.510 Y130.349 E0.02901 ; perimeter
G1 X115.710 Y129.916 E0.02851 ; perimeter
G1 X114.920 Y129.450 E0.02876 ; perimeter
G1 X114.147 Y128.957 E0.02876 ; perimeter
G1 X113.385 Y128.431 E0.02901 ; perimeter
G1 X112.655 Y127.889 E0.02851 ; perimeter
G1 X111.939 Y127.316 E0.02876 ; perimeter
G1 X111.243 Y126.718 E0.02876 ; perimeter
G1 X110.564 Y126.091 E0.02901 ; perimeter
G1 X109.918 Y125.451 E0.02851 ; perimeter
G1 X109.290 Y124.782 E0.02876 ; perimeter
G1 X108.686 Y124.092 E0.02876 ; perimeter
G1 X108.106 Y123.380 E0.02876 ; perimeter
G1 X107.553 Y122.649 E0.02876 ; perimeter
G1 X107.026 Y121.898 E0.02876 ; perimeter
G1 X106.251 Y120.707 E0.04455 ; perimeter
G1 X111.334 Y117.758 E0.18426 ; perimeter
G1 X111.379 Y117.705 E0.00217 ; perimeter
G1 X111.381 Y117.583 E0.00384 ; perimeter
G1 X111.150 Y117.165 E0.01496 ; perimeter
G1 X111.076 Y117.077 E0.00363 ; perimeter
G1 X111.000 Y117.050 E0.00251 ; perimeter
G1 X110.935 Y117.061 E0.00206 ; perimeter
G1 X105.836 Y119.990 E0.18437 ; perimeter
G1 X105.192 Y118.722 E0.04461 ; perimeter
G1 X104.806 Y117.891 E0.02870 ; perimeter
G1 X104.449 Y117.046 E0.02876 ; perimeter
G1 X104.123 Y116.189 E0.02876 ; perimeter
G1 X103.827 Y115.321 E0.02876 ; perimeter
G1 X103.562 Y114.443 E0.02876 ; perimeter
G1 X103.329 Y113.556 E0.02876 ; perimeter
G1 X103.127 Y112.661 E0.02876 ; perimeter
G1 X102.957 Y111.759 E0.02876 ; perimeter
G1 X102.819 Y110.853 E0.02876 ; perimeter
G1 X102.714 Y109.941 E0.02876 ; perimeter
G1 X102.640 Y109.027 E0.02876 ; perimeter
G1 X102.600 Y108.111 E0.02876 ; perimeter
G1 X102.592 Y107.193 E0.02876 ; perimeter
G1 X102.616 Y106.276 E0.02876 ; perimeter
G1 X102.673 Y105.361 E0.02876 ; perimeter
G1 X102.762 Y104.448 E0.02876 ; perimeter
G1 X102.884 Y103.539 E0.02876 ; perimeter
G1 X103.038 Y102.634 E0.02876 ; perimeter
G1 X103.226 Y101.729 E0.02901 ; perimeter
G1 X103.442 Y100.845 E0.02851 ; perimeter
G1 X103.691 Y99.962 E0.02876 ; perimeter
G1 X103.971 Y99.089 E0.02876 ; perimeter
G1 X104.282 Y98.226 E0.02876 ; perimeter
G1 X104.624 Y97.375 E0.02876 ; perimeter
G1 X104.996 Y96.536 E0.02876 ; perimeter
G1 X105.397 Y95.711 E0.02876 ; perimeter
G1 X105.827 Y94.901 E0.02876 ; perimeter
G1 X106.286 Y94.107 E0.02876 ; perimeter
G1 X106.772 Y93.329 E0.02876 ; perimeter
G1 X107.286 Y92.569 E0.02876 ; perimeter
G1 X107.831 Y91.822 E0.02901 ; perimeter
G1 X108.393 Y91.107 E0.02851 ; perimeter
G1 X108.985 Y90.406 E0.02876 ; perimeter
G1 X109.606 Y89.721 E0.02901 ; perimeter
G1 X110.241 Y89.069 E0.02851 ; perimeter
G1 X110.904 Y88.435 E0.02876 ; perimeter
G1 X111.595 Y87.820 E0.02901 ; perimeter
G1 X112.295 Y87.239 E0.02851 ; perimeter
G1 X113.021 Y86.679 E0.02876 ; perimeter
G1 X113.767 Y86.146 E0.02876 ; perimeter
G1 X114.531 Y85.638 E0.02876 ; perimeter
G1 X115.313 Y85.159 E0.02876 ; perimeter
G1 X116.112 Y84.707 E0.02876 ; perimeter
G1 X116.926 Y84.284 E0.02876 ; perimeter
G1 X117.754 Y83.891 E0.02876 ; perimeter
G1 X118.596 Y83.526 E0.02876 ; perimeter
G1 X119.450 Y83.192 E0.02876 ; perimeter
G1 X120.316 Y82.889 E0.02876 ; perimeter
G1 X121.192 Y82.616 E0.02876 ; perimeter
G1 X122.077 Y82.375 E0.02876 ; perimeter
G1 X122.970 Y82.165 E0.02876 ; perimeter
G1 X123.869 Y81.987 E0.02876 ; perimeter
G1 X124.775 Y81.841 E0.02876 ; perimeter
G1 X125.689 Y81.727 E0.02889 ; perimeter
G1 X128.019 Y81.552 E0.07326 ; perimeter
G1 X128.019 Y87.371 E0.18245 ; perimeter
G1 X128.038 Y87.477 E0.00338 ; perimeter
G1 X128.070 Y87.532 E0.00201 ; perimeter
G1 X128.131 Y87.568 E0.00221 ; perimeter
G1 X128.228 Y87.585 E0.00308 ; perimeter
G1 X128.702 Y87.576 E0.01488 ; perimeter
G1 X128.759 Y87.556 E0.00187 ; perimeter
G1 X128.826 Y87.476 E0.00329 ; perimeter
G1 X128.845 Y87.371 E0.00335 ; perimeter
G1 X128.845 Y81.612 E0.18057 ; perimeter
G1 X129.222 Y81.958 F10800.000 ; move to first perimeter point
G1 F1200
G1 X131.137 Y82.102 E0.06022 ; perimeter
G1 X132.036 Y82.215 E0.02839 ; perimeter
G1 X132.928 Y82.358 E0.02834 ; perimeter
G1 X133.815 Y82.534 E0.02834 ; perimeter
G1 X134.695 Y82.740 E0.02834 ; perimeter
G1 X135.567 Y82.978 E0.02834 ; perimeter
G1 X136.430 Y83.247 E0.02834 ; perimeter
G1 X137.283 Y83.546 E0.02834 ; perimeter
G1 X138.125 Y83.875 E0.02834 ; perimeter
G1 X138.954 Y84.234 E0.02834 ; perimeter
G1 X139.771 Y84.622 E0.02834 ; perimeter
G1 X140.573 Y85.039 E0.02834 ; perimeter
G1 X141.359 Y85.484 E0.02834 ; perimeter
G1 X142.130 Y85.956 E0.02834 ; perimeter
G1 X142.883 Y86.456 E0.02834 ; perimeter
G1 X143.618 Y86.982 E0.02834 ; perimeter
G1 X144.334 Y87.534 E0.02834 ; perimeter
G1 X145.030 Y88.111 E0.02834 ; perimeter
G1 X145.705 Y88.712 E0.02834 ; perimeter
G1 X146.364 Y89.343 E0.02859 ; perimeter
G1 X146.989 Y89.985 E0.02809 ; perimeter
G1 X147.596 Y90.654 E0.02834 ; perimeter
G1 X148.184 Y91.351 E0.02859 ; perimeter
G1 X148.737 Y92.056 E0.02809 ; perimeter
G1 X149.270 Y92.786 E0.02834 ; perimeter
G1 X149.776 Y93.535 E0.02834 ; perimeter
G1 X150.255 Y94.301 E0.02834 ; perimeter
G1 X150.707 Y95.084 E0.02834 ; perimeter
G1 X151.131 Y95.882 E0.02834 ; perimeter
G1 X151.527 Y96.695 E0.02834 ; perimeter
G1 X151.896 Y97.529 E0.02859 ; perimeter
G1 X152.229 Y98.360 E0.02809 ; perimeter
G1 X152.536 Y99.211 E0.02834 ; perimeter
G1 X152.812 Y100.071 E0.02834 ; perimeter
G1 X153.058 Y100.941 E0.02834 ; perimeter
G1 X153.272 Y101.819 E0.02834 ; perimeter
G1 X153.455 Y102.704 E0.02834 ; perimeter
G1 X153.607 Y103.596 E0.02834 ; perimeter
G1 X153.728 Y104.499 E0.02859 ; perimeter
G1 X153.815 Y105.391 E0.02809 ; perimeter
G1 X153.871 Y106.293 E0.02834 ; perimeter
G1 X153.895 Y107.205 E0.02859 ; perimeter
G1 X153.887 Y108.101 E0.02809 ; perimeter
G1 X153.847 Y109.004 E0.02834 ; perimeter
G1 X153.775 Y109.905 E0.02834 ; perimeter
G1 X153.671 Y110.802 E0.02834 ; perimeter
G1 X153.535 Y111.696 E0.02834 ; perimeter
G1 X153.368 Y112.584 E0.02834 ; perimeter
G1 X153.169 Y113.466 E0.02834 ; perimeter
G1 X152.939 Y114.340 E0.02834 ; perimeter
G1 X152.678 Y115.206 E0.02834 ; perimeter
G1 X152.386 Y116.061 E0.02834 ; perimeter
G1 X152.065 Y116.906 E0.02834 ; perimeter
G1 X151.713 Y117.739 E0.02834 ; perimeter
G1 X151.333 Y118.557 E0.02828 ; perimeter
G1 X150.871 Y119.465 E0.03196 ; perimeter
G1 X146.051 Y116.697 E0.17429 ; perimeter
G1 X145.978 Y116.677 E0.00237 ; perimeter
G1 X145.787 Y116.677 E0.00601 ; perimeter
G1 X145.608 Y116.742 E0.00597 ; perimeter
G1 X145.464 Y116.864 E0.00590 ; perimeter
G1 X145.168 Y117.357 E0.01803 ; perimeter
G1 X145.099 Y117.548 E0.00636 ; perimeter
G1 X145.099 Y117.734 E0.00584 ; perimeter
G1 X145.164 Y117.909 E0.00584 ; perimeter
G1 X145.284 Y118.052 E0.00586 ; perimeter
G1 X150.084 Y120.836 E0.17397 ; perimeter
G1 X149.526 Y121.687 E0.03191 ; perimeter
G1 X149.007 Y122.427 E0.02833 ; perimeter
G1 X148.461 Y123.148 E0.02834 ; perimeter
G1 X147.890 Y123.848 E0.02834 ; perimeter
G1 X147.295 Y124.529 E0.02834 ; perimeter
G1 X146.676 Y125.187 E0.02834 ; perimeter
G1 X146.034 Y125.824 E0.02834 ; perimeter
G1 X145.370 Y126.437 E0.02834 ; perimeter
G1 X144.685 Y127.026 E0.02834 ; perimeter
G1 X143.979 Y127.590 E0.02834 ; perimeter
G1 X143.253 Y128.130 E0.02834 ; perimeter
G1 X142.509 Y128.642 E0.02834 ; perimeter
G1 X141.740 Y129.133 E0.02859 ; perimeter
G1 X140.968 Y129.588 E0.02809 ; perimeter
G1 X140.174 Y130.019 E0.02834 ; perimeter
G1 X139.364 Y130.421 E0.02834 ; perimeter
G1 X138.534 Y130.797 E0.02859 ; perimeter
G1 X137.705 Y131.139 E0.02809 ; perimeter
G1 X136.858 Y131.453 E0.02834 ; perimeter
G1 X136.000 Y131.737 E0.02834 ; perimeter
G1 X135.132 Y131.990 E0.02834 ; perimeter
G1 X134.256 Y132.212 E0.02834 ; perimeter
G1 X133.372 Y132.403 E0.02834 ; perimeter
G1 X132.475 Y132.564 E0.02859 ; perimeter
G1 X131.588 Y132.691 E0.02809 ; perimeter
G1 X130.689 Y132.787 E0.02834 ; perimeter
G1 X129.787 Y132.851 E0.02834 ; perimeter
G1 X128.884 Y132.883 E0.02834 ; perimeter
