; generated by Slic3r 1.37.2.1-prusa3d on 2018-06-12 at 21:06:43

; 

; external perimeters extrusion width = 0.45mm
; perimeters extrusion width = 0.45mm
; infill extrusion width = 0.45mm
; solid infill extrusion width = 0.45mm
; top infill extrusion width = 0.40mm
; first layer extrusion width = 0.42mm

M107 ; disable fan
M115 U3.1.1-RC5 ; tell printer latest fw version
M83  ; extruder relative mode
M104 S215 ; set extruder temp
M140 S60 ; set bed temp
M190 S60 ; wait for bed temp
M109 S215 ; wait for extruder temp
G28 W ; home all without mesh bed level
G80 ; mesh bed leveling
G1 Y-3.0 F1000.0 ; go outside print area
G92 E0.0
G1 X60.0 E9.0  F1000.0 ; intro line
G1 X100.0 E12.5  F1000.0 ; intro line
G92 E0.0
M221 S95
M900 K30
G21 ; set units to millimeters
G90 ; use absolute coordinates
M83 ; use relative distances for extrusion
;BEFORE_LAYER_CHANGE
;0.2


G1 E-0.80000 F2100.00000 ; retract
G1 Z0.600 F12000.000 ; lift Z
;AFTER_LAYER_CHANGE
;0.2
G1 X165.938 Y86.069 F12000.000 ; move to first skirt point
G1 Z0.200 F12000.000 ; restore layer Z
G1 E0.80000 F2100.00000 ; unretract
M204 S1000 ; adjust acceleration
G1 F1800
G1 X166.658 Y86.716 E0.03036 ; skirt
G1 X166.998 Y87.369 E0.02308 ; skirt
G1 X167.121 Y88.095 E0.02308 ; skirt
G1 X167.121 Y121.905 E1.06011 ; skirt
G1 X167.053 Y122.441 E0.01692 ; skirt
G1 X166.865 Y122.947 E0.01692 ; skirt
G1 X166.571 Y123.395 E0.01680 ; skirt
G1 X166.181 Y123.768 E0.01692 ; skirt
G1 X165.619 Y124.085 E0.02024 ; skirt
G1 X164.992 Y124.239 E0.02024 ; skirt
G1 X136.401 Y126.873 E0.90026 ; skirt
G1 X113.730 Y126.877 E0.71081 ; skirt
G1 X84.981 Y124.236 E0.90520 ; skirt
G1 X84.076 Y123.938 E0.02989 ; skirt
G1 X83.362 Y123.311 E0.02977 ; skirt
G1 X83.009 Y122.649 E0.02355 ; skirt
G1 X82.879 Y121.909 E0.02355 ; skirt
G1 X82.879 Y88.095 E1.06023 ; skirt
G1 X82.947 Y87.559 E0.01692 ; skirt
G1 X83.135 Y87.053 E0.01692 ; skirt
G1 X83.429 Y86.605 E0.01680 ; skirt
G1 X83.819 Y86.232 E0.01692 ; skirt
G1 X84.381 Y85.915 E0.02024 ; skirt
G1 X85.008 Y85.761 E0.02024 ; skirt
G1 X113.599 Y83.127 E0.90026 ; skirt
G1 X136.262 Y83.123 E0.71057 ; skirt
G1 X165.023 Y85.764 E0.90556 ; skirt
G1 X165.881 Y86.050 E0.02836 ; skirt
G1 F9600
G1 X166.658 Y86.716 E-0.21272 ; wipe and retract
G1 F9600
G1 X166.998 Y87.369 E-0.15295 ; wipe and retract
G1 F9600
G1 X167.121 Y88.095 E-0.15295 ; wipe and retract
G1 F9600
G1 X167.121 Y89.256 E-0.24139 ; wipe and retract
G1 E-0.04000 F2100.00000 ; retract
G1 Z0.800 F12000.000 ; lift Z
G1 X115.801 Y113.761 F12000.000 ; move to first perimeter point
G1 Z0.200 F12000.000 ; restore layer Z
G1 E0.80000 F2100.00000 ; unretract
G1 F1800
G1 X115.938 Y114.055 E0.01017 ; perimeter
G1 X116.041 Y114.344 E0.00964 ; perimeter
G1 X116.115 Y114.634 E0.00937 ; perimeter
G1 X116.161 Y114.923 E0.00918 ; perimeter
G1 X116.182 Y115.233 E0.00975 ; perimeter
G1 X116.174 Y115.539 E0.00958 ; perimeter
G1 X116.139 Y115.841 E0.00955 ; perimeter
G1 X115.994 Y116.400 E0.01810 ; perimeter
G1 X115.870 Y116.700 E0.01018 ; perimeter
G1 X115.720 Y116.983 E0.01004 ; perimeter
G1 X115.542 Y117.250 E0.01004 ; perimeter
G1 X115.340 Y117.498 E0.01004 ; perimeter
G1 X115.114 Y117.725 E0.01004 ; perimeter
G1 X114.723 Y118.028 E0.01551 ; perimeter
G1 X114.439 Y118.167 E0.00990 ; perimeter
G1 X114.130 Y118.282 E0.01034 ; perimeter
G1 X113.857 Y118.355 E0.00887 ; perimeter
G1 X113.524 Y118.411 E0.01057 ; perimeter
G1 X113.258 Y118.429 E0.00836 ; perimeter
G1 X112.913 Y118.420 E0.01082 ; perimeter
G1 X112.566 Y118.370 E0.01099 ; perimeter
G1 X112.318 Y118.310 E0.00800 ; perimeter
G1 X111.985 Y118.193 E0.01106 ; perimeter
G1 X111.760 Y118.087 E0.00780 ; perimeter
G1 X111.454 Y117.904 E0.01120 ; perimeter
G1 X111.218 Y117.725 E0.00927 ; perimeter
G1 X110.994 Y117.515 E0.00964 ; perimeter
G1 X110.806 Y117.300 E0.00894 ; perimeter
G1 X110.644 Y117.072 E0.00879 ; perimeter
G1 X110.461 Y116.741 E0.01183 ; perimeter
G1 X110.355 Y116.481 E0.00881 ; perimeter
G1 X110.277 Y116.216 E0.00867 ; perimeter
G1 X110.226 Y115.947 E0.00860 ; perimeter
G1 X110.172 Y115.298 E0.02039 ; perimeter
G1 X110.224 Y114.768 E0.01672 ; perimeter
G1 X110.378 Y114.258 E0.01669 ; perimeter
G1 X110.558 Y113.902 E0.01252 ; perimeter
G1 X110.769 Y113.573 E0.01225 ; perimeter
G1 X111.098 Y113.162 E0.01650 ; perimeter
G1 X111.512 Y112.812 E0.01699 ; perimeter
G1 X111.988 Y112.546 E0.01711 ; perimeter
G1 X112.503 Y112.375 E0.01702 ; perimeter
G1 X112.833 Y112.318 E0.01051 ; perimeter
G1 X113.117 Y112.301 E0.00893 ; perimeter
G1 X113.387 Y112.306 E0.00847 ; perimeter
G1 X113.727 Y112.350 E0.01075 ; perimeter
G1 X114.254 Y112.497 E0.01716 ; perimeter
G1 X114.535 Y112.620 E0.00961 ; perimeter
G1 X114.802 Y112.769 E0.00956 ; perimeter
G1 X115.054 Y112.944 E0.00964 ; perimeter
G1 X115.291 Y113.145 E0.00973 ; perimeter
G1 X115.509 Y113.369 E0.00981 ; perimeter
G1 X115.768 Y113.711 E0.01344 ; perimeter
G1 X116.125 Y113.761 F12000.000 ; move inwards before travel
G1 F9600
G1 X115.938 Y114.055 E-0.07975 ; wipe and retract
G1 F9600
G1 X116.041 Y114.344 E-0.06387 ; wipe and retract
G1 F9600
G1 X116.115 Y114.634 E-0.06212 ; wipe and retract
G1 F9600
G1 X116.161 Y114.923 E-0.06087 ; wipe and retract
G1 F9600
G1 X116.182 Y115.233 E-0.06464 ; wipe and retract
G1 F9600
G1 X116.174 Y115.539 E-0.06348 ; wipe and retract
G1 F9600
G1 X116.139 Y115.841 E-0.06331 ; wipe and retract
G1 F9600
G1 X115.994 Y116.400 E-0.11997 ; wipe and retract
G1 F9600
G1 X115.870 Y116.700 E-0.06747 ; wipe and retract
G1 F9600
G1 X115.720 Y116.983 E-0.06657 ; wipe and retract
G1 F9600
G1 X115.592 Y117.175 E-0.04795 ; wipe and retract
G1 E-0.04000 F2100.00000 ; retract
G1 Z0.800 F12000.000 ; lift Z
G1 X114.036 Y98.163 F12000.000 ; move to first perimeter point
G1 Z0.200 F12000.000 ; restore layer Z
G1 E0.80000 F2100.00000 ; unretract
G1 F1800
G1 X113.706 Y98.163 E0.01036 ; perimeter
G1 X114.125 Y98.074 E0.01344 ; perimeter
G1 X114.079 Y98.120 E0.00206 ; perimeter
G1 X114.723 Y97.428 F12000.000 ; move to first perimeter point
G1 F1800
G1 X114.439 Y97.567 E0.00990 ; perimeter
G1 X114.130 Y97.682 E0.01034 ; perimeter
G1 X113.857 Y97.755 E0.00887 ; perimeter
G1 X113.524 Y97.811 E0.01057 ; perimeter
G1 X113.258 Y97.829 E0.00836 ; perimeter
G1 X112.913 Y97.820 E0.01082 ; perimeter
G1 X112.566 Y97.770 E0.01099 ; perimeter
G1 X112.318 Y97.710 E0.00800 ; perimeter
G1 X111.985 Y97.593 E0.01106 ; perimeter
G1 X111.760 Y97.487 E0.00780 ; perimeter
G1 X111.454 Y97.304 E0.01120 ; perimeter
G1 X111.218 Y97.125 E0.00927 ; perimeter
G1 X110.994 Y96.915 E0.00964 ; perimeter
G1 X110.806 Y96.700 E0.00894 ; perimeter
G1 X110.644 Y96.472 E0.00879 ; perimeter
G1 X110.461 Y96.141 E0.01183 ; perimeter
G1 X110.355 Y95.881 E0.00881 ; perimeter
G1 X110.277 Y95.616 E0.00867 ; perimeter
G1 X110.226 Y95.347 E0.00860 ; perimeter
G1 X110.172 Y94.698 E0.02039 ; perimeter
G1 X110.224 Y94.168 E0.01672 ; perimeter
G1 X110.378 Y93.658 E0.01669 ; perimeter
G1 X110.558 Y93.302 E0.01252 ; perimeter
G1 X110.769 Y92.973 E0.01225 ; perimeter
G1 X111.098 Y92.562 E0.01650 ; perimeter
G1 X111.512 Y92.212 E0.01699 ; perimeter
G1 X111.988 Y91.946 E0.01711 ; perimeter
G1 X112.503 Y91.775 E0.01702 ; perimeter
G1 X112.833 Y91.718 E0.01051 ; perimeter
G1 X113.117 Y91.701 E0.00893 ; perimeter
G1 X113.387 Y91.706 E0.00847 ; perimeter
G1 X113.727 Y91.750 E0.01075 ; perimeter
G1 X114.254 Y91.897 E0.01716 ; perimeter
G1 X114.535 Y92.020 E0.00961 ; perimeter
G1 X114.802 Y92.169 E0.00956 ; perimeter
G1 X115.054 Y92.344 E0.00964 ; perimeter
G1 X115.291 Y92.545 E0.00973 ; perimeter
G1 X115.509 Y92.769 E0.00981 ; perimeter
G1 X115.801 Y93.161 E0.01532 ; perimeter
G1 X115.938 Y93.455 E0.01017 ; perimeter
G1 X116.041 Y93.744 E0.00964 ; perimeter
G1 X116.115 Y94.034 E0.00937 ; perimeter
G1 X116.161 Y94.323 E0.00918 ; perimeter
G1 X116.182 Y94.633 E0.00975 ; perimeter
G1 X116.174 Y94.939 E0.00958 ; perimeter
G1 X116.139 Y95.241 E0.00955 ; perimeter
G1 X115.994 Y95.800 E0.01810 ; perimeter
G1 X115.870 Y96.100 E0.01018 ; perimeter
G1 X115.720 Y96.383 E0.01004 ; perimeter
G1 X115.542 Y96.650 E0.01004 ; perimeter
G1 X115.340 Y96.898 E0.01004 ; perimeter
G1 X115.114 Y97.125 E0.01004 ; perimeter
G1 X114.772 Y97.394 E0.01363 ; perimeter
G1 X114.728 Y97.744 F12000.000 ; move inwards before travel
G1 F9600
G1 X114.439 Y97.567 E-0.07796 ; wipe and retract
G1 F9600
G1 X114.130 Y97.682 E-0.06855 ; wipe and retract
G1 F9600
G1 X113.857 Y97.755 E-0.05879 ; wipe and retract
G1 F9600
G1 X113.524 Y97.811 E-0.07007 ; wipe and retract
G1 F9600
G1 X113.258 Y97.829 E-0.05541 ; wipe and retract
G1 F9600
G1 X112.913 Y97.820 E-0.07173 ; wipe and retract
G1 F9600
G1 X112.566 Y97.770 E-0.07287 ; wipe and retract
G1 F9600
G1 X112.318 Y97.710 E-0.05303 ; wipe and retract
G1 F9600
G1 X111.985 Y97.593 E-0.07331 ; wipe and retract
G1 F9600
G1 X111.760 Y97.487 E-0.05169 ; wipe and retract
G1 F9600
G1 X111.454 Y97.304 E-0.07423 ; wipe and retract
G1 F9600
G1 X111.330 Y97.209 E-0.03235 ; wipe and retract
G1 E-0.04000 F2100.00000 ; retract
G1 Z0.800 F12000.000 ; lift Z
G1 X137.510 Y111.760 F12000.000 ; move to first perimeter point
G1 Z0.200 F12000.000 ; restore layer Z
G1 E0.80000 F2100.00000 ; unretract
G1 F1800
G1 X135.508 Y111.760 E0.06279 ; perimeter
G1 X131.610 Y115.657 E0.17281 ; perimeter
G1 X128.213 Y112.260 E0.15064 ; perimeter
G1 X121.787 Y112.260 E0.20148 ; perimeter
G1 X118.390 Y115.657 E0.15064 ; perimeter
G1 X114.492 Y111.760 E0.17281 ; perimeter
G1 X112.490 Y111.760 E0.06279 ; perimeter
G1 X112.490 Y98.540 E0.41450 ; perimeter
G1 X114.192 Y98.540 E0.05338 ; perimeter
G1 X118.390 Y94.343 E0.18611 ; perimeter
G1 X121.787 Y97.740 E0.15064 ; perimeter
G1 X128.213 Y97.740 E0.20148 ; perimeter
G1 X131.610 Y94.343 E0.15064 ; perimeter
G1 X135.808 Y98.540 E0.18611 ; perimeter
G1 X136.076 Y98.540 E0.00842 ; perimeter
G1 X135.782 Y98.387 E0.01038 ; perimeter
G1 X135.492 Y98.184 E0.01111 ; perimeter
G1 X135.274 Y97.995 E0.00904 ; perimeter
G1 X135.032 Y97.733 E0.01119 ; perimeter
G1 X134.865 Y97.504 E0.00888 ; perimeter
G1 X134.722 Y97.263 E0.00878 ; perimeter
G1 X134.605 Y97.011 E0.00873 ; perimeter
G1 X134.508 Y96.733 E0.00922 ; perimeter
G1 X134.446 Y96.470 E0.00849 ; perimeter
G1 X134.375 Y95.814 E0.02068 ; perimeter
G1 X134.385 Y95.435 E0.01189 ; perimeter
G1 X134.425 Y95.163 E0.00863 ; perimeter
G1 X134.578 Y94.658 E0.01653 ; perimeter
G1 X134.758 Y94.302 E0.01252 ; perimeter
G1 X134.969 Y93.973 E0.01225 ; perimeter
G1 X135.298 Y93.562 E0.01650 ; perimeter
G1 X135.712 Y93.212 E0.01699 ; perimeter
G1 X136.188 Y92.946 E0.01711 ; perimeter
G1 X136.703 Y92.775 E0.01702 ; perimeter
G1 X137.033 Y92.718 E0.01051 ; perimeter
G1 X137.317 Y92.701 E0.00893 ; perimeter
G1 X137.587 Y92.706 E0.00847 ; perimeter
G1 X137.927 Y92.750 E0.01075 ; perimeter
G1 X138.457 Y92.898 E0.01725 ; perimeter
G1 X138.878 Y93.096 E0.01457 ; perimeter
G1 X139.115 Y93.243 E0.00877 ; perimeter
G1 X139.520 Y93.571 E0.01632 ; perimeter
G1 X139.880 Y93.980 E0.01708 ; perimeter
G1 X140.029 Y94.215 E0.00874 ; perimeter
G1 X140.144 Y94.468 E0.00869 ; perimeter
G1 X140.303 Y94.972 E0.01660 ; perimeter
G1 X140.377 Y95.496 E0.01660 ; perimeter
G1 X140.383 Y95.770 E0.00859 ; perimeter
G1 X140.349 Y96.164 E0.01239 ; perimeter
G1 X140.270 Y96.556 E0.01254 ; perimeter
G1 X140.189 Y96.813 E0.00845 ; perimeter
G1 X140.095 Y97.046 E0.00787 ; perimeter
G1 X139.904 Y97.409 E0.01286 ; perimeter
G1 X139.612 Y97.816 E0.01571 ; perimeter
G1 X139.272 Y98.163 E0.01525 ; perimeter
G1 X139.079 Y98.320 E0.00779 ; perimeter
G1 X138.862 Y98.461 E0.00810 ; perimeter
G1 X138.451 Y98.642 E0.01409 ; perimeter
G1 X138.184 Y98.724 E0.00875 ; perimeter
G1 X137.817 Y98.798 E0.01174 ; perimeter
G1 X137.510 Y98.827 E0.00968 ; perimeter
G1 X137.510 Y111.700 E0.40363 ; perimeter
G1 X137.507 Y112.160 F12000.000 ; move inwards before travel
G1 F9600
G1 X135.508 Y111.760 E-0.41632 ; wipe and retract
G1 F9600
G1 X134.338 Y112.929 E-0.34368 ; wipe and retract
G1 E-0.04000 F2100.00000 ; retract
G1 Z0.800 F12000.000 ; lift Z
G1 X131.610 Y93.809 F12000.000 ; move to first perimeter point
G1 Z0.200 F12000.000 ; restore layer Z
G1 E0.80000 F2100.00000 ; unretract
G1 F1800
G1 X128.057 Y97.363 E0.15757 ; perimeter
G1 X121.943 Y97.363 E0.19169 ; perimeter
G1 X118.390 Y93.809 E0.15757 ; perimeter
G1 X116.378 Y95.821 E0.08919 ; perimeter
G1 X116.510 Y95.311 E0.01651 ; perimeter
G1 X116.551 Y94.966 E0.01091 ; perimeter
G1 X116.559 Y94.625 E0.01067 ; perimeter
G1 X116.536 Y94.281 E0.01083 ; perimeter
G1 X116.485 Y93.958 E0.01026 ; perimeter
G1 X116.403 Y93.634 E0.01046 ; perimeter
G1 X116.288 Y93.311 E0.01076 ; perimeter
G1 X116.131 Y92.976 E0.01159 ; perimeter
G1 X116.011 Y92.794 E0.00686 ; perimeter
G1 X115.792 Y92.520 E0.01099 ; perimeter
G1 X115.549 Y92.269 E0.01096 ; perimeter
G1 X115.284 Y92.045 E0.01088 ; perimeter
G1 X115.001 Y91.848 E0.01079 ; perimeter
G1 X114.703 Y91.682 E0.01071 ; perimeter
G1 X114.381 Y91.541 E0.01101 ; perimeter
G1 X113.802 Y91.379 E0.01886 ; perimeter
G1 X113.415 Y91.330 E0.01224 ; perimeter
G1 X113.110 Y91.323 E0.00958 ; perimeter
G1 X112.789 Y91.343 E0.01007 ; perimeter
G1 X112.411 Y91.409 E0.01203 ; perimeter
G1 X111.835 Y91.599 E0.01902 ; perimeter
G1 X111.296 Y91.901 E0.01937 ; perimeter
G1 X110.826 Y92.298 E0.01928 ; perimeter
G1 X110.462 Y92.753 E0.01827 ; perimeter
G1 X110.230 Y93.115 E0.01348 ; perimeter
G1 X110.027 Y93.518 E0.01415 ; perimeter
G1 X109.852 Y94.094 E0.01887 ; perimeter
G1 X109.793 Y94.696 E0.01897 ; perimeter
G1 X109.852 Y95.398 E0.02209 ; perimeter
G1 X109.910 Y95.705 E0.00980 ; perimeter
G1 X109.999 Y96.006 E0.00985 ; perimeter
G1 X110.120 Y96.304 E0.01009 ; perimeter
G1 X110.324 Y96.673 E0.01321 ; perimeter
G1 X110.510 Y96.934 E0.01006 ; perimeter
G1 X110.723 Y97.177 E0.01012 ; perimeter
G1 X110.975 Y97.413 E0.01084 ; perimeter
G1 X111.242 Y97.616 E0.01052 ; perimeter
G1 X111.583 Y97.821 E0.01246 ; perimeter
G1 X111.843 Y97.942 E0.00899 ; perimeter
G1 X112.211 Y98.072 E0.01224 ; perimeter
G1 X112.650 Y98.163 E0.01406 ; perimeter
G1 X112.113 Y98.163 E0.01683 ; perimeter
G1 X112.113 Y112.107 E0.43722 ; perimeter
G1 X111.835 Y112.199 E0.00917 ; perimeter
G1 X111.296 Y112.501 E0.01937 ; perimeter
G1 X110.826 Y112.898 E0.01928 ; perimeter
G1 X110.462 Y113.353 E0.01827 ; perimeter
G1 X110.230 Y113.715 E0.01348 ; perimeter
G1 X110.027 Y114.118 E0.01415 ; perimeter
G1 X109.852 Y114.694 E0.01887 ; perimeter
G1 X109.793 Y115.296 E0.01897 ; perimeter
G1 X109.852 Y115.998 E0.02209 ; perimeter
G1 X109.910 Y116.305 E0.00980 ; perimeter
G1 X109.999 Y116.606 E0.00985 ; perimeter
G1 X110.120 Y116.904 E0.01009 ; perimeter
G1 X110.324 Y117.273 E0.01321 ; perimeter
G1 X110.510 Y117.534 E0.01006 ; perimeter
G1 X110.723 Y117.777 E0.01012 ; perimeter
G1 X110.975 Y118.013 E0.01084 ; perimeter
G1 X111.242 Y118.216 E0.01052 ; perimeter
G1 X111.583 Y118.421 E0.01246 ; perimeter
G1 X111.843 Y118.542 E0.00899 ; perimeter
G1 X112.211 Y118.672 E0.01224 ; perimeter
G1 X112.495 Y118.741 E0.00917 ; perimeter
G1 X112.882 Y118.796 E0.01224 ; perimeter
G1 X113.266 Y118.806 E0.01206 ; perimeter
G1 X113.568 Y118.786 E0.00950 ; perimeter
G1 X113.937 Y118.724 E0.01172 ; perimeter
G1 X114.245 Y118.642 E0.01001 ; perimeter
G1 X114.589 Y118.514 E0.01150 ; perimeter
G1 X114.913 Y118.355 E0.01133 ; perimeter
G1 X115.094 Y118.231 E0.00689 ; perimeter
G1 X115.368 Y118.004 E0.01114 ; perimeter
G1 X115.620 Y117.751 E0.01120 ; perimeter
G1 X115.846 Y117.474 E0.01120 ; perimeter
G1 X116.044 Y117.177 E0.01120 ; perimeter
G1 X116.212 Y116.861 E0.01120 ; perimeter
G1 X116.353 Y116.520 E0.01158 ; perimeter
G1 X116.510 Y115.911 E0.01973 ; perimeter
G1 X116.551 Y115.566 E0.01091 ; perimeter
G1 X116.559 Y115.225 E0.01067 ; perimeter
G1 X116.536 Y114.881 E0.01083 ; perimeter
G1 X116.485 Y114.558 E0.01026 ; perimeter
G1 X116.385 Y114.186 E0.01205 ; perimeter
G1 X118.390 Y116.191 E0.08887 ; perimeter
G1 X121.943 Y112.637 E0.15757 ; perimeter
G1 X128.057 Y112.637 E0.19169 ; perimeter
G1 X131.610 Y116.191 E0.15757 ; perimeter
G1 X135.664 Y112.137 E0.17974 ; perimeter
G1 X136.223 Y112.137 E0.01755 ; perimeter
G1 X136.035 Y112.199 E0.00622 ; perimeter
