; generated by Slic3r 1.37.2.1-prusa3d on 2019-02-24 at 11:59:29

; 

; external perimeters extrusion width = 0.45mm
; perimeters extrusion width = 0.45mm
; infill extrusion width = 0.45mm
; solid infill extrusion width = 0.45mm
; top infill extrusion width = 0.40mm
; first layer extrusion width = 0.42mm

M107 ; disable fan
M115 U3.4.0 ; tell printer latest fw version
M83  ; extruder relative mode
M104 S230 ; set extruder temp
M140 S85 ; set bed temp
M190 S85 ; wait for bed temp
M109 S230 ; wait for extruder temp
G28 W ; home all without mesh bed level
G80 ; mesh bed leveling
G1 Y-3.0 F1000.0 ; go outside print area
G92 E0.0
G1 X60.0 E9.0  F1000.0 ; intro line
G1 X100.0 E12.5  F1000.0 ; intro line
G92 E0.0
M221 S95
M900 K45
G21 ; set units to millimeters
G90 ; use absolute coordinates
M83 ; use relative distances for extrusion
;BEFORE_LAYER_CHANGE
G92 E0.0
;0.2


G1 E-0.80000 F2100.00000 ; retract
G1 Z0.600 F10800.000 ; lift Z
;AFTER_LAYER_CHANGE
;0.2
G1 X26.611 Y25.948 F10800.000 ; move to first skirt point
G1 Z0.200 F10800.000 ; restore layer Z
G1 E0.80000 F2100.00000 ; unretract
M204 S1000 ; adjust acceleration
G1 F1200
G1 X29.773 Y23.102 E0.13340 ; skirt
G1 X33.083 Y20.511 E0.13181 ; skirt
G1 X36.533 Y18.170 E0.13073 ; skirt
G1 X40.126 Y16.068 E0.13049 ; skirt
G1 X43.858 Y14.210 E0.13073 ; skirt
G1 X47.704 Y12.608 E0.13061 ; skirt
G1 X51.684 Y11.257 E0.13180 ; skirt
G1 X53.931 Y10.628 E0.07316 ; skirt
G1 X57.670 Y9.769 E0.12026 ; skirt
G1 X61.782 Y9.105 E0.13061 ; skirt
G1 X65.968 Y8.715 E0.13181 ; skirt
G1 X70.117 Y8.610 E0.13014 ; skirt
G1 X74.294 Y8.785 E0.13109 ; skirt
G1 X78.397 Y9.233 E0.12942 ; skirt
G1 X80.533 Y9.577 E0.06782 ; skirt
G1 X84.606 Y10.448 E0.13061 ; skirt
G1 X88.576 Y11.579 E0.12942 ; skirt
G1 X92.498 Y12.986 E0.13061 ; skirt
G1 X96.312 Y14.651 E0.13050 ; skirt
G1 X100.006 Y16.568 E0.13049 ; skirt
G1 X210.303 Y82.909 E4.03564 ; skirt
G1 X213.790 Y85.195 E0.13075 ; skirt
G1 X217.051 Y87.658 E0.12811 ; skirt
G1 X218.649 Y88.994 E0.06532 ; skirt
G1 X221.733 Y91.851 E0.13181 ; skirt
G1 X224.618 Y94.913 E0.13192 ; skirt
G1 X227.215 Y98.068 E0.12811 ; skirt
G1 X228.482 Y99.774 E0.06663 ; skirt
G1 X230.770 Y103.204 E0.12930 ; skirt
G1 X231.859 Y105.029 E0.06663 ; skirt
G1 X233.791 Y108.673 E0.12930 ; skirt
G1 X234.689 Y110.594 E0.06651 ; skirt
G1 X235.522 Y112.549 E0.06663 ; skirt
G1 X236.946 Y116.420 E0.12931 ; skirt
G1 X237.591 Y118.497 E0.06819 ; skirt
G1 X238.605 Y122.442 E0.12774 ; skirt
G1 X239.030 Y124.524 E0.06662 ; skirt
G1 X239.650 Y128.602 E0.12931 ; skirt
G1 X239.863 Y130.716 E0.06663 ; skirt
G1 X240.070 Y134.835 E0.12931 ; skirt
G1 X240.069 Y136.959 E0.06662 ; skirt
G1 X239.863 Y141.040 E0.12811 ; skirt
G1 X239.340 Y145.405 E0.13782 ; skirt
G1 X238.613 Y149.277 E0.12352 ; skirt
G1 X238.110 Y151.376 E0.06770 ; skirt
G1 X236.959 Y155.297 E0.12811 ; skirt
G1 X236.259 Y157.303 E0.06663 ; skirt
G1 X234.706 Y161.123 E0.12930 ; skirt
G1 X233.791 Y163.083 E0.06782 ; skirt
G1 X231.878 Y166.694 E0.12811 ; skirt
G1 X230.791 Y168.520 E0.06663 ; skirt
G1 X228.504 Y171.951 E0.12930 ; skirt
G1 X227.238 Y173.658 E0.06663 ; skirt
G1 X224.618 Y176.843 E0.12930 ; skirt
G1 X223.187 Y178.414 E0.06663 ; skirt
G1 X220.259 Y181.318 E0.12930 ; skirt
G1 X218.666 Y182.747 E0.06711 ; skirt
G1 X215.439 Y185.358 E0.13014 ; skirt
G1 X212.033 Y187.755 E0.13061 ; skirt
G1 X208.476 Y189.916 E0.13049 ; skirt
G1 X204.775 Y191.837 E0.13073 ; skirt
G1 X200.961 Y193.502 E0.13049 ; skirt
G1 X197.040 Y194.909 E0.13061 ; skirt
G1 X193.033 Y196.049 E0.13061 ; skirt
G1 X188.959 Y196.918 E0.13061 ; skirt
G1 X184.835 Y197.511 E0.13061 ; skirt
G1 X180.682 Y197.825 E0.13061 ; skirt
G1 X176.516 Y197.860 E0.13061 ; skirt
G1 X172.357 Y197.616 E0.13061 ; skirt
G1 X168.225 Y197.092 E0.13061 ; skirt
G1 X164.136 Y196.293 E0.13061 ; skirt
G1 X160.111 Y195.220 E0.13061 ; skirt
G1 X156.188 Y193.888 E0.12990 ; skirt
G1 X152.284 Y192.260 E0.13264 ; skirt
G1 X148.626 Y190.439 E0.12811 ; skirt
G1 X146.764 Y189.392 E0.06699 ; skirt
G1 X36.546 Y123.058 E4.03340 ; skirt
G1 X33.083 Y120.708 E0.13121 ; skirt
G1 X29.773 Y118.117 E0.13180 ; skirt
G1 X28.163 Y116.718 E0.06688 ; skirt
G1 X25.250 Y113.924 E0.12654 ; skirt
G1 X22.417 Y110.819 E0.13181 ; skirt
G1 X19.823 Y107.559 E0.13061 ; skirt
G1 X17.453 Y104.129 E0.13073 ; skirt
G1 X15.320 Y100.551 E0.13061 ; skirt
G1 X13.416 Y96.803 E0.13180 ; skirt
G1 X12.511 Y94.761 E0.07003 ; skirt
G1 X11.092 Y91.090 E0.12340 ; skirt
G1 X9.848 Y87.114 E0.13061 ; skirt
G1 X8.867 Y83.027 E0.13181 ; skirt
G1 X8.170 Y78.920 E0.13061 ; skirt
G1 X7.751 Y74.775 E0.13061 ; skirt
G1 X7.611 Y70.608 E0.13073 ; skirt
G1 X7.751 Y66.444 E0.13061 ; skirt
G1 X8.176 Y62.262 E0.13180 ; skirt
G1 X8.491 Y60.203 E0.06532 ; skirt
G1 X9.309 Y56.200 E0.12811 ; skirt
G1 X10.413 Y52.183 E0.13061 ; skirt
G1 X11.797 Y48.214 E0.13181 ; skirt
G1 X13.432 Y44.382 E0.13061 ; skirt
G1 X15.320 Y40.669 E0.13061 ; skirt
G1 X17.455 Y37.087 E0.13073 ; skirt
G1 X19.823 Y33.661 E0.13061 ; skirt
G1 X22.442 Y30.372 E0.13180 ; skirt
G1 X23.820 Y28.810 E0.06532 ; skirt
G1 X26.569 Y25.991 E0.12344 ; skirt
G1 F8640
G1 X29.013 Y23.787 E-0.76000 ; wipe and retract
G1 E-0.04000 F2100.00000 ; retract
G1 Z0.800 F10800.000 ; lift Z
G1 X79.173 Y41.794 F10800.000 ; move to first perimeter point
G1 Z0.200 F10800.000 ; restore layer Z
G1 E0.80000 F2100.00000 ; unretract
G1 F1200
G1 X79.356 Y41.239 E0.01832 ; perimeter
G1 X79.608 Y40.712 E0.01832 ; perimeter
G1 X79.925 Y40.221 E0.01832 ; perimeter
G1 X80.302 Y39.774 E0.01832 ; perimeter
G1 X80.733 Y39.379 E0.01832 ; perimeter
G1 X81.211 Y39.042 E0.01832 ; perimeter
G1 X81.727 Y38.769 E0.01832 ; perimeter
G1 X82.276 Y38.562 E0.01838 ; perimeter
G1 X82.870 Y38.425 E0.01912 ; perimeter
G1 X83.424 Y38.367 E0.01747 ; perimeter
G1 X84.008 Y38.380 E0.01832 ; perimeter
G1 X84.586 Y38.467 E0.01832 ; perimeter
G1 X85.148 Y38.627 E0.01832 ; perimeter
G1 X85.674 Y38.853 E0.01794 ; perimeter
G1 X87.042 Y39.583 E0.04861 ; perimeter
G1 X88.366 Y40.365 E0.04823 ; perimeter
G1 X89.656 Y41.203 E0.04823 ; perimeter
G1 X90.908 Y42.097 E0.04823 ; perimeter
G1 X92.120 Y43.044 E0.04823 ; perimeter
G1 X93.290 Y44.042 E0.04823 ; perimeter
G1 X94.416 Y45.090 E0.04823 ; perimeter
G1 X95.496 Y46.186 E0.04825 ; perimeter
G1 X96.575 Y47.385 E0.05060 ; perimeter
G1 X97.508 Y48.511 E0.04584 ; perimeter
G1 X98.436 Y49.737 E0.04823 ; perimeter
G1 X99.311 Y51.002 E0.04823 ; perimeter
G1 X100.131 Y52.304 E0.04825 ; perimeter
G1 X100.928 Y53.707 E0.05060 ; perimeter
G1 X101.598 Y55.007 E0.04584 ; perimeter
G1 X102.242 Y56.404 E0.04823 ; perimeter
G1 X102.825 Y57.827 E0.04823 ; perimeter
G1 X103.347 Y59.274 E0.04823 ; perimeter
G1 X103.805 Y60.742 E0.04823 ; perimeter
G1 X104.200 Y62.230 E0.04825 ; perimeter
G1 X104.542 Y63.806 E0.05060 ; perimeter
G1 X104.794 Y65.246 E0.04584 ; perimeter
G1 X104.993 Y66.772 E0.04823 ; perimeter
G1 X105.126 Y68.304 E0.04823 ; perimeter
G1 X105.192 Y69.841 E0.04823 ; perimeter
G1 X105.192 Y71.379 E0.04823 ; perimeter
G1 X105.129 Y72.839 E0.04584 ; perimeter
G1 X104.993 Y74.447 E0.05060 ; perimeter
G1 X104.794 Y75.973 E0.04825 ; perimeter
G1 X104.529 Y77.488 E0.04823 ; perimeter
G1 X104.199 Y78.991 E0.04823 ; perimeter
G1 X103.805 Y80.477 E0.04823 ; perimeter
G1 X103.347 Y81.946 E0.04823 ; perimeter
G1 X102.825 Y83.393 E0.04823 ; perimeter
G1 X102.242 Y84.816 E0.04823 ; perimeter
G1 X101.597 Y86.213 E0.04825 ; perimeter
G1 X100.856 Y87.646 E0.05060 ; perimeter
G1 X100.131 Y88.916 E0.04584 ; perimeter
G1 X99.311 Y90.217 E0.04823 ; perimeter
G1 X98.436 Y91.482 E0.04823 ; perimeter
G1 X97.508 Y92.708 E0.04823 ; perimeter
G1 X96.527 Y93.893 E0.04823 ; perimeter
G1 X95.495 Y95.034 E0.04823 ; perimeter
G1 X94.416 Y96.130 E0.04823 ; perimeter
G1 X93.290 Y97.178 E0.04823 ; perimeter
G1 X92.120 Y98.176 E0.04823 ; perimeter
G1 X90.908 Y99.123 E0.04823 ; perimeter
G1 X89.656 Y100.016 E0.04823 ; perimeter
G1 X88.366 Y100.855 E0.04823 ; perimeter
G1 X87.042 Y101.637 E0.04823 ; perimeter
G1 X85.674 Y102.367 E0.04861 ; perimeter
G1 X85.146 Y102.593 E0.01799 ; perimeter
G1 X84.559 Y102.756 E0.01912 ; perimeter
G1 X84.008 Y102.840 E0.01747 ; perimeter
G1 X83.424 Y102.853 E0.01832 ; perimeter
G1 X82.843 Y102.792 E0.01832 ; perimeter
G1 X82.274 Y102.657 E0.01832 ; perimeter
G1 X81.727 Y102.451 E0.01832 ; perimeter
G1 X81.211 Y102.177 E0.01832 ; perimeter
G1 X80.733 Y101.840 E0.01832 ; perimeter
G1 X80.302 Y101.445 E0.01832 ; perimeter
G1 X79.925 Y100.999 E0.01832 ; perimeter
G1 X79.608 Y100.508 E0.01832 ; perimeter
G1 X79.356 Y99.980 E0.01832 ; perimeter
G1 X79.173 Y99.425 E0.01832 ; perimeter
G1 X79.062 Y98.852 E0.01832 ; perimeter
G1 X79.026 Y98.287 E0.01774 ; perimeter
G1 X79.026 Y42.932 E1.73561 ; perimeter
G1 X79.062 Y42.368 E0.01774 ; perimeter
G1 X79.162 Y41.853 E0.01644 ; perimeter
G1 X79.532 Y41.925 F10800.000 ; move to first perimeter point
G1 F1200
G1 X79.707 Y41.380 E0.01793 ; perimeter
G1 X79.938 Y40.896 E0.01682 ; perimeter
G1 X80.229 Y40.446 E0.01682 ; perimeter
G1 X80.575 Y40.036 E0.01682 ; perimeter
G1 X80.970 Y39.673 E0.01682 ; perimeter
G1 X81.408 Y39.364 E0.01682 ; perimeter
G1 X81.882 Y39.113 E0.01682 ; perimeter
G1 X82.385 Y38.924 E0.01684 ; perimeter
G1 X82.932 Y38.798 E0.01761 ; perimeter
G1 X83.439 Y38.744 E0.01600 ; perimeter
G1 X83.976 Y38.756 E0.01682 ; perimeter
G1 X84.506 Y38.836 E0.01682 ; perimeter
G1 X85.022 Y38.983 E0.01682 ; perimeter
G1 X85.511 Y39.193 E0.01668 ; perimeter
G1 X86.857 Y39.911 E0.04785 ; perimeter
G1 X88.167 Y40.685 E0.04772 ; perimeter
G1 X89.443 Y41.515 E0.04772 ; perimeter
G1 X90.682 Y42.399 E0.04772 ; perimeter
G1 X91.881 Y43.336 E0.04772 ; perimeter
G1 X93.039 Y44.323 E0.04772 ; perimeter
G1 X94.153 Y45.360 E0.04772 ; perimeter
G1 X95.221 Y46.444 E0.04772 ; perimeter
G1 X96.290 Y47.632 E0.05009 ; perimeter
G1 X97.212 Y48.745 E0.04534 ; perimeter
G1 X98.131 Y49.958 E0.04772 ; perimeter
G1 X98.997 Y51.210 E0.04772 ; perimeter
G1 X99.808 Y52.498 E0.04772 ; perimeter
G1 X100.597 Y53.887 E0.05009 ; perimeter
G1 X101.259 Y55.172 E0.04534 ; perimeter
G1 X101.896 Y56.554 E0.04772 ; perimeter
G1 X102.473 Y57.962 E0.04772 ; perimeter
G1 X102.989 Y59.394 E0.04772 ; perimeter
G1 X103.443 Y60.847 E0.04772 ; perimeter
G1 X103.833 Y62.318 E0.04772 ; perimeter
G1 X104.172 Y63.879 E0.05008 ; perimeter
G1 X104.421 Y65.303 E0.04534 ; perimeter
G1 X104.618 Y66.812 E0.04772 ; perimeter
G1 X104.749 Y68.329 E0.04772 ; perimeter
G1 X104.815 Y69.849 E0.04772 ; perimeter
G1 X104.815 Y71.371 E0.04772 ; perimeter
G1 X104.752 Y72.815 E0.04534 ; perimeter
G1 X104.618 Y74.407 E0.05008 ; perimeter
G1 X104.421 Y75.916 E0.04772 ; perimeter
G1 X104.159 Y77.415 E0.04772 ; perimeter
G1 X103.833 Y78.902 E0.04772 ; perimeter
G1 X103.443 Y80.373 E0.04772 ; perimeter
G1 X102.989 Y81.825 E0.04772 ; perimeter
G1 X102.473 Y83.257 E0.04772 ; perimeter
G1 X101.896 Y84.665 E0.04772 ; perimeter
G1 X101.258 Y86.047 E0.04772 ; perimeter
G1 X100.524 Y87.466 E0.05008 ; perimeter
G1 X99.808 Y88.722 E0.04534 ; perimeter
G1 X98.997 Y90.010 E0.04772 ; perimeter
G1 X98.131 Y91.261 E0.04772 ; perimeter
G1 X97.212 Y92.474 E0.04772 ; perimeter
G1 X96.241 Y93.646 E0.04772 ; perimeter
G1 X95.221 Y94.775 E0.04772 ; perimeter
G1 X94.153 Y95.859 E0.04772 ; perimeter
G1 X93.039 Y96.896 E0.04772 ; perimeter
G1 X91.881 Y97.884 E0.04772 ; perimeter
G1 X90.682 Y98.821 E0.04772 ; perimeter
G1 X89.443 Y99.705 E0.04772 ; perimeter
G1 X88.167 Y100.534 E0.04772 ; perimeter
G1 X86.857 Y101.308 E0.04772 ; perimeter
G1 X85.510 Y102.027 E0.04785 ; perimeter
G1 X85.021 Y102.237 E0.01670 ; perimeter
G1 X84.480 Y102.387 E0.01761 ; perimeter
G1 X83.976 Y102.463 E0.01600 ; perimeter
G1 X83.439 Y102.475 E0.01682 ; perimeter
G1 X82.906 Y102.419 E0.01681 ; perimeter
G1 X82.384 Y102.296 E0.01682 ; perimeter
G1 X81.882 Y102.107 E0.01682 ; perimeter
G1 X81.408 Y101.855 E0.01682 ; perimeter
G1 X80.970 Y101.546 E0.01682 ; perimeter
G1 X80.575 Y101.184 E0.01682 ; perimeter
G1 X80.229 Y100.774 E0.01682 ; perimeter
G1 X79.938 Y100.323 E0.01682 ; perimeter
G1 X79.707 Y99.839 E0.01682 ; perimeter
G1 X79.539 Y99.330 E0.01682 ; perimeter
G1 X79.437 Y98.804 E0.01682 ; perimeter
G1 X79.403 Y98.275 E0.01661 ; perimeter
G1 X79.403 Y42.944 E1.73485 ; perimeter
G1 X79.437 Y42.416 E0.01660 ; perimeter
G1 X79.521 Y41.984 E0.01381 ; perimeter
G1 X79.245 Y41.646 F10800.000 ; move inwards before travel
G1 F8640
G1 X79.707 Y41.380 E-0.14583 ; wipe and retract
G1 F8640
G1 X79.938 Y40.896 E-0.12383 ; wipe and retract
G1 F8640
G1 X80.229 Y40.446 E-0.12383 ; wipe and retract
G1 F8640
G1 X80.575 Y40.036 E-0.12383 ; wipe and retract
G1 F8640
G1 X80.970 Y39.673 E-0.12383 ; wipe and retract
G1 F8640
G1 X81.391 Y39.377 E-0.11883 ; wipe and retract
G1 E-0.04000 F2100.00000 ; retract
G1 Z0.800 F10800.000 ; lift Z
G1 X73.200 Y57.023 F10800.000 ; move to first perimeter point
G1 Z0.200 F10800.000 ; restore layer Z
G1 E0.80000 F2100.00000 ; unretract
G1 F1200
G1 X73.200 Y60.197 E0.09952 ; perimeter
G1 X66.026 Y60.197 E0.22494 ; perimeter
G1 X66.026 Y57.023 E0.09952 ; perimeter
G1 X73.140 Y57.023 E0.22306 ; perimeter
G1 X72.823 Y57.400 F10800.000 ; move to first perimeter point
G1 F1200
G1 X72.823 Y59.820 E0.07588 ; perimeter
G1 X66.403 Y59.820 E0.20129 ; perimeter
G1 X66.403 Y57.400 E0.07588 ; perimeter
G1 X72.763 Y57.400 E0.19941 ; perimeter
G1 X73.220 Y57.352 F10800.000 ; move inwards before travel
G1 F8640
G1 X72.823 Y59.820 E-0.55896 ; wipe and retract
G1 F8640
G1 X71.952 Y59.820 E-0.20104 ; wipe and retract
G1 E-0.04000 F2100.00000 ; retract
G1 Z0.800 F10800.000 ; lift Z
G1 X66.026 Y61.023 F10800.000 ; move to first perimeter point
G1 Z0.200 F10800.000 ; restore layer Z
G1 E0.80000 F2100.00000 ; unretract
G1 F1200
G1 X73.200 Y61.023 E0.22494 ; perimeter
G1 X73.200 Y64.197 E0.09952 ; perimeter
G1 X66.026 Y64.197 E0.22494 ; perimeter
G1 X66.026 Y61.083 E0.09764 ; perimeter
G1 X66.403 Y61.400 F10800.000 ; move to first perimeter point
G1 F1200
G1 X72.823 Y61.400 E0.20129 ; perimeter
G1 X72.823 Y63.820 E0.07588 ; perimeter
G1 X66.403 Y63.820 E0.20129 ; perimeter
G1 X66.403 Y61.460 E0.07400 ; perimeter
G1 X66.246 Y61.032 F10800.000 ; move inwards before travel
G1 F8640
G1 X69.694 Y61.429 E-0.76000 ; wipe and retract
G1 E-0.04000 F2100.00000 ; retract
G1 Z0.800 F10800.000 ; lift Z
G1 X66.026 Y65.023 F10800.000 ; move to first perimeter point
G1 Z0.200 F10800.000 ; restore layer Z
G1 E0.80000 F2100.00000 ; unretract
G1 F1200
G1 X73.200 Y65.023 E0.22494 ; perimeter
G1 X73.200 Y68.197 E0.09952 ; perimeter
G1 X66.026 Y68.197 E0.22494 ; perimeter
G1 X66.026 Y65.083 E0.09764 ; perimeter
G1 X66.403 Y65.400 F10800.000 ; move to first perimeter point
G1 F1200
G1 X72.823 Y65.400 E0.20129 ; perimeter
G1 X72.823 Y67.820 E0.07588 ; perimeter
G1 X66.403 Y67.820 E0.20129 ; perimeter
G1 X66.403 Y65.460 E0.07400 ; perimeter
G1 X66.246 Y65.032 F10800.000 ; move inwards before travel
G1 F8640
G1 X69.694 Y65.429 E-0.76000 ; wipe and retract
G1 E-0.04000 F2100.00000 ; retract
G1 Z0.800 F10800.000 ; lift Z
G1 X66.026 Y73.023 F10800.000 ; move to first perimeter point
G1 Z0.200 F10800.000 ; restore layer Z
G1 E0.80000 F2100.00000 ; unretract
G1 F1200
G1 X73.200 Y73.023 E0.22494 ; perimeter
G1 X73.200 Y76.197 E0.09952 ; perimeter
G1 X66.026 Y76.197 E0.22494 ; perimeter
G1 X66.026 Y73.083 E0.09764 ; perimeter
G1 X66.403 Y73.400 F10800.000 ; move to first perimeter point
G1 F1200
G1 X72.823 Y73.400 E0.20129 ; perimeter
G1 X72.823 Y75.820 E0.07588 ; perimeter
G1 X66.403 Y75.820 E0.20129 ; perimeter
G1 X66.403 Y73.460 E0.07400 ; perimeter
G1 X66.246 Y73.032 F10800.000 ; move inwards before travel
G1 F8640
G1 X69.694 Y73.429 E-0.76000 ; wipe and retract
G1 E-0.04000 F2100.00000 ; retract
G1 Z0.800 F10800.000 ; lift Z
G1 X66.026 Y77.023 F10800.000 ; move to first perimeter point
G1 Z0.200 F10800.000 ; restore layer Z
G1 E0.80000 F2100.00000 ; unretract
G1 F1200
G1 X73.200 Y77.023 E0.22494 ; perimeter
G1 X73.200 Y80.197 E0.09952 ; perimeter
G1 X66.026 Y80.197 E0.22494 ; perimeter
G1 X66.026 Y77.083 E0.09764 ; perimeter
G1 X66.403 Y77.400 F10800.000 ; move to first perimeter point
G1 F1200
