; generated by Slic3r 1.37.2.1-prusa3d on 2019-02-24 at 12:22:19

; 

; external perimeters extrusion width = 0.45mm
; perimeters extrusion width = 0.45mm
; infill extrusion width = 0.45mm
; solid infill extrusion width = 0.45mm
; top infill extrusion width = 0.40mm
; first layer extrusion width = 0.42mm

M107 ; disable fan
M115 U3.4.0 ; tell printer latest fw version
M83  ; extruder relative mode
M104 S215 ; set extruder temp
M140 S60 ; set bed temp
M190 S60 ; wait for bed temp
M109 S215 ; wait for extruder temp
G28 W ; home all without mesh bed level
G80 ; mesh bed leveling
G1 Y-3.0 F1000.0 ; go outside print area
G92 E0.0
G1 X60.0 E9.0  F1000.0 ; intro line
G1 X100.0 E12.5  F1000.0 ; intro line
G92 E0.0
M221 S95
M900 K30
G21 ; set units to millimeters
G90 ; use absolute coordinates
M83 ; use relative distances for extrusion
;BEFORE_LAYER_CHANGE
G92 E0.0
;0.2


G1 E-0.80000 F2100.00000 ; retract
G1 Z0.600 F10800.000 ; lift Z
;AFTER_LAYER_CHANGE
;0.2
G1 X30.338 Y29.558 F10800.000 ; move to first skirt point
G1 Z0.200 F10800.000 ; restore layer Z
G1 E0.80000 F2100.00000 ; unretract
M204 S1000 ; adjust acceleration
G1 F1200
G1 X31.662 Y28.199 E0.05951 ; skirt
G1 X34.764 Y25.418 E0.13061 ; skirt
G1 X38.046 Y22.852 E0.13061 ; skirt
G1 X41.496 Y20.510 E0.13073 ; skirt
G1 X45.088 Y18.409 E0.13049 ; skirt
G1 X48.821 Y16.551 E0.13073 ; skirt
G1 X52.666 Y14.949 E0.13061 ; skirt
G1 X56.647 Y13.598 E0.13180 ; skirt
G1 X58.894 Y12.968 E0.07316 ; skirt
G1 X62.632 Y12.110 E0.12026 ; skirt
G1 X66.744 Y11.445 E0.13061 ; skirt
G1 X70.930 Y11.056 E0.13181 ; skirt
G1 X75.079 Y10.951 E0.13014 ; skirt
G1 X79.256 Y11.126 E0.13109 ; skirt
G1 X83.397 Y11.579 E0.13061 ; skirt
G1 X87.499 Y12.310 E0.13061 ; skirt
G1 X91.541 Y13.315 E0.13061 ; skirt
G1 X95.511 Y14.590 E0.13073 ; skirt
G1 X99.379 Y16.126 E0.13049 ; skirt
G1 X103.139 Y17.920 E0.13061 ; skirt
G1 X106.744 Y19.947 E0.12966 ; skirt
G1 X213.730 Y88.493 E3.98394 ; skirt
G1 X217.146 Y90.900 E0.13103 ; skirt
G1 X218.787 Y92.184 E0.06532 ; skirt
G1 X221.875 Y94.860 E0.12811 ; skirt
G1 X224.861 Y97.819 E0.13181 ; skirt
G1 X227.630 Y100.962 E0.13133 ; skirt
G1 X230.131 Y104.216 E0.12870 ; skirt
G1 X231.340 Y105.964 E0.06663 ; skirt
G1 X233.512 Y109.469 E0.12930 ; skirt
G1 X234.539 Y111.330 E0.06663 ; skirt
G1 X235.500 Y113.221 E0.06651 ; skirt
G1 X237.180 Y116.987 E0.12930 ; skirt
G1 X237.947 Y118.969 E0.06663 ; skirt
G1 X239.240 Y122.885 E0.12930 ; skirt
G1 X239.804 Y124.934 E0.06662 ; skirt
G1 X240.696 Y128.960 E0.12931 ; skirt
G1 X241.051 Y131.055 E0.06662 ; skirt
G1 X241.534 Y135.151 E0.12931 ; skirt
G1 X241.675 Y137.271 E0.06663 ; skirt
G1 X241.744 Y141.394 E0.12930 ; skirt
G1 X241.671 Y143.518 E0.06662 ; skirt
G1 X241.328 Y147.589 E0.12811 ; skirt
G1 X241.039 Y149.729 E0.06770 ; skirt
G1 X240.288 Y153.749 E0.12823 ; skirt
G1 X239.214 Y157.908 E0.13468 ; skirt
G1 X237.947 Y161.740 E0.12654 ; skirt
G1 X237.180 Y163.722 E0.06663 ; skirt
G1 X235.500 Y167.488 E0.12930 ; skirt
G1 X234.519 Y169.416 E0.06782 ; skirt
G1 X232.486 Y172.960 E0.12811 ; skirt
G1 X231.338 Y174.748 E0.06663 ; skirt
G1 X228.937 Y178.101 E0.12930 ; skirt
G1 X227.615 Y179.765 E0.06663 ; skirt
G1 X224.889 Y182.860 E0.12930 ; skirt
G1 X223.409 Y184.379 E0.06651 ; skirt
G1 X221.763 Y185.949 E0.07133 ; skirt
G1 X218.754 Y188.551 E0.12471 ; skirt
G1 X215.433 Y191.059 E0.13049 ; skirt
G1 X211.948 Y193.341 E0.13061 ; skirt
G1 X208.317 Y195.383 E0.13061 ; skirt
G1 X204.557 Y197.178 E0.13061 ; skirt
G1 X200.686 Y198.715 E0.13061 ; skirt
G1 X196.720 Y199.989 E0.13061 ; skirt
G1 X192.677 Y200.994 E0.13061 ; skirt
G1 X188.576 Y201.725 E0.13061 ; skirt
G1 X184.435 Y202.179 E0.13061 ; skirt
G1 X180.273 Y202.354 E0.13061 ; skirt
G1 X176.108 Y202.249 E0.13061 ; skirt
G1 X171.960 Y201.865 E0.13061 ; skirt
G1 X167.844 Y201.203 E0.13073 ; skirt
G1 X163.789 Y200.267 E0.13050 ; skirt
G1 X159.801 Y199.060 E0.13061 ; skirt
G1 X155.936 Y197.601 E0.12954 ; skirt
G1 X152.078 Y195.838 E0.13299 ; skirt
G1 X148.484 Y193.895 E0.12811 ; skirt
G1 X146.667 Y192.793 E0.06663 ; skirt
G1 X39.775 Y124.265 E3.98114 ; skirt
G1 X36.383 Y121.793 E0.13157 ; skirt
G1 X33.162 Y119.093 E0.13180 ; skirt
G1 X31.457 Y117.500 E0.07317 ; skirt
G1 X28.782 Y114.750 E0.12026 ; skirt
G1 X26.067 Y111.566 E0.13121 ; skirt
G1 X23.573 Y108.206 E0.13121 ; skirt
G1 X21.318 Y104.699 E0.13073 ; skirt
G1 X19.307 Y101.051 E0.13061 ; skirt
G1 X17.530 Y97.241 E0.13180 ; skirt
G1 X15.980 Y93.213 E0.13532 ; skirt
G1 X14.810 Y89.452 E0.12352 ; skirt
G1 X14.290 Y87.438 E0.06520 ; skirt
G1 X13.447 Y83.320 E0.13181 ; skirt
G1 X12.892 Y79.230 E0.12942 ; skirt
G1 X12.608 Y75.035 E0.13181 ; skirt
G1 X12.608 Y70.870 E0.13061 ; skirt
G1 X12.888 Y66.713 E0.13061 ; skirt
G1 X13.446 Y62.585 E0.13061 ; skirt
G1 X14.280 Y58.504 E0.13061 ; skirt
G1 X15.387 Y54.484 E0.13073 ; skirt
G1 X16.761 Y50.551 E0.13061 ; skirt
G1 X18.412 Y46.685 E0.13180 ; skirt
G1 X20.284 Y43.006 E0.12942 ; skirt
G1 X22.438 Y39.396 E0.13180 ; skirt
G1 X24.809 Y35.971 E0.13061 ; skirt
G1 X27.352 Y32.774 E0.12811 ; skirt
G1 X28.729 Y31.210 E0.06532 ; skirt
G1 X30.296 Y29.601 E0.07042 ; skirt
G1 F8640
G1 X31.662 Y28.199 E-0.45210 ; wipe and retract
G1 F8640
G1 X32.655 Y27.309 E-0.30790 ; wipe and retract
G1 E-0.04000 F2100.00000 ; retract
G1 Z0.800 F10800.000 ; lift Z
G1 X189.745 Y110.457 F10800.000 ; move to first perimeter point
G1 Z0.200 F10800.000 ; restore layer Z
G1 E0.80000 F2100.00000 ; unretract
G1 F1200
G1 X190.063 Y109.966 E0.01832 ; perimeter
G1 X190.440 Y109.519 E0.01832 ; perimeter
G1 X190.870 Y109.124 E0.01832 ; perimeter
G1 X191.348 Y108.787 E0.01832 ; perimeter
G1 X191.864 Y108.513 E0.01832 ; perimeter
G1 X192.413 Y108.307 E0.01838 ; perimeter
G1 X193.007 Y108.170 E0.01912 ; perimeter
G1 X193.561 Y108.111 E0.01747 ; perimeter
G1 X194.145 Y108.125 E0.01832 ; perimeter
G1 X194.723 Y108.212 E0.01832 ; perimeter
G1 X195.285 Y108.372 E0.01832 ; perimeter
G1 X195.811 Y108.597 E0.01794 ; perimeter
G1 X197.179 Y109.327 E0.04861 ; perimeter
G1 X198.503 Y110.109 E0.04823 ; perimeter
G1 X199.793 Y110.948 E0.04823 ; perimeter
G1 X201.045 Y111.841 E0.04823 ; perimeter
G1 X202.257 Y112.788 E0.04823 ; perimeter
G1 X203.427 Y113.786 E0.04823 ; perimeter
G1 X204.553 Y114.834 E0.04823 ; perimeter
G1 X205.633 Y115.930 E0.04825 ; perimeter
G1 X206.712 Y117.130 E0.05060 ; perimeter
G1 X207.645 Y118.256 E0.04584 ; perimeter
G1 X208.574 Y119.482 E0.04823 ; perimeter
G1 X209.449 Y120.747 E0.04823 ; perimeter
G1 X210.268 Y122.049 E0.04825 ; perimeter
G1 X211.065 Y123.452 E0.05060 ; perimeter
G1 X211.735 Y124.752 E0.04584 ; perimeter
G1 X212.379 Y126.148 E0.04823 ; perimeter
G1 X212.962 Y127.572 E0.04823 ; perimeter
G1 X213.484 Y129.019 E0.04823 ; perimeter
G1 X213.942 Y130.487 E0.04823 ; perimeter
G1 X214.337 Y131.974 E0.04825 ; perimeter
G1 X214.679 Y133.551 E0.05060 ; perimeter
G1 X214.931 Y134.991 E0.04584 ; perimeter
G1 X215.130 Y136.516 E0.04823 ; perimeter
G1 X215.263 Y138.049 E0.04823 ; perimeter
G1 X215.329 Y139.585 E0.04823 ; perimeter
G1 X215.329 Y141.124 E0.04823 ; perimeter
G1 X215.266 Y142.584 E0.04584 ; perimeter
G1 X215.130 Y144.192 E0.05060 ; perimeter
G1 X214.931 Y145.718 E0.04825 ; perimeter
G1 X214.666 Y147.233 E0.04823 ; perimeter
G1 X214.336 Y148.735 E0.04823 ; perimeter
G1 X213.942 Y150.222 E0.04823 ; perimeter
G1 X213.484 Y151.690 E0.04823 ; perimeter
G1 X212.962 Y153.137 E0.04823 ; perimeter
G1 X212.379 Y154.560 E0.04823 ; perimeter
G1 X211.734 Y155.958 E0.04825 ; perimeter
G1 X210.993 Y157.391 E0.05060 ; perimeter
G1 X210.268 Y158.660 E0.04584 ; perimeter
G1 X209.449 Y159.962 E0.04823 ; perimeter
G1 X208.574 Y161.227 E0.04823 ; perimeter
G1 X207.645 Y162.453 E0.04823 ; perimeter
G1 X206.664 Y163.638 E0.04823 ; perimeter
G1 X205.633 Y164.779 E0.04823 ; perimeter
G1 X204.553 Y165.875 E0.04823 ; perimeter
G1 X203.427 Y166.922 E0.04823 ; perimeter
G1 X202.257 Y167.921 E0.04823 ; perimeter
G1 X201.045 Y168.868 E0.04823 ; perimeter
G1 X199.793 Y169.761 E0.04823 ; perimeter
G1 X198.503 Y170.600 E0.04823 ; perimeter
G1 X197.179 Y171.382 E0.04823 ; perimeter
G1 X195.811 Y172.112 E0.04861 ; perimeter
G1 X195.284 Y172.338 E0.01799 ; perimeter
G1 X194.696 Y172.501 E0.01912 ; perimeter
G1 X194.145 Y172.584 E0.01747 ; perimeter
G1 X193.561 Y172.597 E0.01832 ; perimeter
G1 X192.980 Y172.536 E0.01832 ; perimeter
G1 X192.411 Y172.402 E0.01832 ; perimeter
G1 X191.864 Y172.196 E0.01832 ; perimeter
G1 X191.348 Y171.922 E0.01832 ; perimeter
G1 X190.870 Y171.585 E0.01832 ; perimeter
G1 X190.440 Y171.190 E0.01832 ; perimeter
G1 X190.063 Y170.743 E0.01832 ; perimeter
G1 X189.745 Y170.252 E0.01832 ; perimeter
G1 X189.493 Y169.725 E0.01832 ; perimeter
G1 X189.310 Y169.170 E0.01832 ; perimeter
G1 X189.199 Y168.596 E0.01832 ; perimeter
G1 X189.163 Y168.032 E0.01774 ; perimeter
G1 X189.163 Y112.677 E1.73561 ; perimeter
G1 X189.199 Y112.113 E0.01774 ; perimeter
G1 X189.310 Y111.539 E0.01832 ; perimeter
G1 X189.493 Y110.984 E0.01832 ; perimeter
G1 X189.720 Y110.511 E0.01644 ; perimeter
G1 X190.060 Y110.673 F10800.000 ; move to first perimeter point
G1 F1200
G1 X190.366 Y110.191 E0.01793 ; perimeter
G1 X190.712 Y109.781 E0.01682 ; perimeter
G1 X191.107 Y109.418 E0.01682 ; perimeter
G1 X191.545 Y109.109 E0.01682 ; perimeter
G1 X192.019 Y108.858 E0.01682 ; perimeter
G1 X192.522 Y108.669 E0.01684 ; perimeter
G1 X193.069 Y108.542 E0.01761 ; perimeter
G1 X193.576 Y108.489 E0.01600 ; perimeter
G1 X194.113 Y108.501 E0.01682 ; perimeter
G1 X194.643 Y108.581 E0.01682 ; perimeter
G1 X195.159 Y108.728 E0.01682 ; perimeter
G1 X195.648 Y108.937 E0.01668 ; perimeter
G1 X196.994 Y109.656 E0.04785 ; perimeter
G1 X198.305 Y110.430 E0.04772 ; perimeter
G1 X199.580 Y111.260 E0.04772 ; perimeter
G1 X200.819 Y112.144 E0.04772 ; perimeter
G1 X202.018 Y113.080 E0.04772 ; perimeter
G1 X203.176 Y114.068 E0.04772 ; perimeter
G1 X204.290 Y115.105 E0.04772 ; perimeter
G1 X205.358 Y116.189 E0.04772 ; perimeter
G1 X206.427 Y117.376 E0.05009 ; perimeter
G1 X207.349 Y118.490 E0.04534 ; perimeter
G1 X208.268 Y119.703 E0.04772 ; perimeter
G1 X209.134 Y120.955 E0.04772 ; perimeter
G1 X209.945 Y122.243 E0.04772 ; perimeter
G1 X210.734 Y123.632 E0.05009 ; perimeter
G1 X211.396 Y124.917 E0.04534 ; perimeter
G1 X212.033 Y126.299 E0.04772 ; perimeter
G1 X212.610 Y127.707 E0.04772 ; perimeter
G1 X213.126 Y129.139 E0.04772 ; perimeter
G1 X213.580 Y130.592 E0.04772 ; perimeter
G1 X213.970 Y132.063 E0.04772 ; perimeter
G1 X214.309 Y133.624 E0.05008 ; perimeter
G1 X214.558 Y135.048 E0.04534 ; perimeter
G1 X214.755 Y136.557 E0.04772 ; perimeter
G1 X214.886 Y138.073 E0.04772 ; perimeter
G1 X214.952 Y139.594 E0.04772 ; perimeter
G1 X214.952 Y141.115 E0.04772 ; perimeter
G1 X214.890 Y142.560 E0.04534 ; perimeter
G1 X214.755 Y144.152 E0.05008 ; perimeter
G1 X214.558 Y145.661 E0.04772 ; perimeter
G1 X214.296 Y147.160 E0.04772 ; perimeter
G1 X213.970 Y148.646 E0.04772 ; perimeter
G1 X213.580 Y150.117 E0.04772 ; perimeter
G1 X213.126 Y151.570 E0.04772 ; perimeter
G1 X212.610 Y153.002 E0.04772 ; perimeter
G1 X212.033 Y154.410 E0.04772 ; perimeter
G1 X211.396 Y155.792 E0.04772 ; perimeter
G1 X210.661 Y157.211 E0.05008 ; perimeter
G1 X209.945 Y158.466 E0.04534 ; perimeter
G1 X209.134 Y159.754 E0.04772 ; perimeter
G1 X208.268 Y161.006 E0.04772 ; perimeter
G1 X207.349 Y162.219 E0.04772 ; perimeter
G1 X206.379 Y163.391 E0.04772 ; perimeter
G1 X205.358 Y164.520 E0.04772 ; perimeter
G1 X204.290 Y165.604 E0.04772 ; perimeter
G1 X203.176 Y166.641 E0.04772 ; perimeter
G1 X202.018 Y167.629 E0.04772 ; perimeter
G1 X200.819 Y168.565 E0.04772 ; perimeter
G1 X199.580 Y169.449 E0.04772 ; perimeter
G1 X198.305 Y170.279 E0.04772 ; perimeter
G1 X196.994 Y171.053 E0.04772 ; perimeter
G1 X195.648 Y171.771 E0.04785 ; perimeter
G1 X195.158 Y171.981 E0.01670 ; perimeter
G1 X194.617 Y172.132 E0.01761 ; perimeter
G1 X194.113 Y172.208 E0.01600 ; perimeter
G1 X193.576 Y172.220 E0.01682 ; perimeter
G1 X193.043 Y172.164 E0.01681 ; perimeter
G1 X192.521 Y172.040 E0.01682 ; perimeter
G1 X192.019 Y171.851 E0.01682 ; perimeter
G1 X191.545 Y171.600 E0.01682 ; perimeter
G1 X191.107 Y171.291 E0.01682 ; perimeter
G1 X190.712 Y170.928 E0.01682 ; perimeter
G1 X190.366 Y170.518 E0.01682 ; perimeter
G1 X190.075 Y170.068 E0.01682 ; perimeter
G1 X189.844 Y169.584 E0.01682 ; perimeter
G1 X189.676 Y169.075 E0.01682 ; perimeter
G1 X189.574 Y168.548 E0.01682 ; perimeter
G1 X189.540 Y168.020 E0.01661 ; perimeter
G1 X189.540 Y112.689 E1.73485 ; perimeter
G1 X189.574 Y112.161 E0.01660 ; perimeter
G1 X189.676 Y111.634 E0.01682 ; perimeter
G1 X189.844 Y111.125 E0.01682 ; perimeter
G1 X190.034 Y110.728 E0.01381 ; perimeter
G1 X189.853 Y110.331 F10800.000 ; move inwards before travel
G1 F8640
G1 X190.366 Y110.191 E-0.14583 ; wipe and retract
G1 F8640
G1 X190.712 Y109.781 E-0.12383 ; wipe and retract
G1 F8640
G1 X191.107 Y109.418 E-0.12383 ; wipe and retract
G1 F8640
G1 X191.545 Y109.109 E-0.12383 ; wipe and retract
G1 F8640
G1 X192.019 Y108.858 E-0.12383 ; wipe and retract
G1 F8640
G1 X192.501 Y108.676 E-0.11883 ; wipe and retract
G1 E-0.04000 F2100.00000 ; retract
G1 Z0.800 F10800.000 ; lift Z
G1 X183.337 Y126.767 F10800.000 ; move to first perimeter point
G1 Z0.200 F10800.000 ; restore layer Z
G1 E0.80000 F2100.00000 ; unretract
G1 F1200
G1 X183.337 Y129.942 E0.09952 ; perimeter
G1 X176.163 Y129.942 E0.22494 ; perimeter
G1 X176.163 Y126.767 E0.09952 ; perimeter
G1 X183.277 Y126.767 E0.22306 ; perimeter
G1 X182.960 Y127.144 F10800.000 ; move to first perimeter point
G1 F1200
G1 X182.960 Y129.564 E0.07588 ; perimeter
G1 X176.540 Y129.564 E0.20129 ; perimeter
G1 X176.540 Y127.144 E0.07588 ; perimeter
G1 X182.900 Y127.144 E0.19941 ; perimeter
G1 X183.357 Y127.097 F10800.000 ; move inwards before travel
G1 F8640
G1 X182.960 Y129.564 E-0.55896 ; wipe and retract
G1 F8640
G1 X182.090 Y129.564 E-0.20104 ; wipe and retract
G1 E-0.04000 F2100.00000 ; retract
G1 Z0.800 F10800.000 ; lift Z
G1 X176.163 Y130.767 F10800.000 ; move to first perimeter point
G1 Z0.200 F10800.000 ; restore layer Z
G1 E0.80000 F2100.00000 ; unretract
G1 F1200
G1 X183.337 Y130.767 E0.22494 ; perimeter
G1 X183.337 Y133.942 E0.09952 ; perimeter
G1 X176.163 Y133.942 E0.22494 ; perimeter
G1 X176.163 Y130.827 E0.09764 ; perimeter
G1 X176.540 Y131.144 F10800.000 ; move to first perimeter point
G1 F1200
G1 X182.960 Y131.144 E0.20129 ; perimeter
G1 X182.960 Y133.564 E0.07588 ; perimeter
G1 X176.540 Y133.564 E0.20129 ; perimeter
G1 X176.540 Y131.204 E0.07400 ; perimeter
G1 X176.383 Y130.777 F10800.000 ; move inwards before travel
G1 F8640
G1 X179.831 Y131.174 E-0.76000 ; wipe and retract
G1 E-0.04000 F2100.00000 ; retract
G1 Z0.800 F10800.000 ; lift Z
G1 X176.163 Y134.767 F10800.000 ; move to first perimeter point
G1 Z0.200 F10800.000 ; restore layer Z
G1 E0.80000 F2100.00000 ; unretract
G1 F1200
G1 X183.337 Y134.767 E0.22494 ; perimeter
G1 X183.337 Y137.942 E0.09952 ; perimeter
G1 X176.163 Y137.942 E0.22494 ; perimeter
G1 X176.163 Y134.827 E0.09764 ; perimeter
G1 X176.540 Y135.144 F10800.000 ; move to first perimeter point
G1 F1200
G1 X182.960 Y135.144 E0.20129 ; perimeter
G1 X182.960 Y137.564 E0.07588 ; perimeter
G1 X176.540 Y137.564 E0.20129 ; perimeter
G1 X176.540 Y135.204 E0.07400 ; perimeter
G1 X176.383 Y134.777 F10800.000 ; move inwards before travel
G1 F8640
G1 X179.831 Y135.174 E-0.76000 ; wipe and retract
G1 E-0.04000 F2100.00000 ; retract
G1 Z0.800 F10800.000 ; lift Z
G1 X176.163 Y142.767 F10800.000 ; move to first perimeter point
G1 Z0.200 F10800.000 ; restore layer Z
G1 E0.80000 F2100.00000 ; unretract
G1 F1200
G1 X183.337 Y142.767 E0.22494 ; perimeter
G1 X183.337 Y145.942 E0.09952 ; perimeter
G1 X176.163 Y145.942 E0.22494 ; perimeter
G1 X176.163 Y142.827 E0.09764 ; perimeter
G1 X176.540 Y143.144 F10800.000 ; move to first perimeter point
G1 F1200
G1 X182.960 Y143.144 E0.20129 ; perimeter
G1 X182.960 Y145.564 E0.07588 ; perimeter
G1 X176.540 Y145.564 E0.20129 ; perimeter
G1 X176.540 Y143.204 E0.07400 ; perimeter
G1 X176.383 Y142.777 F10800.000 ; move inwards before travel
G1 F8640
G1 X179.831 Y143.174 E-0.76000 ; wipe and retract
