; generated by Slic3r 1.37.2.1-prusa3d on 2019-02-21 at 23:54:25

; 

; external perimeters extrusion width = 0.45mm
; perimeters extrusion width = 0.45mm
; infill extrusion width = 0.45mm
; solid infill extrusion width = 0.45mm
; top infill extrusion width = 0.40mm
; first layer extrusion width = 0.42mm

M107 ; disable fan
M115 U3.4.0 ; tell printer latest fw version
M83  ; extruder relative mode
M104 S230 ; set extruder temp
M140 S85 ; set bed temp
M190 S85 ; wait for bed temp
M109 S230 ; wait for extruder temp
G28 W ; home all without mesh bed level
G80 ; mesh bed leveling
G1 Y-3.0 F1000.0 ; go outside print area
G92 E0.0
G1 X60.0 E9.0  F1000.0 ; intro line
G1 X100.0 E12.5  F1000.0 ; intro line
G92 E0.0
M221 S95
M900 K45
G21 ; set units to millimeters
G90 ; use absolute coordinates
M83 ; use relative distances for extrusion
;BEFORE_LAYER_CHANGE
G92 E0.0
;0.2


G1 E-0.80000 F2100.00000 ; retract
G1 Z0.600 F10800.000 ; lift Z
;AFTER_LAYER_CHANGE
;0.2
G1 X28.100 Y31.872 F10800.000 ; move to first skirt point
G1 Z0.200 F10800.000 ; restore layer Z
G1 E0.80000 F2100.00000 ; unretract
M204 S1000 ; adjust acceleration
G1 F1200
G1 X29.672 Y30.511 E0.06518 ; skirt
G1 X32.884 Y28.000 E0.12785 ; skirt
G1 X36.322 Y25.662 E0.13035 ; skirt
G1 X39.943 Y23.543 E0.13154 ; skirt
G1 X43.664 Y21.690 E0.13035 ; skirt
G1 X47.505 Y20.089 E0.13047 ; skirt
G1 X51.478 Y18.741 E0.13154 ; skirt
G1 X55.643 Y17.642 E0.13505 ; skirt
G1 X59.498 Y16.890 E0.12315 ; skirt
G1 X61.555 Y16.593 E0.06518 ; skirt
G1 X65.733 Y16.204 E0.13154 ; skirt
G1 X69.873 Y16.099 E0.12987 ; skirt
G1 X74.004 Y16.271 E0.12963 ; skirt
G1 X76.154 Y16.470 E0.06769 ; skirt
G1 X80.231 Y17.058 E0.12916 ; skirt
G1 X84.293 Y17.923 E0.13023 ; skirt
G1 X88.256 Y19.050 E0.12916 ; skirt
G1 X90.300 Y19.744 E0.06769 ; skirt
G1 X94.128 Y21.266 E0.12916 ; skirt
G1 X97.860 Y23.046 E0.12963 ; skirt
G1 X210.397 Y83.373 E4.00354 ; skirt
G1 X213.981 Y85.553 E0.13154 ; skirt
G1 X215.822 Y86.810 E0.06989 ; skirt
G1 X218.954 Y89.179 E0.12315 ; skirt
G1 X222.126 Y91.925 E0.13154 ; skirt
G1 X225.104 Y94.880 E0.13154 ; skirt
G1 X227.803 Y97.942 E0.12796 ; skirt
G1 X229.122 Y99.598 E0.06638 ; skirt
G1 X230.527 Y101.507 E0.07432 ; skirt
G1 X232.669 Y104.730 E0.12133 ; skirt
G1 X233.776 Y106.592 E0.06794 ; skirt
G1 X235.678 Y110.186 E0.12747 ; skirt
G1 X236.574 Y112.108 E0.06649 ; skirt
G1 X238.124 Y115.920 E0.12904 ; skirt
G1 X238.822 Y117.923 E0.06649 ; skirt
G1 X239.982 Y121.876 E0.12916 ; skirt
G1 X240.524 Y124.179 E0.07421 ; skirt
G1 X241.230 Y127.980 E0.12121 ; skirt
G1 X241.518 Y130.132 E0.06806 ; skirt
G1 X241.857 Y134.183 E0.12748 ; skirt
G1 X241.927 Y136.303 E0.06649 ; skirt
G1 X241.859 Y140.380 E0.12785 ; skirt
G1 X241.714 Y142.530 E0.06757 ; skirt
G1 X241.235 Y146.587 E0.12808 ; skirt
G1 X240.422 Y150.894 E0.13743 ; skirt
G1 X239.440 Y154.697 E0.12315 ; skirt
G1 X238.810 Y156.722 E0.06650 ; skirt
G1 X237.388 Y160.584 E0.12904 ; skirt
G1 X236.541 Y162.570 E0.06769 ; skirt
G1 X234.755 Y166.235 E0.12785 ; skirt
G1 X233.733 Y168.089 E0.06638 ; skirt
G1 X231.566 Y171.592 E0.12916 ; skirt
G1 X230.360 Y173.337 E0.06650 ; skirt
G1 X227.854 Y176.601 E0.12904 ; skirt
G1 X226.479 Y178.216 E0.06650 ; skirt
G1 X223.656 Y181.211 E0.12904 ; skirt
G1 X222.115 Y182.690 E0.06698 ; skirt
G1 X218.987 Y185.400 E0.12975 ; skirt
G1 X215.670 Y187.905 E0.13035 ; skirt
G1 X212.191 Y190.182 E0.13035 ; skirt
G1 X208.568 Y192.220 E0.13035 ; skirt
G1 X204.816 Y194.011 E0.13035 ; skirt
G1 X200.952 Y195.545 E0.13035 ; skirt
G1 X196.994 Y196.817 E0.13035 ; skirt
G1 X192.997 Y197.811 E0.12916 ; skirt
G1 X188.867 Y198.549 E0.13154 ; skirt
G1 X184.772 Y198.999 E0.12916 ; skirt
G1 X180.618 Y199.176 E0.13035 ; skirt
G1 X178.460 Y199.158 E0.06768 ; skirt
G1 X174.347 Y198.915 E0.12916 ; skirt
G1 X170.223 Y198.393 E0.13035 ; skirt
G1 X166.143 Y197.594 E0.13035 ; skirt
G1 X162.097 Y196.515 E0.13131 ; skirt
G1 X158.229 Y195.200 E0.12808 ; skirt
G1 X156.261 Y194.420 E0.06638 ; skirt
G1 X154.318 Y193.571 E0.06649 ; skirt
G1 X150.658 Y191.748 E0.12821 ; skirt
G1 X39.922 Y132.394 E3.93934 ; skirt
G1 X38.098 Y131.367 E0.06563 ; skirt
G1 X34.650 Y129.191 E0.12785 ; skirt
G1 X31.256 Y126.719 E0.13166 ; skirt
G1 X28.004 Y123.990 E0.13310 ; skirt
G1 X25.097 Y121.201 E0.12628 ; skirt
G1 X23.644 Y119.662 E0.06638 ; skirt
G1 X20.946 Y116.494 E0.13047 ; skirt
G1 X18.466 Y113.152 E0.13047 ; skirt
G1 X16.219 Y109.655 E0.13035 ; skirt
G1 X14.087 Y105.759 E0.13925 ; skirt
G1 X12.470 Y102.286 E0.12013 ; skirt
G1 X11.685 Y100.360 E0.06518 ; skirt
G1 X10.312 Y96.436 E0.13035 ; skirt
G1 X9.198 Y92.396 E0.13142 ; skirt
G1 X8.364 Y88.319 E0.13047 ; skirt
G1 X7.807 Y84.199 E0.13035 ; skirt
G1 X7.528 Y80.013 E0.13154 ; skirt
G1 X7.494 Y77.934 E0.06518 ; skirt
G1 X7.631 Y73.859 E0.12785 ; skirt
G1 X8.047 Y69.723 E0.13035 ; skirt
G1 X8.746 Y65.586 E0.13154 ; skirt
G1 X9.715 Y61.543 E0.13035 ; skirt
G1 X10.954 Y57.571 E0.13047 ; skirt
G1 X12.471 Y53.659 E0.13154 ; skirt
G1 X13.386 Y51.627 E0.06988 ; skirt
G1 X15.168 Y48.127 E0.12315 ; skirt
G1 X17.295 Y44.555 E0.13035 ; skirt
G1 X19.679 Y41.102 E0.13154 ; skirt
G1 X22.267 Y37.849 E0.13035 ; skirt
G1 X25.071 Y34.774 E0.13047 ; skirt
G1 X28.057 Y31.913 E0.12966 ; skirt
G1 F8640
G1 X29.672 Y30.511 E-0.49388 ; wipe and retract
G1 F8640
G1 X30.580 Y29.801 E-0.26612 ; wipe and retract
G1 E-0.04000 F2100.00000 ; retract
G1 Z0.800 F10800.000 ; lift Z
G1 X189.802 Y107.930 F10800.000 ; move to first perimeter point
G1 Z0.200 F10800.000 ; restore layer Z
G1 E0.80000 F2100.00000 ; unretract
G1 F1200
G1 X190.069 Y107.381 E0.01912 ; perimeter
G1 X190.371 Y106.913 E0.01747 ; perimeter
G1 X190.748 Y106.467 E0.01832 ; perimeter
G1 X191.179 Y106.072 E0.01832 ; perimeter
G1 X191.656 Y105.735 E0.01832 ; perimeter
G1 X192.173 Y105.461 E0.01832 ; perimeter
G1 X192.721 Y105.255 E0.01838 ; perimeter
G1 X193.315 Y105.118 E0.01912 ; perimeter
G1 X193.869 Y105.059 E0.01747 ; perimeter
G1 X194.454 Y105.072 E0.01832 ; perimeter
G1 X195.032 Y105.160 E0.01832 ; perimeter
G1 X195.594 Y105.320 E0.01832 ; perimeter
G1 X196.119 Y105.545 E0.01794 ; perimeter
G1 X197.487 Y106.275 E0.04861 ; perimeter
G1 X198.812 Y107.057 E0.04823 ; perimeter
G1 X200.101 Y107.896 E0.04823 ; perimeter
G1 X201.353 Y108.789 E0.04823 ; perimeter
G1 X202.565 Y109.736 E0.04823 ; perimeter
G1 X203.736 Y110.734 E0.04823 ; perimeter
G1 X204.861 Y111.782 E0.04823 ; perimeter
G1 X205.941 Y112.878 E0.04825 ; perimeter
G1 X207.021 Y114.078 E0.05060 ; perimeter
G1 X207.953 Y115.204 E0.04584 ; perimeter
G1 X208.882 Y116.430 E0.04823 ; perimeter
G1 X209.757 Y117.695 E0.04823 ; perimeter
G1 X210.577 Y118.997 E0.04825 ; perimeter
G1 X211.374 Y120.400 E0.05060 ; perimeter
G1 X212.043 Y121.700 E0.04584 ; perimeter
G1 X212.688 Y123.096 E0.04823 ; perimeter
G1 X213.271 Y124.519 E0.04823 ; perimeter
G1 X213.792 Y125.967 E0.04825 ; perimeter
G1 X214.270 Y127.508 E0.05060 ; perimeter
G1 X214.645 Y128.921 E0.04584 ; perimeter
G1 X214.975 Y130.424 E0.04823 ; perimeter
G1 X215.239 Y131.939 E0.04823 ; perimeter
G1 X215.438 Y133.464 E0.04823 ; perimeter
G1 X215.571 Y134.997 E0.04823 ; perimeter
G1 X215.638 Y136.533 E0.04823 ; perimeter
G1 X215.638 Y138.071 E0.04823 ; perimeter
G1 X215.574 Y139.532 E0.04584 ; perimeter
G1 X215.438 Y141.140 E0.05060 ; perimeter
G1 X215.239 Y142.666 E0.04825 ; perimeter
G1 X214.975 Y144.181 E0.04823 ; perimeter
G1 X214.645 Y145.683 E0.04823 ; perimeter
G1 X214.251 Y147.170 E0.04823 ; perimeter
G1 X213.792 Y148.638 E0.04823 ; perimeter
G1 X213.271 Y150.085 E0.04823 ; perimeter
G1 X212.688 Y151.508 E0.04823 ; perimeter
G1 X212.043 Y152.905 E0.04823 ; perimeter
G1 X211.339 Y154.272 E0.04823 ; perimeter
G1 X210.577 Y155.608 E0.04823 ; perimeter
G1 X209.757 Y156.910 E0.04823 ; perimeter
G1 X208.882 Y158.175 E0.04823 ; perimeter
G1 X207.953 Y159.401 E0.04823 ; perimeter
G1 X206.972 Y160.586 E0.04823 ; perimeter
G1 X205.941 Y161.727 E0.04823 ; perimeter
G1 X204.861 Y162.822 E0.04823 ; perimeter
G1 X203.736 Y163.870 E0.04823 ; perimeter
G1 X202.565 Y164.869 E0.04823 ; perimeter
G1 X201.353 Y165.815 E0.04823 ; perimeter
G1 X200.101 Y166.709 E0.04823 ; perimeter
G1 X198.812 Y167.547 E0.04823 ; perimeter
G1 X197.487 Y168.330 E0.04823 ; perimeter
G1 X196.119 Y169.059 E0.04861 ; perimeter
G1 X195.594 Y169.285 E0.01794 ; perimeter
G1 X195.032 Y169.445 E0.01832 ; perimeter
G1 X194.454 Y169.532 E0.01832 ; perimeter
G1 X193.869 Y169.545 E0.01832 ; perimeter
G1 X193.288 Y169.484 E0.01832 ; perimeter
G1 X192.719 Y169.349 E0.01832 ; perimeter
G1 X192.173 Y169.144 E0.01832 ; perimeter
G1 X191.656 Y168.870 E0.01832 ; perimeter
G1 X191.179 Y168.533 E0.01832 ; perimeter
G1 X190.748 Y168.138 E0.01832 ; perimeter
G1 X190.371 Y167.691 E0.01832 ; perimeter
G1 X190.054 Y167.200 E0.01832 ; perimeter
G1 X189.802 Y166.673 E0.01832 ; perimeter
G1 X189.619 Y166.118 E0.01832 ; perimeter
G1 X189.508 Y165.544 E0.01832 ; perimeter
G1 X189.472 Y164.980 E0.01774 ; perimeter
G1 X189.472 Y109.625 E1.73561 ; perimeter
G1 X189.508 Y109.060 E0.01774 ; perimeter
G1 X189.619 Y108.487 E0.01832 ; perimeter
G1 X189.784 Y107.987 E0.01650 ; perimeter
G1 X190.142 Y108.105 F10800.000 ; move to first perimeter point
G1 F1200
G1 X190.398 Y107.567 E0.01869 ; perimeter
G1 X190.675 Y107.138 E0.01600 ; perimeter
G1 X191.021 Y106.728 E0.01682 ; perimeter
G1 X191.416 Y106.366 E0.01682 ; perimeter
G1 X191.854 Y106.057 E0.01682 ; perimeter
G1 X192.328 Y105.805 E0.01682 ; perimeter
G1 X192.830 Y105.616 E0.01684 ; perimeter
G1 X193.378 Y105.490 E0.01761 ; perimeter
G1 X193.885 Y105.437 E0.01600 ; perimeter
G1 X194.421 Y105.449 E0.01682 ; perimeter
G1 X194.951 Y105.529 E0.01682 ; perimeter
G1 X195.467 Y105.676 E0.01682 ; perimeter
G1 X195.956 Y105.885 E0.01668 ; perimeter
G1 X197.303 Y106.604 E0.04785 ; perimeter
G1 X198.613 Y107.378 E0.04772 ; perimeter
G1 X199.889 Y108.207 E0.04772 ; perimeter
G1 X201.127 Y109.091 E0.04772 ; perimeter
G1 X202.327 Y110.028 E0.04772 ; perimeter
G1 X203.485 Y111.016 E0.04772 ; perimeter
G1 X204.599 Y112.053 E0.04772 ; perimeter
G1 X205.667 Y113.137 E0.04772 ; perimeter
G1 X206.735 Y114.324 E0.05008 ; perimeter
G1 X207.658 Y115.438 E0.04534 ; perimeter
G1 X208.577 Y116.651 E0.04772 ; perimeter
G1 X209.442 Y117.902 E0.04772 ; perimeter
G1 X210.253 Y119.190 E0.04772 ; perimeter
G1 X211.042 Y120.579 E0.05009 ; perimeter
G1 X211.704 Y121.865 E0.04534 ; perimeter
G1 X212.342 Y123.247 E0.04772 ; perimeter
G1 X212.919 Y124.655 E0.04772 ; perimeter
G1 X213.435 Y126.087 E0.04772 ; perimeter
G1 X213.908 Y127.613 E0.05008 ; perimeter
G1 X214.278 Y129.010 E0.04534 ; perimeter
G1 X214.605 Y130.497 E0.04772 ; perimeter
G1 X214.867 Y131.996 E0.04772 ; perimeter
G1 X215.063 Y133.505 E0.04772 ; perimeter
G1 X215.195 Y135.021 E0.04772 ; perimeter
G1 X215.261 Y136.541 E0.04772 ; perimeter
G1 X215.261 Y138.063 E0.04772 ; perimeter
G1 X215.198 Y139.508 E0.04534 ; perimeter
G1 X215.063 Y141.099 E0.05008 ; perimeter
G1 X214.867 Y142.609 E0.04772 ; perimeter
G1 X214.605 Y144.108 E0.04772 ; perimeter
G1 X214.278 Y145.594 E0.04772 ; perimeter
G1 X213.888 Y147.065 E0.04772 ; perimeter
G1 X213.435 Y148.518 E0.04772 ; perimeter
G1 X212.919 Y149.950 E0.04772 ; perimeter
G1 X212.342 Y151.358 E0.04772 ; perimeter
G1 X211.704 Y152.740 E0.04772 ; perimeter
G1 X211.008 Y154.093 E0.04772 ; perimeter
G1 X210.253 Y155.414 E0.04772 ; perimeter
G1 X209.442 Y156.702 E0.04772 ; perimeter
G1 X208.577 Y157.954 E0.04772 ; perimeter
G1 X207.658 Y159.167 E0.04772 ; perimeter
G1 X206.687 Y160.339 E0.04772 ; perimeter
G1 X205.667 Y161.468 E0.04772 ; perimeter
G1 X204.599 Y162.552 E0.04772 ; perimeter
G1 X203.485 Y163.589 E0.04772 ; perimeter
G1 X202.327 Y164.576 E0.04772 ; perimeter
G1 X201.127 Y165.513 E0.04772 ; perimeter
G1 X199.889 Y166.397 E0.04772 ; perimeter
G1 X198.613 Y167.227 E0.04772 ; perimeter
G1 X197.303 Y168.001 E0.04772 ; perimeter
G1 X195.956 Y168.719 E0.04785 ; perimeter
G1 X195.467 Y168.929 E0.01668 ; perimeter
G1 X194.951 Y169.076 E0.01682 ; perimeter
G1 X194.421 Y169.156 E0.01682 ; perimeter
G1 X193.885 Y169.168 E0.01682 ; perimeter
G1 X193.352 Y169.112 E0.01682 ; perimeter
G1 X192.830 Y168.988 E0.01682 ; perimeter
G1 X192.328 Y168.799 E0.01682 ; perimeter
G1 X191.854 Y168.548 E0.01682 ; perimeter
G1 X191.416 Y168.239 E0.01682 ; perimeter
G1 X191.021 Y167.876 E0.01682 ; perimeter
G1 X190.675 Y167.466 E0.01682 ; perimeter
G1 X190.384 Y167.016 E0.01682 ; perimeter
G1 X190.152 Y166.532 E0.01682 ; perimeter
G1 X189.984 Y166.023 E0.01682 ; perimeter
G1 X189.882 Y165.496 E0.01682 ; perimeter
G1 X189.849 Y164.968 E0.01660 ; perimeter
G1 X189.849 Y109.637 E1.73485 ; perimeter
G1 X189.882 Y109.108 E0.01661 ; perimeter
G1 X189.984 Y108.582 E0.01682 ; perimeter
G1 X190.123 Y108.162 E0.01386 ; perimeter
G1 X189.894 Y107.791 F10800.000 ; move inwards before travel
G1 F8640
G1 X190.398 Y107.567 E-0.15139 ; wipe and retract
G1 F8640
G1 X190.675 Y107.138 E-0.11780 ; wipe and retract
G1 F8640
G1 X191.021 Y106.728 E-0.12383 ; wipe and retract
G1 F8640
G1 X191.416 Y106.366 E-0.12383 ; wipe and retract
G1 F8640
G1 X191.854 Y106.057 E-0.12383 ; wipe and retract
G1 F8640
G1 X192.311 Y105.815 E-0.11931 ; wipe and retract
G1 E-0.04000 F2100.00000 ; retract
G1 Z0.800 F10800.000 ; lift Z
G1 X170.610 Y109.060 F10800.000 ; move to first perimeter point
G1 Z0.200 F10800.000 ; restore layer Z
G1 E0.80000 F2100.00000 ; unretract
G1 F1200
G1 X170.646 Y109.625 E0.01774 ; perimeter
G1 X170.646 Y164.980 E1.73561 ; perimeter
G1 X170.610 Y165.546 E0.01779 ; perimeter
G1 X170.490 Y166.144 E0.01912 ; perimeter
G1 X170.316 Y166.673 E0.01747 ; perimeter
G1 X170.063 Y167.200 E0.01832 ; perimeter
G1 X169.745 Y167.693 E0.01838 ; perimeter
G1 X169.349 Y168.156 E0.01912 ; perimeter
G1 X168.939 Y168.533 E0.01747 ; perimeter
G1 X168.461 Y168.870 E0.01832 ; perimeter
G1 X167.945 Y169.144 E0.01832 ; perimeter
G1 X167.398 Y169.349 E0.01832 ; perimeter
G1 X166.829 Y169.484 E0.01832 ; perimeter
G1 X166.248 Y169.545 E0.01832 ; perimeter
G1 X165.664 Y169.532 E0.01832 ; perimeter
G1 X165.086 Y169.445 E0.01832 ; perimeter
G1 X164.524 Y169.285 E0.01832 ; perimeter
G1 X163.998 Y169.059 E0.01794 ; perimeter
G1 X162.630 Y168.330 E0.04861 ; perimeter
G1 X161.306 Y167.547 E0.04823 ; perimeter
G1 X160.016 Y166.709 E0.04823 ; perimeter
G1 X158.764 Y165.815 E0.04823 ; perimeter
G1 X157.552 Y164.869 E0.04823 ; perimeter
G1 X156.382 Y163.870 E0.04823 ; perimeter
G1 X155.256 Y162.822 E0.04825 ; perimeter
G1 X154.125 Y161.670 E0.05060 ; perimeter
G1 X153.145 Y160.586 E0.04584 ; perimeter
G1 X152.164 Y159.401 E0.04823 ; perimeter
G1 X151.235 Y158.175 E0.04823 ; perimeter
G1 X150.360 Y156.910 E0.04823 ; perimeter
G1 X149.541 Y155.608 E0.04823 ; perimeter
G1 X148.778 Y154.272 E0.04825 ; perimeter
G1 X148.042 Y152.836 E0.05060 ; perimeter
G1 X147.430 Y151.508 E0.04584 ; perimeter
G1 X146.847 Y150.085 E0.04823 ; perimeter
G1 X146.325 Y148.638 E0.04823 ; perimeter
G1 X145.867 Y147.170 E0.04823 ; perimeter
G1 X145.472 Y145.683 E0.04823 ; perimeter
G1 X145.143 Y144.181 E0.04823 ; perimeter
G1 X144.878 Y142.666 E0.04823 ; perimeter
G1 X144.679 Y141.140 E0.04823 ; perimeter
G1 X144.546 Y139.608 E0.04823 ; perimeter
G1 X144.480 Y138.071 E0.04823 ; perimeter
G1 X144.480 Y136.533 E0.04823 ; perimeter
G1 X144.546 Y134.997 E0.04823 ; perimeter
G1 X144.679 Y133.464 E0.04823 ; perimeter
G1 X144.878 Y131.938 E0.04825 ; perimeter
G1 X145.159 Y130.349 E0.05060 ; perimeter
G1 X145.472 Y128.921 E0.04584 ; perimeter
G1 X145.867 Y127.435 E0.04823 ; perimeter
G1 X146.325 Y125.966 E0.04823 ; perimeter
G1 X146.847 Y124.519 E0.04823 ; perimeter
G1 X147.430 Y123.096 E0.04823 ; perimeter
G1 X148.074 Y121.699 E0.04825 ; perimeter
G1 X148.816 Y120.266 E0.05060 ; perimeter
G1 X149.541 Y118.996 E0.04584 ; perimeter
G1 X150.360 Y117.695 E0.04823 ; perimeter
G1 X151.235 Y116.430 E0.04823 ; perimeter
G1 X152.164 Y115.204 E0.04823 ; perimeter
G1 X153.145 Y114.019 E0.04823 ; perimeter
G1 X154.176 Y112.878 E0.04823 ; perimeter
G1 X155.256 Y111.782 E0.04823 ; perimeter
G1 X156.382 Y110.734 E0.04823 ; perimeter
G1 X157.552 Y109.736 E0.04823 ; perimeter
G1 X158.764 Y108.789 E0.04823 ; perimeter
