; generated by Slic3r 1.37.2.1-prusa3d on 2018-06-24 at 21:29:33

; 

; external perimeters extrusion width = 0.45mm
; perimeters extrusion width = 0.45mm
; infill extrusion width = 0.45mm
; solid infill extrusion width = 0.45mm
; top infill extrusion width = 0.40mm
; first layer extrusion width = 0.42mm

M107 ; disable fan
M115 U3.1.1-RC5 ; tell printer latest fw version
M83  ; extruder relative mode
M104 S215 ; set extruder temp
M140 S60 ; set bed temp
M190 S60 ; wait for bed temp
M109 S215 ; wait for extruder temp
G28 W ; home all without mesh bed level
G80 ; mesh bed leveling
G1 Y-3.0 F1000.0 ; go outside print area
G92 E0.0
G1 X60.0 E9.0  F1000.0 ; intro line
G1 X100.0 E12.5  F1000.0 ; intro line
G92 E0.0
M221 S95
M900 K30
G21 ; set units to millimeters
G90 ; use absolute coordinates
M83 ; use relative distances for extrusion
;BEFORE_LAYER_CHANGE
;0.2


G1 E-0.80000 F2100.00000 ; retract
G1 Z0.600 F12000.000 ; lift Z
;AFTER_LAYER_CHANGE
;0.2
G1 X77.283 Y75.727 F12000.000 ; move to first skirt point
G1 Z0.200 F12000.000 ; restore layer Z
G1 E0.80000 F2100.00000 ; unretract
M204 S1000 ; adjust acceleration
G1 F1800
G1 X77.630 Y73.857 E0.05964 ; skirt
G1 X78.391 Y71.810 E0.06846 ; skirt
G1 X79.414 Y70.044 E0.06400 ; skirt
G1 X80.691 Y68.469 E0.06358 ; skirt
G1 X81.648 Y67.549 E0.04160 ; skirt
G1 X82.807 Y66.637 E0.04624 ; skirt
G1 X83.941 Y65.911 E0.04221 ; skirt
G1 X85.219 Y65.252 E0.04508 ; skirt
G1 X86.686 Y64.669 E0.04951 ; skirt
G1 X87.992 Y64.287 E0.04267 ; skirt
G1 X89.380 Y64.007 E0.04439 ; skirt
G1 X90.900 Y63.843 E0.04795 ; skirt
G1 X151.513 Y63.813 E1.90046 ; skirt
G1 X152.860 Y63.861 E0.04229 ; skirt
G1 X154.290 Y64.035 E0.04516 ; skirt
G1 X155.688 Y64.332 E0.04481 ; skirt
G1 X156.991 Y64.730 E0.04273 ; skirt
G1 X158.286 Y65.254 E0.04380 ; skirt
G1 X159.501 Y65.878 E0.04283 ; skirt
G1 X160.646 Y66.604 E0.04248 ; skirt
G1 X161.724 Y67.438 E0.04274 ; skirt
G1 X163.310 Y69.029 E0.07044 ; skirt
G1 X164.632 Y70.905 E0.07196 ; skirt
G1 X167.438 Y76.798 E0.20465 ; skirt
G1 X167.670 Y77.545 E0.02451 ; skirt
G1 X167.721 Y78.116 E0.01796 ; skirt
G1 X167.717 Y129.269 E1.60388 ; skirt
G1 X167.370 Y131.143 E0.05977 ; skirt
G1 X166.609 Y133.190 E0.06846 ; skirt
G1 X165.586 Y134.956 E0.06400 ; skirt
G1 X164.309 Y136.531 E0.06358 ; skirt
G1 X163.186 Y137.594 E0.04847 ; skirt
G1 X161.941 Y138.537 E0.04897 ; skirt
G1 X160.626 Y139.330 E0.04816 ; skirt
G1 X159.303 Y139.957 E0.04589 ; skirt
G1 X157.779 Y140.503 E0.05076 ; skirt
G1 X156.417 Y140.848 E0.04405 ; skirt
G1 X154.880 Y141.090 E0.04878 ; skirt
G1 X153.220 Y141.187 E0.05214 ; skirt
G1 X92.397 Y141.157 E1.90706 ; skirt
G1 X91.009 Y141.012 E0.04376 ; skirt
G1 X89.829 Y140.793 E0.03765 ; skirt
G1 X88.536 Y140.446 E0.04197 ; skirt
G1 X87.214 Y139.964 E0.04409 ; skirt
G1 X85.956 Y139.373 E0.04361 ; skirt
G1 X84.819 Y138.709 E0.04127 ; skirt
G1 X83.718 Y137.924 E0.04241 ; skirt
G1 X82.861 Y137.194 E0.03528 ; skirt
G1 X81.389 Y135.601 E0.06800 ; skirt
G1 X80.227 Y133.845 E0.06601 ; skirt
G1 X77.539 Y128.149 E0.19747 ; skirt
G1 X77.348 Y127.549 E0.01976 ; skirt
G1 X77.280 Y126.957 E0.01868 ; skirt
G1 X77.283 Y75.787 E1.60439 ; skirt
G1 F9600
G1 X77.630 Y73.857 E-0.40758 ; wipe and retract
G1 F9600
G1 X78.221 Y72.267 E-0.35242 ; wipe and retract
G1 E-0.04000 F2100.00000 ; retract
G1 Z0.800 F12000.000 ; lift Z
G1 X80.340 Y75.912 F12000.000 ; move to first perimeter point
G1 Z0.200 F12000.000 ; restore layer Z
G1 E0.80000 F2100.00000 ; unretract
G1 F1800
G1 X80.338 Y75.831 E0.00254 ; perimeter
G1 X80.406 Y75.393 E0.01390 ; perimeter
G1 X80.525 Y74.848 E0.01749 ; perimeter
G1 X80.674 Y74.318 E0.01726 ; perimeter
G1 X80.858 Y73.794 E0.01741 ; perimeter
G1 X81.074 Y73.278 E0.01754 ; perimeter
G1 X81.511 Y72.431 E0.02988 ; perimeter
G1 X82.027 Y71.634 E0.02980 ; perimeter
G1 X82.633 Y70.869 E0.03059 ; perimeter
G1 X83.329 Y70.145 E0.03149 ; perimeter
G1 X84.100 Y69.479 E0.03194 ; perimeter
G1 X84.941 Y68.877 E0.03242 ; perimeter
G1 X85.835 Y68.350 E0.03257 ; perimeter
G1 X86.659 Y67.951 E0.02869 ; perimeter
G1 X87.684 Y67.553 E0.03447 ; perimeter
G1 X88.739 Y67.245 E0.03446 ; perimeter
G1 X89.835 Y67.025 E0.03506 ; perimeter
G1 X90.877 Y66.904 E0.03287 ; perimeter
G1 X91.926 Y66.865 E0.03294 ; perimeter
G1 X92.923 Y66.904 E0.03128 ; perimeter
G1 X94.066 Y67.043 E0.03609 ; perimeter
G1 X95.194 Y67.281 E0.03616 ; perimeter
G1 X96.272 Y67.610 E0.03532 ; perimeter
G1 X97.304 Y68.028 E0.03492 ; perimeter
G1 X98.275 Y68.527 E0.03424 ; perimeter
G1 X99.191 Y69.108 E0.03399 ; perimeter
G1 X100.025 Y69.753 E0.03306 ; perimeter
G1 X100.644 Y70.323 E0.02641 ; perimeter
G1 X101.265 Y70.996 E0.02870 ; perimeter
G1 X101.755 Y71.623 E0.02495 ; perimeter
G1 X102.204 Y72.305 E0.02559 ; perimeter
G1 X102.658 Y73.154 E0.03018 ; perimeter
G1 X103.022 Y74.041 E0.03008 ; perimeter
G1 X103.288 Y74.946 E0.02956 ; perimeter
G1 X103.402 Y75.502 E0.01779 ; perimeter
G1 X103.503 Y76.136 E0.02015 ; perimeter
G1 X103.665 Y76.635 E0.01645 ; perimeter
G1 X103.914 Y77.090 E0.01623 ; perimeter
G1 X104.089 Y77.326 E0.00923 ; perimeter
G1 X104.454 Y77.695 E0.01626 ; perimeter
G1 X104.880 Y77.987 E0.01621 ; perimeter
G1 X104.929 Y78.034 E0.00212 ; perimeter
G1 X104.955 Y78.115 E0.00267 ; perimeter
G1 X104.915 Y78.418 E0.00957 ; perimeter
G1 X104.718 Y79.326 E0.02914 ; perimeter
G1 X104.430 Y80.208 E0.02911 ; perimeter
G1 X104.128 Y80.909 E0.02392 ; perimeter
G1 X103.681 Y81.733 E0.02939 ; perimeter
G1 X103.263 Y82.364 E0.02373 ; perimeter
G1 X102.654 Y83.133 E0.03077 ; perimeter
G1 X102.100 Y83.720 E0.02530 ; perimeter
G1 X101.504 Y84.265 E0.02532 ; perimeter
G1 X100.862 Y84.769 E0.02561 ; perimeter
G1 X100.182 Y85.229 E0.02573 ; perimeter
G1 X99.269 Y85.746 E0.03290 ; perimeter
G1 X98.422 Y86.139 E0.02927 ; perimeter
G1 X97.605 Y86.447 E0.02738 ; perimeter
G1 X96.759 Y86.702 E0.02769 ; perimeter
G1 X95.893 Y86.899 E0.02788 ; perimeter
G1 X95.230 Y87.009 E0.02107 ; perimeter
G1 X94.646 Y87.077 E0.01842 ; perimeter
G1 X93.959 Y87.124 E0.02159 ; perimeter
G1 X93.279 Y87.135 E0.02133 ; perimeter
G1 X92.589 Y87.111 E0.02164 ; perimeter
G1 X91.936 Y87.055 E0.02055 ; perimeter
G1 X91.448 Y86.993 E0.01541 ; perimeter
G1 X90.768 Y86.874 E0.02165 ; perimeter
G1 X89.657 Y86.598 E0.03590 ; perimeter
G1 X89.022 Y86.391 E0.02093 ; perimeter
G1 X88.392 Y86.149 E0.02115 ; perimeter
G1 X87.778 Y85.874 E0.02111 ; perimeter
G1 X87.187 Y85.570 E0.02084 ; perimeter
G1 X86.633 Y85.246 E0.02014 ; perimeter
G1 X86.103 Y84.895 E0.01992 ; perimeter
G1 X85.588 Y84.512 E0.02013 ; perimeter
G1 X84.844 Y83.869 E0.03082 ; perimeter
G1 X84.156 Y83.158 E0.03101 ; perimeter
G1 X83.776 Y82.699 E0.01871 ; perimeter
G1 X83.197 Y81.877 E0.03151 ; perimeter
G1 X82.899 Y81.371 E0.01842 ; perimeter
G1 X82.473 Y80.492 E0.03064 ; perimeter
G1 X82.269 Y79.964 E0.01772 ; perimeter
G1 X82.001 Y79.054 E0.02975 ; perimeter
G1 X81.887 Y78.498 E0.01779 ; perimeter
G1 X81.785 Y77.864 E0.02015 ; perimeter
G1 X81.623 Y77.365 E0.01645 ; perimeter
G1 X81.375 Y76.910 E0.01623 ; perimeter
G1 X81.200 Y76.674 E0.00923 ; perimeter
G1 X80.835 Y76.305 E0.01626 ; perimeter
G1 X80.362 Y75.968 E0.01822 ; perimeter
G1 X80.025 Y76.145 F12000.000 ; move to first perimeter point
G1 F1800
G1 X79.965 Y75.986 E0.00532 ; perimeter
G1 X79.960 Y75.808 E0.00559 ; perimeter
G1 X80.036 Y75.324 E0.01536 ; perimeter
G1 X80.159 Y74.757 E0.01820 ; perimeter
G1 X80.315 Y74.205 E0.01798 ; perimeter
G1 X80.505 Y73.659 E0.01812 ; perimeter
G1 X80.732 Y73.119 E0.01837 ; perimeter
G1 X81.184 Y72.242 E0.03093 ; perimeter
G1 X81.720 Y71.414 E0.03094 ; perimeter
G1 X82.349 Y70.621 E0.03172 ; perimeter
G1 X83.069 Y69.871 E0.03260 ; perimeter
G1 X83.866 Y69.182 E0.03303 ; perimeter
G1 X84.735 Y68.561 E0.03348 ; perimeter
G1 X85.657 Y68.017 E0.03358 ; perimeter
G1 X86.508 Y67.605 E0.02965 ; perimeter
G1 X87.563 Y67.195 E0.03546 ; perimeter
G1 X88.649 Y66.879 E0.03548 ; perimeter
G1 X89.776 Y66.652 E0.03605 ; perimeter
G1 X90.848 Y66.527 E0.03383 ; perimeter
G1 X91.927 Y66.488 E0.03385 ; perimeter
G1 X92.950 Y66.528 E0.03211 ; perimeter
G1 X94.128 Y66.671 E0.03719 ; perimeter
G1 X94.592 Y66.756 E0.01480 ; perimeter
G1 X95.292 Y66.917 E0.02252 ; perimeter
G1 X96.394 Y67.254 E0.03615 ; perimeter
G1 X97.461 Y67.685 E0.03608 ; perimeter
G1 X98.466 Y68.201 E0.03542 ; perimeter
G1 X99.404 Y68.797 E0.03485 ; perimeter
G1 X100.272 Y69.468 E0.03439 ; perimeter
G1 X100.911 Y70.056 E0.02723 ; perimeter
G1 X101.553 Y70.752 E0.02967 ; perimeter
G1 X102.061 Y71.403 E0.02591 ; perimeter
G1 X102.526 Y72.109 E0.02649 ; perimeter
G1 X102.819 Y72.630 E0.01874 ; perimeter
G1 X103.002 Y72.998 E0.01289 ; perimeter
G1 X103.378 Y73.916 E0.03112 ; perimeter
G1 X103.654 Y74.855 E0.03067 ; perimeter
G1 X103.773 Y75.434 E0.01854 ; perimeter
G1 X103.871 Y76.048 E0.01949 ; perimeter
G1 X104.013 Y76.485 E0.01443 ; perimeter
G1 X104.232 Y76.886 E0.01430 ; perimeter
G1 X104.376 Y77.080 E0.00758 ; perimeter
G1 X104.697 Y77.404 E0.01430 ; perimeter
G1 X105.203 Y77.770 E0.01958 ; perimeter
G1 X105.264 Y77.855 E0.00330 ; perimeter
G1 X105.325 Y78.019 E0.00550 ; perimeter
G1 X105.334 Y78.124 E0.00330 ; perimeter
G1 X105.287 Y78.482 E0.01134 ; perimeter
G1 X105.083 Y79.425 E0.03023 ; perimeter
G1 X104.783 Y80.342 E0.03026 ; perimeter
G1 X104.467 Y81.074 E0.02499 ; perimeter
G1 X104.004 Y81.927 E0.03043 ; perimeter
G1 X103.569 Y82.586 E0.02476 ; perimeter
G1 X102.939 Y83.380 E0.03178 ; perimeter
G1 X102.365 Y83.989 E0.02625 ; perimeter
G1 X101.748 Y84.552 E0.02620 ; perimeter
G1 X101.084 Y85.074 E0.02647 ; perimeter
G1 X100.381 Y85.550 E0.02662 ; perimeter
G1 X99.442 Y86.082 E0.03385 ; perimeter
G1 X98.568 Y86.487 E0.03018 ; perimeter
G1 X97.726 Y86.805 E0.02822 ; perimeter
G1 X96.856 Y87.066 E0.02851 ; perimeter
G1 X95.965 Y87.269 E0.02863 ; perimeter
G1 X95.282 Y87.382 E0.02170 ; perimeter
G1 X94.681 Y87.452 E0.01899 ; perimeter
G1 X93.975 Y87.501 E0.02218 ; perimeter
G1 X93.275 Y87.512 E0.02194 ; perimeter
G1 X92.566 Y87.488 E0.02224 ; perimeter
G1 X91.392 Y87.366 E0.03702 ; perimeter
G1 X90.695 Y87.244 E0.02218 ; perimeter
G1 X90.228 Y87.141 E0.01500 ; perimeter
G1 X89.550 Y86.959 E0.02201 ; perimeter
G1 X88.896 Y86.747 E0.02156 ; perimeter
G1 X88.248 Y86.498 E0.02179 ; perimeter
G1 X87.614 Y86.214 E0.02175 ; perimeter
G1 X87.005 Y85.901 E0.02148 ; perimeter
G1 X86.433 Y85.566 E0.02078 ; perimeter
G1 X85.886 Y85.204 E0.02057 ; perimeter
G1 X85.355 Y84.809 E0.02074 ; perimeter
G1 X84.585 Y84.144 E0.03191 ; perimeter
G1 X83.872 Y83.407 E0.03216 ; perimeter
G1 X83.476 Y82.928 E0.01949 ; perimeter
G1 X82.880 Y82.082 E0.03245 ; perimeter
G1 X82.569 Y81.554 E0.01919 ; perimeter
G1 X82.376 Y81.186 E0.01305 ; perimeter
G1 X82.125 Y80.638 E0.01888 ; perimeter
G1 X81.912 Y80.086 E0.01858 ; perimeter
G1 X81.635 Y79.145 E0.03073 ; perimeter
G1 X81.516 Y78.566 E0.01854 ; perimeter
G1 X81.418 Y77.952 E0.01949 ; perimeter
G1 X81.276 Y77.515 E0.01443 ; perimeter
G1 X81.057 Y77.114 E0.01430 ; perimeter
G1 X80.913 Y76.920 E0.00758 ; perimeter
G1 X80.592 Y76.596 E0.01430 ; perimeter
G1 X80.176 Y76.310 E0.01583 ; perimeter
G1 X80.060 Y76.194 E0.00516 ; perimeter
G1 X80.107 Y75.997 F12000.000 ; move inwards before travel
G1 X80.525 Y75.379 F12000.000 ; move to first infill point
G1 F1800
G1 X91.914 Y86.767 E0.50996 ; infill
G1 X92.505 Y86.820 E0.01880 ; infill
G1 X80.764 Y75.079 E0.52575 ; infill
G1 X80.874 Y74.651 E0.01400 ; infill
G1 X93.068 Y86.845 E0.54603 ; infill
G1 X93.609 Y86.847 E0.01711 ; infill
G1 X81.001 Y74.239 E0.56453 ; infill
G1 X81.144 Y73.843 E0.01333 ; infill
G1 X94.129 Y86.829 E0.58146 ; infill
G1 X94.633 Y86.794 E0.01598 ; infill
G1 X81.303 Y73.463 E0.59689 ; infill
G1 X81.482 Y73.104 E0.01271 ; infill
G1 X95.115 Y86.737 E0.61046 ; infill
G1 X95.580 Y86.664 E0.01491 ; infill
G1 X81.665 Y72.749 E0.62308 ; infill
G1 X81.863 Y72.408 E0.01248 ; infill
G1 X96.032 Y86.577 E0.63446 ; infill
G1 X96.470 Y86.477 E0.01425 ; infill
G1 X82.074 Y72.081 E0.64463 ; infill
G1 X82.257 Y71.799 E0.01066 ; infill
G1 X82.289 Y71.758 E0.00165 ; infill
G1 X96.897 Y86.365 E0.65408 ; infill
G1 X97.311 Y86.241 E0.01369 ; infill
G1 X82.528 Y71.457 E0.66196 ; infill
G1 X82.766 Y71.157 E0.01214 ; infill
G1 X97.713 Y86.104 E0.66931 ; infill
G1 X98.104 Y85.957 E0.01323 ; infill
G1 X83.021 Y70.874 E0.67539 ; infill
G1 X83.285 Y70.599 E0.01206 ; infill
G1 X98.484 Y85.798 E0.68060 ; infill
G1 X98.852 Y85.628 E0.01284 ; infill
G1 X83.551 Y70.327 E0.68516 ; infill
G1 X83.840 Y70.077 E0.01209 ; infill
G1 X99.215 Y85.452 E0.68846 ; infill
G1 X99.559 Y85.257 E0.01251 ; infill
G1 X84.129 Y69.827 E0.69092 ; infill
G1 X84.430 Y69.590 E0.01214 ; infill
G1 X99.902 Y85.063 E0.69282 ; infill
G1 X100.232 Y84.854 E0.01236 ; infill
G1 X84.744 Y69.366 E0.69354 ; infill
G1 X85.058 Y69.141 E0.01222 ; infill
G1 X100.553 Y84.637 E0.69387 ; infill
G1 X100.864 Y84.408 E0.01220 ; infill
G1 X85.394 Y68.938 E0.69271 ; infill
G1 X85.732 Y68.739 E0.01245 ; infill
G1 X101.165 Y84.171 E0.69104 ; infill
G1 X101.457 Y83.925 E0.01210 ; infill
G1 X86.078 Y68.546 E0.68861 ; infill
G1 X86.441 Y68.370 E0.01276 ; infill
G1 X101.738 Y83.668 E0.68498 ; infill
G1 X102.012 Y83.402 E0.01206 ; infill
G1 X86.806 Y68.197 E0.68087 ; infill
G1 X87.194 Y68.046 E0.01318 ; infill
G1 X102.273 Y83.125 E0.67520 ; infill
G1 X102.526 Y82.839 E0.01208 ; infill
G1 X87.582 Y67.896 E0.66915 ; infill
G1 X87.985 Y67.760 E0.01345 ; infill
G1 X102.764 Y82.539 E0.66179 ; infill
G1 X103.002 Y82.239 E0.01214 ; infill
G1 X88.402 Y67.638 E0.65378 ; infill
G1 X88.820 Y67.518 E0.01377 ; infill
G1 X103.220 Y81.918 E0.64481 ; infill
G1 X103.434 Y81.593 E0.01231 ; infill
G1 X89.268 Y67.427 E0.63433 ; infill
G1 X89.716 Y67.337 E0.01448 ; infill
G1 X103.624 Y81.245 E0.62275 ; infill
G1 X103.813 Y80.896 E0.01258 ; infill
G1 X90.186 Y67.269 E0.61018 ; infill
G1 X90.669 Y67.213 E0.01538 ; infill
G1 X103.984 Y80.528 E0.59624 ; infill
G1 X104.146 Y80.152 E0.01297 ; infill
G1 X91.170 Y67.176 E0.58104 ; infill
G1 X91.690 Y67.157 E0.01646 ; infill
G1 X104.282 Y79.749 E0.56387 ; infill
G1 X104.415 Y79.343 E0.01352 ; infill
G1 X92.232 Y67.160 E0.54555 ; infill
G1 X92.792 Y67.182 E0.01776 ; infill
G1 X104.519 Y78.909 E0.52511 ; infill
G1 X104.615 Y78.467 E0.01434 ; infill
G1 X93.395 Y67.246 E0.50242 ; infill
G1 X94.008 Y67.320 E0.01954 ; infill
G1 X103.390 Y76.703 E0.42013 ; infill
G1 X103.228 Y76.203 E0.01665 ; infill
G1 X103.190 Y75.964 E0.00766 ; infill
G1 X94.689 Y67.464 E0.38062 ; infill
G1 X95.124 Y67.556 E0.01406 ; infill
G1 X95.406 Y67.642 E0.00935 ; infill
G1 X103.074 Y75.310 E0.34335 ; infill
G1 X103.013 Y75.014 E0.00955 ; infill
G1 X102.886 Y74.584 E0.01421 ; infill
G1 X96.182 Y67.879 E0.30022 ; infill
G1 X97.087 Y68.245 E0.03090 ; infill
G1 X102.911 Y74.070 E0.26081 ; infill
G1 F9600
G1 X100.325 Y71.484 E-0.76000 ; wipe and retract
G1 E-0.04000 F2100.00000 ; retract
G1 Z0.800 F12000.000 ; lift Z
G1 X102.525 Y73.145 F12000.000 ; move to first infill point
G1 Z0.200 F12000.000 ; restore layer Z
G1 E0.80000 F2100.00000 ; unretract
G1 F1800
G1 X97.779 Y68.400 E0.21251 ; infill
G1 F9600
G1 X100.365 Y70.986 E-0.76000 ; wipe and retract
G1 E-0.04000 F2100.00000 ; retract
G1 Z0.800 F12000.000 ; lift Z
G1 X99.108 Y69.189 F12000.000 ; move to first infill point
G1 Z0.200 F12000.000 ; restore layer Z
G1 E0.80000 F2100.00000 ; unretract
G1 F1800
G1 X101.769 Y71.850 E0.11916 ; infill
G1 F9600
G1 X99.183 Y69.265 E-0.76000 ; wipe and retract
G1 E-0.04000 F2100.00000 ; retract
G1 Z0.800 F12000.000 ; lift Z
G1 X91.492 Y86.884 F12000.000 ; move to first infill point
G1 Z0.200 F12000.000 ; restore layer Z
G1 E0.80000 F2100.00000 ; unretract
G1 F1800
G1 X81.896 Y77.288 E0.42971 ; infill
G1 X82.061 Y77.797 E0.01696 ; infill
G1 X82.098 Y78.029 E0.00742 ; infill
G1 X90.613 Y86.544 E0.38128 ; infill
G1 X89.897 Y86.366 E0.02338 ; infill
G1 X82.213 Y78.682 E0.34404 ; infill
G1 X82.276 Y78.986 E0.00980 ; infill
G1 X82.400 Y79.407 E0.01392 ; infill
G1 X89.118 Y86.125 E0.30081 ; infill
G1 X88.213 Y85.760 E0.03088 ; infill
G1 X82.374 Y79.920 E0.26149 ; infill
G1 X82.758 Y80.843 F12000.000 ; move to first infill point
G1 F1800
