; generated by Slic3r 1.37.2.1-prusa3d on 2018-06-11 at 19:44:51

; 

; external perimeters extrusion width = 0.45mm
; perimeters extrusion width = 0.45mm
; infill extrusion width = 0.45mm
; solid infill extrusion width = 0.45mm
; top infill extrusion width = 0.40mm
; first layer extrusion width = 0.42mm

M107 ; disable fan
M115 U3.1.1-RC5 ; tell printer latest fw version
M83  ; extruder relative mode
M104 S215 ; set extruder temp
M140 S60 ; set bed temp
M190 S60 ; wait for bed temp
M109 S215 ; wait for extruder temp
G28 W ; home all without mesh bed level
G80 ; mesh bed leveling
G1 Y-3.0 F1000.0 ; go outside print area
G92 E0.0
G1 X60.0 E9.0  F1000.0 ; intro line
G1 X100.0 E12.5  F1000.0 ; intro line
G92 E0.0
M221 S95
M900 K30
G21 ; set units to millimeters
G90 ; use absolute coordinates
M83 ; use relative distances for extrusion
;BEFORE_LAYER_CHANGE
;0.2


G1 E-0.80000 F2100.00000 ; retract
G1 Z0.600 F12000.000 ; lift Z
;AFTER_LAYER_CHANGE
;0.2
G1 X112.959 Y95.115 F12000.000 ; move to first skirt point
G1 Z0.200 F12000.000 ; restore layer Z
G1 E0.80000 F2100.00000 ; unretract
M204 S1000 ; adjust acceleration
G1 F1800
G1 X113.867 Y94.932 E0.02904 ; skirt
G1 X134.434 Y94.928 E0.64487 ; skirt
G1 X136.352 Y94.947 E0.06012 ; skirt
G1 X137.334 Y95.248 E0.03221 ; skirt
G1 X137.851 Y95.601 E0.01963 ; skirt
G1 X138.275 Y96.061 E0.01963 ; skirt
G1 X138.584 Y96.606 E0.01963 ; skirt
G1 X138.763 Y97.210 E0.01975 ; skirt
G1 X138.800 Y112.463 E0.47826 ; skirt
G1 X138.714 Y113.013 E0.01745 ; skirt
G1 X138.518 Y113.538 E0.01758 ; skirt
G1 X138.222 Y114.009 E0.01745 ; skirt
G1 X137.834 Y114.414 E0.01758 ; skirt
G1 X137.033 Y114.888 E0.02917 ; skirt
G1 X136.125 Y115.069 E0.02904 ; skirt
G1 X113.918 Y115.070 E0.69627 ; skirt
G1 X113.333 Y115.000 E0.01848 ; skirt
G1 X112.780 Y114.809 E0.01835 ; skirt
G1 X112.276 Y114.503 E0.01848 ; skirt
G1 X111.849 Y114.097 E0.01848 ; skirt
G1 X111.383 Y113.315 E0.02854 ; skirt
G1 X111.198 Y112.424 E0.02854 ; skirt
G1 X111.196 Y97.639 E0.46355 ; skirt
G1 X111.267 Y97.063 E0.01822 ; skirt
G1 X111.459 Y96.510 E0.01835 ; skirt
G1 X111.763 Y96.010 E0.01835 ; skirt
G1 X112.166 Y95.586 E0.01835 ; skirt
G1 X112.908 Y95.145 E0.02703 ; skirt
G1 X113.096 Y95.470 F12000.000 ; move to first skirt point
G1 F1800
G1 X113.888 Y95.308 E0.02534 ; skirt
G1 X136.273 Y95.318 E0.70188 ; skirt
G1 X137.118 Y95.561 E0.02755 ; skirt
G1 X137.584 Y95.869 E0.01752 ; skirt
G1 X137.965 Y96.277 E0.01752 ; skirt
G1 X138.240 Y96.759 E0.01740 ; skirt
G1 X138.395 Y97.296 E0.01752 ; skirt
G1 X138.424 Y112.434 E0.47464 ; skirt
G1 X138.349 Y112.918 E0.01538 ; skirt
G1 X138.177 Y113.377 E0.01538 ; skirt
G1 X137.914 Y113.791 E0.01538 ; skirt
G1 X137.568 Y114.145 E0.01550 ; skirt
G1 X136.882 Y114.542 E0.02484 ; skirt
G1 X136.104 Y114.692 E0.02484 ; skirt
G1 X113.921 Y114.692 E0.69556 ; skirt
G1 X113.411 Y114.631 E0.01609 ; skirt
G1 X112.927 Y114.461 E0.01609 ; skirt
G1 X112.490 Y114.191 E0.01609 ; skirt
G1 X112.121 Y113.834 E0.01609 ; skirt
G1 X111.729 Y113.163 E0.02437 ; skirt
G1 X111.574 Y112.398 E0.02449 ; skirt
G1 X111.573 Y97.643 E0.46264 ; skirt
G1 X111.637 Y97.137 E0.01597 ; skirt
G1 X111.807 Y96.657 E0.01597 ; skirt
G1 X112.075 Y96.224 E0.01597 ; skirt
G1 X112.432 Y95.855 E0.01609 ; skirt
G1 X113.044 Y95.500 E0.02219 ; skirt
G1 F9600
G1 X113.888 Y95.308 E-0.17982 ; wipe and retract
G1 F9600
G1 X116.680 Y95.309 E-0.58018 ; wipe and retract
G1 E-0.04000 F2100.00000 ; retract
G1 Z0.800 F12000.000 ; lift Z
G1 X114.537 Y98.654 F12000.000 ; move to first perimeter point
G1 Z0.200 F12000.000 ; restore layer Z
G1 E0.80000 F2100.00000 ; unretract
G1 F1800
G1 X135.463 Y98.654 E0.65612 ; perimeter
G1 X135.463 Y111.346 E0.39795 ; perimeter
G1 X114.537 Y111.346 E0.65612 ; perimeter
G1 X114.537 Y98.714 E0.39607 ; perimeter
G1 X114.160 Y98.277 F12000.000 ; move to first perimeter point
G1 F1800
G1 X135.840 Y98.277 E0.67976 ; perimeter
G1 X135.840 Y111.723 E0.42159 ; perimeter
G1 X114.160 Y111.723 E0.67976 ; perimeter
G1 X114.160 Y98.337 E0.41971 ; perimeter
G1 X114.553 Y98.351 F12000.000 ; move inwards before travel
G1 F9600
G1 X117.817 Y98.327 E-0.76000 ; wipe and retract
G1 E-0.04000 F2100.00000 ; retract
G1 Z0.800 F12000.000 ; lift Z
G1 X115.417 Y111.233 F12000.000 ; move to first infill point
G1 Z0.200 F12000.000 ; restore layer Z
G1 E0.80000 F2100.00000 ; unretract
G1 F1800
G1 X114.820 Y110.636 E0.02661 ; infill
G1 X114.820 Y110.100 E0.01690 ; infill
G1 X115.783 Y111.063 E0.04294 ; infill
G1 X116.319 Y111.063 E0.01690 ; infill
G1 X114.820 Y109.564 E0.06684 ; infill
G1 X114.820 Y109.028 E0.01690 ; infill
G1 X116.855 Y111.063 E0.09074 ; infill
G1 X117.392 Y111.063 E0.01690 ; infill
G1 X114.820 Y108.492 E0.11465 ; infill
G1 X114.820 Y107.955 E0.01690 ; infill
G1 X117.928 Y111.063 E0.13855 ; infill
G1 X118.464 Y111.063 E0.01690 ; infill
G1 X114.820 Y107.419 E0.16245 ; infill
G1 X114.820 Y106.883 E0.01690 ; infill
G1 X119.000 Y111.063 E0.18635 ; infill
G1 X119.536 Y111.063 E0.01690 ; infill
G1 X114.820 Y106.347 E0.21025 ; infill
G1 X114.820 Y105.811 E0.01690 ; infill
G1 X120.072 Y111.063 E0.23415 ; infill
G1 X120.608 Y111.063 E0.01690 ; infill
G1 X114.820 Y105.275 E0.25805 ; infill
G1 X114.820 Y104.739 E0.01690 ; infill
G1 X121.145 Y111.063 E0.28196 ; infill
G1 X121.681 Y111.063 E0.01690 ; infill
G1 X114.820 Y104.202 E0.30586 ; infill
G1 X114.820 Y103.666 E0.01690 ; infill
G1 X122.217 Y111.063 E0.32976 ; infill
G1 X122.753 Y111.063 E0.01690 ; infill
G1 X114.820 Y103.130 E0.35366 ; infill
G1 X114.820 Y102.594 E0.01690 ; infill
G1 X123.289 Y111.063 E0.37756 ; infill
G1 X123.825 Y111.063 E0.01690 ; infill
G1 X114.820 Y102.058 E0.40146 ; infill
G1 X114.820 Y101.522 E0.01690 ; infill
G1 X124.361 Y111.063 E0.42536 ; infill
G1 X124.898 Y111.063 E0.01690 ; infill
G1 X114.820 Y100.986 E0.44926 ; infill
G1 X114.820 Y100.449 E0.01690 ; infill
G1 X125.434 Y111.063 E0.47317 ; infill
G1 X125.970 Y111.063 E0.01690 ; infill
G1 X114.820 Y99.913 E0.49707 ; infill
G1 X114.820 Y99.377 E0.01690 ; infill
G1 X126.506 Y111.063 E0.52097 ; infill
G1 X127.042 Y111.063 E0.01690 ; infill
G1 X114.916 Y98.937 E0.54060 ; infill
G1 X115.452 Y98.937 E0.01690 ; infill
G1 X127.578 Y111.063 E0.54060 ; infill
G1 X128.114 Y111.063 E0.01690 ; infill
G1 X115.988 Y98.937 E0.54060 ; infill
G1 X116.524 Y98.937 E0.01690 ; infill
G1 X128.651 Y111.063 E0.54060 ; infill
G1 X129.187 Y111.063 E0.01690 ; infill
G1 X117.060 Y98.937 E0.54060 ; infill
G1 X117.596 Y98.937 E0.01690 ; infill
G1 X129.723 Y111.063 E0.54060 ; infill
G1 X130.259 Y111.063 E0.01690 ; infill
G1 X118.133 Y98.937 E0.54060 ; infill
G1 X118.669 Y98.937 E0.01690 ; infill
G1 X130.795 Y111.063 E0.54060 ; infill
G1 X131.331 Y111.063 E0.01690 ; infill
G1 X119.205 Y98.937 E0.54060 ; infill
G1 X119.741 Y98.937 E0.01690 ; infill
G1 X131.867 Y111.063 E0.54060 ; infill
G1 X132.403 Y111.063 E0.01690 ; infill
G1 X120.277 Y98.937 E0.54060 ; infill
G1 X120.813 Y98.937 E0.01690 ; infill
G1 X132.940 Y111.063 E0.54060 ; infill
G1 X133.476 Y111.063 E0.01690 ; infill
G1 X121.349 Y98.937 E0.54060 ; infill
G1 X121.886 Y98.937 E0.01690 ; infill
G1 X134.012 Y111.063 E0.54060 ; infill
G1 X134.548 Y111.063 E0.01690 ; infill
G1 X122.422 Y98.937 E0.54060 ; infill
G1 X122.958 Y98.937 E0.01690 ; infill
G1 X135.084 Y111.063 E0.54060 ; infill
G1 X135.180 Y111.063 E0.00302 ; infill
G1 X135.180 Y110.623 E0.01388 ; infill
G1 X123.494 Y98.937 E0.52097 ; infill
G1 X124.030 Y98.937 E0.01690 ; infill
G1 X135.180 Y110.087 E0.49707 ; infill
G1 X135.180 Y109.551 E0.01690 ; infill
G1 X124.566 Y98.937 E0.47317 ; infill
G1 X125.102 Y98.937 E0.01690 ; infill
G1 X135.180 Y109.015 E0.44927 ; infill
G1 X135.180 Y108.478 E0.01690 ; infill
G1 X125.639 Y98.937 E0.42537 ; infill
G1 X126.175 Y98.937 E0.01690 ; infill
G1 X135.180 Y107.942 E0.40147 ; infill
G1 X135.180 Y107.406 E0.01690 ; infill
G1 X126.711 Y98.937 E0.37757 ; infill
G1 X127.247 Y98.937 E0.01690 ; infill
G1 X135.180 Y106.870 E0.35366 ; infill
G1 X135.180 Y106.334 E0.01690 ; infill
G1 X127.783 Y98.937 E0.32976 ; infill
G1 X128.319 Y98.937 E0.01690 ; infill
G1 X135.180 Y105.798 E0.30586 ; infill
G1 X135.180 Y105.262 E0.01690 ; infill
G1 X128.855 Y98.937 E0.28196 ; infill
G1 X129.392 Y98.937 E0.01690 ; infill
G1 X135.180 Y104.725 E0.25806 ; infill
G1 X135.180 Y104.189 E0.01690 ; infill
G1 X129.928 Y98.937 E0.23416 ; infill
G1 X130.464 Y98.937 E0.01690 ; infill
G1 X135.180 Y103.653 E0.21026 ; infill
G1 X135.180 Y103.117 E0.01690 ; infill
G1 X131.000 Y98.937 E0.18635 ; infill
G1 X131.536 Y98.937 E0.01690 ; infill
G1 X135.180 Y102.581 E0.16245 ; infill
G1 X135.180 Y102.045 E0.01690 ; infill
G1 X132.072 Y98.937 E0.13855 ; infill
G1 X132.608 Y98.937 E0.01690 ; infill
G1 X135.180 Y101.509 E0.11465 ; infill
G1 X135.180 Y100.972 E0.01690 ; infill
G1 X133.145 Y98.937 E0.09075 ; infill
G1 X133.681 Y98.937 E0.01690 ; infill
G1 X135.180 Y100.436 E0.06685 ; infill
G1 X135.180 Y99.900 E0.01690 ; infill
G1 X134.217 Y98.937 E0.04295 ; infill
G1 X134.753 Y98.937 E0.01690 ; infill
G1 X135.350 Y99.534 E0.02661 ; infill
M106 S255 ; enable fan
;BEFORE_LAYER_CHANGE
;0.35


G1 F9600
G1 X134.753 Y98.937 E-0.17542 ; wipe and retract
G1 F9600
G1 X134.217 Y98.937 E-0.11142 ; wipe and retract
G1 F9600
G1 X135.180 Y99.900 E-0.28312 ; wipe and retract
G1 F9600
G1 X135.180 Y100.436 E-0.11142 ; wipe and retract
G1 F9600
G1 X134.913 Y100.169 E-0.07863 ; wipe and retract
G1 E-0.04000 F2100.00000 ; retract
G1 Z0.800 F12000.000 ; lift Z
;AFTER_LAYER_CHANGE
;0.35
M104 S210 ; set temperature
G1 X138.763 Y97.210 F12000.000 ; move to first skirt point
G1 Z0.350 F12000.000 ; restore layer Z
G1 E0.80000 F2100.00000 ; unretract
G1 F1100
G1 X138.800 Y112.463 E0.36890 ; skirt
G1 X138.714 Y113.013 E0.01346 ; skirt
G1 X138.518 Y113.538 E0.01356 ; skirt
G1 X138.222 Y114.009 E0.01346 ; skirt
G1 X137.834 Y114.414 E0.01356 ; skirt
G1 X137.033 Y114.888 E0.02250 ; skirt
G1 X136.125 Y115.069 E0.02240 ; skirt
G1 X113.918 Y115.070 E0.53706 ; skirt
G1 X113.333 Y115.000 E0.01425 ; skirt
G1 X112.780 Y114.809 E0.01415 ; skirt
G1 X112.276 Y114.503 E0.01425 ; skirt
G1 X111.849 Y114.097 E0.01425 ; skirt
G1 X111.383 Y113.315 E0.02201 ; skirt
G1 X111.198 Y112.424 E0.02201 ; skirt
G1 X111.196 Y97.639 E0.35756 ; skirt
G1 X111.267 Y97.063 E0.01405 ; skirt
G1 X111.459 Y96.510 E0.01415 ; skirt
G1 X111.763 Y96.010 E0.01415 ; skirt
G1 X112.166 Y95.586 E0.01415 ; skirt
G1 X112.959 Y95.115 E0.02230 ; skirt
G1 X113.867 Y94.932 E0.02240 ; skirt
G1 X134.434 Y94.928 E0.49741 ; skirt
G1 X136.352 Y94.947 E0.04638 ; skirt
G1 X137.334 Y95.248 E0.02484 ; skirt
G1 X137.851 Y95.601 E0.01514 ; skirt
G1 X138.275 Y96.061 E0.01514 ; skirt
G1 X138.584 Y96.606 E0.01514 ; skirt
G1 X138.746 Y97.152 E0.01379 ; skirt
G1 F9600
G1 X138.759 Y100.809 E-0.76000 ; wipe and retract
G1 E-0.04000 F2100.00000 ; retract
G1 Z0.950 F12000.000 ; lift Z
G1 X135.407 Y98.457 F12000.000 ; move to first perimeter point
G1 Z0.350 F12000.000 ; restore layer Z
G1 E0.80000 F2100.00000 ; unretract
M204 S800 ; adjust acceleration
G1 F990
G1 X135.407 Y111.543 E0.34096 ; perimeter
G1 X114.593 Y111.543 E0.54233 ; perimeter
G1 X114.593 Y98.457 E0.34096 ; perimeter
G1 X135.347 Y98.457 E0.54077 ; perimeter
M204 S1000 ; adjust acceleration
G1 X135.825 Y98.039 F12000.000 ; move to first perimeter point
M204 S800 ; adjust acceleration
G1 F2100
G1 X135.825 Y111.961 E0.36273 ; perimeter
G1 X114.175 Y111.961 E0.56411 ; perimeter
G1 X114.175 Y98.039 E0.36273 ; perimeter
G1 X135.765 Y98.039 E0.56254 ; perimeter
M204 S1000 ; adjust acceleration
G1 X135.694 Y98.417 F12000.000 ; move inwards before travel
G1 F9600
G1 X135.781 Y101.696 E-0.76000 ; wipe and retract
G1 E-0.04000 F2100.00000 ; retract
G1 Z0.950 F12000.000 ; lift Z
G1 X134.427 Y111.417 F12000.000 ; move to first infill point
G1 Z0.350 F12000.000 ; restore layer Z
G1 E0.80000 F2100.00000 ; unretract
M204 S1500 ; adjust acceleration
G1 F4399
G1 X135.094 Y110.750 E0.02487 ; infill
G1 X135.094 Y110.152 E0.01576 ; infill
G1 X134.017 Y111.229 E0.04016 ; infill
G1 X133.419 Y111.229 E0.01576 ; infill
G1 X135.094 Y109.555 E0.06245 ; infill
G1 X135.094 Y108.957 E0.01576 ; infill
G1 X132.821 Y111.229 E0.08474 ; infill
G1 X132.223 Y111.229 E0.01576 ; infill
G1 X135.094 Y108.359 E0.10704 ; infill
G1 X135.094 Y107.761 E0.01576 ; infill
G1 X131.625 Y111.229 E0.12933 ; infill
G1 X131.027 Y111.229 E0.01576 ; infill
G1 X135.094 Y107.163 E0.15162 ; infill
G1 X135.094 Y106.565 E0.01576 ; infill
G1 X130.429 Y111.229 E0.17392 ; infill
G1 X129.832 Y111.229 E0.01576 ; infill
G1 X135.094 Y105.967 E0.19621 ; infill
G1 X135.094 Y105.369 E0.01576 ; infill
G1 X129.234 Y111.229 E0.21850 ; infill
G1 X128.636 Y111.229 E0.01576 ; infill
G1 X135.094 Y104.771 E0.24080 ; infill
G1 X135.094 Y104.174 E0.01576 ; infill
G1 X128.038 Y111.229 E0.26309 ; infill
G1 X127.440 Y111.229 E0.01576 ; infill
G1 X135.094 Y103.576 E0.28538 ; infill
G1 X135.094 Y102.978 E0.01576 ; infill
G1 X126.842 Y111.229 E0.30768 ; infill
G1 X126.244 Y111.229 E0.01576 ; infill
G1 X135.094 Y102.380 E0.32997 ; infill
G1 X135.094 Y101.782 E0.01576 ; infill
G1 X125.646 Y111.229 E0.35226 ; infill
G1 X125.048 Y111.229 E0.01576 ; infill
G1 X135.094 Y101.184 E0.37456 ; infill
G1 X135.094 Y100.586 E0.01576 ; infill
G1 X124.451 Y111.229 E0.39685 ; infill
G1 X123.853 Y111.229 E0.01576 ; infill
G1 X135.094 Y99.988 E0.41914 ; infill
G1 X135.094 Y99.390 E0.01576 ; infill
G1 X123.255 Y111.229 E0.44144 ; infill
G1 X122.657 Y111.229 E0.01576 ; infill
G1 X135.094 Y98.792 E0.46373 ; infill
G1 X135.094 Y98.771 E0.00058 ; infill
G1 X134.518 Y98.771 E0.01519 ; infill
G1 X122.059 Y111.229 E0.46455 ; infill
G1 X121.461 Y111.229 E0.01576 ; infill
G1 X133.920 Y98.771 E0.46455 ; infill
G1 X133.322 Y98.771 E0.01576 ; infill
G1 X120.863 Y111.229 E0.46455 ; infill
G1 X120.265 Y111.229 E0.01576 ; infill
G1 X132.724 Y98.771 E0.46455 ; infill
G1 X132.126 Y98.771 E0.01576 ; infill
G1 X119.667 Y111.229 E0.46455 ; infill
G1 X119.069 Y111.229 E0.01576 ; infill
G1 X131.528 Y98.771 E0.46455 ; infill
G1 X130.930 Y98.771 E0.01576 ; infill
G1 X118.472 Y111.229 E0.46455 ; infill
G1 X117.874 Y111.229 E0.01576 ; infill
G1 X130.333 Y98.771 E0.46455 ; infill
G1 X129.735 Y98.771 E0.01576 ; infill
G1 X117.276 Y111.229 E0.46455 ; infill
G1 X116.678 Y111.229 E0.01576 ; infill
G1 X129.137 Y98.771 E0.46455 ; infill
G1 X128.539 Y98.771 E0.01576 ; infill
G1 X116.080 Y111.229 E0.46455 ; infill
G1 X115.482 Y111.229 E0.01576 ; infill
G1 X127.941 Y98.771 E0.46455 ; infill
G1 X127.343 Y98.771 E0.01576 ; infill
G1 X114.906 Y111.207 E0.46373 ; infill
G1 X114.906 Y110.610 E0.01576 ; infill
G1 X126.745 Y98.771 E0.44144 ; infill
G1 X126.147 Y98.771 E0.01576 ; infill
G1 X114.906 Y110.012 E0.41914 ; infill
G1 X114.906 Y109.414 E0.01576 ; infill
G1 X125.549 Y98.771 E0.39685 ; infill
G1 X124.952 Y98.771 E0.01576 ; infill
G1 X114.906 Y108.816 E0.37456 ; infill
G1 X114.906 Y108.218 E0.01576 ; infill
G1 X124.354 Y98.771 E0.35226 ; infill
G1 X123.756 Y98.771 E0.01576 ; infill
G1 X114.906 Y107.620 E0.32997 ; infill
G1 X114.906 Y107.022 E0.01576 ; infill
G1 X123.158 Y98.771 E0.30768 ; infill
G1 X122.560 Y98.771 E0.01576 ; infill
G1 X114.906 Y106.424 E0.28538 ; infill
G1 X114.906 Y105.826 E0.01576 ; infill
G1 X121.962 Y98.771 E0.26309 ; infill
G1 X121.364 Y98.771 E0.01576 ; infill
G1 X114.906 Y105.229 E0.24080 ; infill
G1 X114.906 Y104.631 E0.01576 ; infill
G1 X120.766 Y98.771 E0.21850 ; infill
G1 X120.168 Y98.771 E0.01576 ; infill
G1 X114.906 Y104.033 E0.19621 ; infill
G1 X114.906 Y103.435 E0.01576 ; infill
G1 X119.570 Y98.771 E0.17392 ; infill
G1 X118.973 Y98.771 E0.01576 ; infill
G1 X114.906 Y102.837 E0.15162 ; infill
G1 X114.906 Y102.239 E0.01576 ; infill
G1 X118.375 Y98.771 E0.12933 ; infill
G1 X117.777 Y98.771 E0.01576 ; infill
G1 X114.906 Y101.641 E0.10703 ; infill
G1 X114.906 Y101.043 E0.01576 ; infill
G1 X117.179 Y98.771 E0.08474 ; infill
G1 X116.581 Y98.771 E0.01576 ; infill
G1 X114.906 Y100.445 E0.06245 ; infill
G1 X114.906 Y99.847 E0.01576 ; infill
G1 X115.983 Y98.771 E0.04015 ; infill
G1 X115.385 Y98.771 E0.01576 ; infill
G1 X114.718 Y99.438 E0.02487 ; infill
M204 S1000 ; adjust acceleration
