; generated by Slic3r 1.37.2.1-prusa3d on 2018-06-11 at 22:32:44

; 

; external perimeters extrusion width = 0.45mm
; perimeters extrusion width = 0.45mm
; infill extrusion width = 0.45mm
; solid infill extrusion width = 0.45mm
; top infill extrusion width = 0.40mm
; first layer extrusion width = 0.42mm

M107 ; disable fan
M115 U3.1.1-RC5 ; tell printer latest fw version
M83  ; extruder relative mode
M104 S215 ; set extruder temp
M140 S60 ; set bed temp
M190 S60 ; wait for bed temp
M109 S215 ; wait for extruder temp
G28 W ; home all without mesh bed level
G80 ; mesh bed leveling
G1 Y-3.0 F1000.0 ; go outside print area
G92 E0.0
G1 X60.0 E9.0  F1000.0 ; intro line
G1 X100.0 E12.5  F1000.0 ; intro line
G92 E0.0
M221 S95
M900 K30
G21 ; set units to millimeters
G90 ; use absolute coordinates
M83 ; use relative distances for extrusion
;BEFORE_LAYER_CHANGE
;0.2


G1 E-0.80000 F2100.00000 ; retract
G1 Z0.600 F12000.000 ; lift Z
;AFTER_LAYER_CHANGE
;0.2
G1 X110.459 Y92.615 F12000.000 ; move to first skirt point
G1 Z0.200 F12000.000 ; restore layer Z
G1 E0.80000 F2100.00000 ; unretract
M204 S1000 ; adjust acceleration
G1 F1800
G1 X111.367 Y92.432 E0.02904 ; skirt
G1 X131.934 Y92.428 E0.64487 ; skirt
G1 X133.852 Y92.447 E0.06012 ; skirt
G1 X134.834 Y92.748 E0.03221 ; skirt
G1 X135.351 Y93.101 E0.01963 ; skirt
G1 X135.775 Y93.561 E0.01963 ; skirt
G1 X136.084 Y94.106 E0.01963 ; skirt
G1 X136.263 Y94.710 E0.01975 ; skirt
G1 X136.300 Y109.963 E0.47826 ; skirt
G1 X136.214 Y110.513 E0.01745 ; skirt
G1 X136.018 Y111.038 E0.01758 ; skirt
G1 X135.722 Y111.509 E0.01745 ; skirt
G1 X135.334 Y111.914 E0.01758 ; skirt
G1 X134.533 Y112.388 E0.02917 ; skirt
G1 X133.625 Y112.569 E0.02904 ; skirt
G1 X111.418 Y112.570 E0.69627 ; skirt
G1 X110.833 Y112.500 E0.01848 ; skirt
G1 X110.280 Y112.309 E0.01835 ; skirt
G1 X109.776 Y112.003 E0.01848 ; skirt
G1 X109.349 Y111.597 E0.01848 ; skirt
G1 X108.883 Y110.815 E0.02854 ; skirt
G1 X108.698 Y109.924 E0.02854 ; skirt
G1 X108.696 Y95.139 E0.46355 ; skirt
G1 X108.767 Y94.563 E0.01822 ; skirt
G1 X108.959 Y94.010 E0.01835 ; skirt
G1 X109.263 Y93.510 E0.01835 ; skirt
G1 X109.666 Y93.086 E0.01835 ; skirt
G1 X110.408 Y92.645 E0.02703 ; skirt
G1 X110.596 Y92.970 F12000.000 ; move to first skirt point
G1 F1800
G1 X111.388 Y92.808 E0.02534 ; skirt
G1 X133.773 Y92.818 E0.70188 ; skirt
G1 X134.618 Y93.061 E0.02755 ; skirt
G1 X135.084 Y93.369 E0.01752 ; skirt
G1 X135.465 Y93.777 E0.01752 ; skirt
G1 X135.740 Y94.259 E0.01740 ; skirt
G1 X135.895 Y94.796 E0.01752 ; skirt
G1 X135.924 Y109.934 E0.47464 ; skirt
G1 X135.849 Y110.418 E0.01538 ; skirt
G1 X135.677 Y110.877 E0.01538 ; skirt
G1 X135.414 Y111.291 E0.01538 ; skirt
G1 X135.068 Y111.645 E0.01550 ; skirt
G1 X134.382 Y112.042 E0.02484 ; skirt
G1 X133.604 Y112.192 E0.02484 ; skirt
G1 X111.421 Y112.192 E0.69556 ; skirt
G1 X110.911 Y112.131 E0.01609 ; skirt
G1 X110.427 Y111.961 E0.01609 ; skirt
G1 X109.990 Y111.691 E0.01609 ; skirt
G1 X109.621 Y111.334 E0.01609 ; skirt
G1 X109.229 Y110.663 E0.02437 ; skirt
G1 X109.074 Y109.898 E0.02449 ; skirt
G1 X109.073 Y95.143 E0.46264 ; skirt
G1 X109.137 Y94.637 E0.01597 ; skirt
G1 X109.307 Y94.157 E0.01597 ; skirt
G1 X109.575 Y93.724 E0.01597 ; skirt
G1 X109.932 Y93.355 E0.01609 ; skirt
G1 X110.544 Y93.000 E0.02219 ; skirt
G1 F9600
G1 X111.388 Y92.808 E-0.17982 ; wipe and retract
G1 F9600
G1 X114.180 Y92.809 E-0.58018 ; wipe and retract
G1 E-0.04000 F2100.00000 ; retract
G1 Z0.800 F12000.000 ; lift Z
G1 X112.037 Y96.154 F12000.000 ; move to first perimeter point
G1 Z0.200 F12000.000 ; restore layer Z
G1 E0.80000 F2100.00000 ; unretract
G1 F1800
G1 X132.963 Y96.154 E0.65612 ; perimeter
G1 X132.963 Y108.846 E0.39795 ; perimeter
G1 X112.037 Y108.846 E0.65612 ; perimeter
G1 X112.037 Y96.214 E0.39607 ; perimeter
G1 X111.660 Y95.777 F12000.000 ; move to first perimeter point
G1 F1800
G1 X133.340 Y95.777 E0.67976 ; perimeter
G1 X133.340 Y109.223 E0.42159 ; perimeter
G1 X111.660 Y109.223 E0.67976 ; perimeter
G1 X111.660 Y95.837 E0.41971 ; perimeter
G1 X112.053 Y95.851 F12000.000 ; move inwards before travel
G1 F9600
G1 X115.317 Y95.827 E-0.76000 ; wipe and retract
G1 E-0.04000 F2100.00000 ; retract
G1 Z0.800 F12000.000 ; lift Z
G1 X112.917 Y108.733 F12000.000 ; move to first infill point
G1 Z0.200 F12000.000 ; restore layer Z
G1 E0.80000 F2100.00000 ; unretract
G1 F1800
G1 X112.320 Y108.136 E0.02661 ; infill
G1 X112.320 Y107.600 E0.01690 ; infill
G1 X113.283 Y108.563 E0.04294 ; infill
G1 X113.819 Y108.563 E0.01690 ; infill
G1 X112.320 Y107.064 E0.06684 ; infill
G1 X112.320 Y106.528 E0.01690 ; infill
G1 X114.355 Y108.563 E0.09074 ; infill
G1 X114.892 Y108.563 E0.01690 ; infill
G1 X112.320 Y105.992 E0.11465 ; infill
G1 X112.320 Y105.455 E0.01690 ; infill
G1 X115.428 Y108.563 E0.13855 ; infill
G1 X115.964 Y108.563 E0.01690 ; infill
G1 X112.320 Y104.919 E0.16245 ; infill
G1 X112.320 Y104.383 E0.01690 ; infill
G1 X116.500 Y108.563 E0.18635 ; infill
G1 X117.036 Y108.563 E0.01690 ; infill
G1 X112.320 Y103.847 E0.21025 ; infill
G1 X112.320 Y103.311 E0.01690 ; infill
G1 X117.572 Y108.563 E0.23415 ; infill
G1 X118.108 Y108.563 E0.01690 ; infill
G1 X112.320 Y102.775 E0.25805 ; infill
G1 X112.320 Y102.239 E0.01690 ; infill
G1 X118.645 Y108.563 E0.28196 ; infill
G1 X119.181 Y108.563 E0.01690 ; infill
G1 X112.320 Y101.702 E0.30586 ; infill
G1 X112.320 Y101.166 E0.01690 ; infill
G1 X119.717 Y108.563 E0.32976 ; infill
G1 X120.253 Y108.563 E0.01690 ; infill
G1 X112.320 Y100.630 E0.35366 ; infill
G1 X112.320 Y100.094 E0.01690 ; infill
G1 X120.789 Y108.563 E0.37756 ; infill
G1 X121.325 Y108.563 E0.01690 ; infill
G1 X112.320 Y99.558 E0.40146 ; infill
G1 X112.320 Y99.022 E0.01690 ; infill
G1 X121.861 Y108.563 E0.42536 ; infill
G1 X122.398 Y108.563 E0.01690 ; infill
G1 X112.320 Y98.486 E0.44926 ; infill
G1 X112.320 Y97.949 E0.01690 ; infill
G1 X122.934 Y108.563 E0.47317 ; infill
G1 X123.470 Y108.563 E0.01690 ; infill
G1 X112.320 Y97.413 E0.49707 ; infill
G1 X112.320 Y96.877 E0.01690 ; infill
G1 X124.006 Y108.563 E0.52097 ; infill
G1 X124.542 Y108.563 E0.01690 ; infill
G1 X112.416 Y96.437 E0.54060 ; infill
G1 X112.952 Y96.437 E0.01690 ; infill
G1 X125.078 Y108.563 E0.54060 ; infill
G1 X125.614 Y108.563 E0.01690 ; infill
G1 X113.488 Y96.437 E0.54060 ; infill
G1 X114.024 Y96.437 E0.01690 ; infill
G1 X126.151 Y108.563 E0.54060 ; infill
G1 X126.687 Y108.563 E0.01690 ; infill
G1 X114.560 Y96.437 E0.54060 ; infill
G1 X115.096 Y96.437 E0.01690 ; infill
G1 X127.223 Y108.563 E0.54060 ; infill
G1 X127.759 Y108.563 E0.01690 ; infill
G1 X115.633 Y96.437 E0.54060 ; infill
G1 X116.169 Y96.437 E0.01690 ; infill
G1 X128.295 Y108.563 E0.54060 ; infill
G1 X128.831 Y108.563 E0.01690 ; infill
G1 X116.705 Y96.437 E0.54060 ; infill
G1 X117.241 Y96.437 E0.01690 ; infill
G1 X129.367 Y108.563 E0.54060 ; infill
G1 X129.903 Y108.563 E0.01690 ; infill
G1 X117.777 Y96.437 E0.54060 ; infill
G1 X118.313 Y96.437 E0.01690 ; infill
G1 X130.440 Y108.563 E0.54060 ; infill
G1 X130.976 Y108.563 E0.01690 ; infill
G1 X118.849 Y96.437 E0.54060 ; infill
G1 X119.386 Y96.437 E0.01690 ; infill
G1 X131.512 Y108.563 E0.54060 ; infill
G1 X132.048 Y108.563 E0.01690 ; infill
G1 X119.922 Y96.437 E0.54060 ; infill
G1 X120.458 Y96.437 E0.01690 ; infill
G1 X132.584 Y108.563 E0.54060 ; infill
G1 X132.680 Y108.563 E0.00302 ; infill
G1 X132.680 Y108.123 E0.01388 ; infill
G1 X120.994 Y96.437 E0.52097 ; infill
G1 X121.530 Y96.437 E0.01690 ; infill
G1 X132.680 Y107.587 E0.49707 ; infill
G1 X132.680 Y107.051 E0.01690 ; infill
G1 X122.066 Y96.437 E0.47317 ; infill
G1 X122.602 Y96.437 E0.01690 ; infill
G1 X132.680 Y106.515 E0.44927 ; infill
G1 X132.680 Y105.978 E0.01690 ; infill
G1 X123.139 Y96.437 E0.42537 ; infill
G1 X123.675 Y96.437 E0.01690 ; infill
G1 X132.680 Y105.442 E0.40147 ; infill
G1 X132.680 Y104.906 E0.01690 ; infill
G1 X124.211 Y96.437 E0.37757 ; infill
G1 X124.747 Y96.437 E0.01690 ; infill
G1 X132.680 Y104.370 E0.35366 ; infill
G1 X132.680 Y103.834 E0.01690 ; infill
G1 X125.283 Y96.437 E0.32976 ; infill
G1 X125.819 Y96.437 E0.01690 ; infill
G1 X132.680 Y103.298 E0.30586 ; infill
G1 X132.680 Y102.762 E0.01690 ; infill
G1 X126.355 Y96.437 E0.28196 ; infill
G1 X126.892 Y96.437 E0.01690 ; infill
G1 X132.680 Y102.225 E0.25806 ; infill
G1 X132.680 Y101.689 E0.01690 ; infill
G1 X127.428 Y96.437 E0.23416 ; infill
G1 X127.964 Y96.437 E0.01690 ; infill
G1 X132.680 Y101.153 E0.21026 ; infill
G1 X132.680 Y100.617 E0.01690 ; infill
G1 X128.500 Y96.437 E0.18635 ; infill
G1 X129.036 Y96.437 E0.01690 ; infill
G1 X132.680 Y100.081 E0.16245 ; infill
G1 X132.680 Y99.545 E0.01690 ; infill
G1 X129.572 Y96.437 E0.13855 ; infill
G1 X130.108 Y96.437 E0.01690 ; infill
G1 X132.680 Y99.009 E0.11465 ; infill
G1 X132.680 Y98.472 E0.01690 ; infill
G1 X130.645 Y96.437 E0.09075 ; infill
G1 X131.181 Y96.437 E0.01690 ; infill
G1 X132.680 Y97.936 E0.06685 ; infill
G1 X132.680 Y97.400 E0.01690 ; infill
G1 X131.717 Y96.437 E0.04295 ; infill
G1 X132.253 Y96.437 E0.01690 ; infill
G1 X132.850 Y97.034 E0.02661 ; infill
M106 S255 ; enable fan
;BEFORE_LAYER_CHANGE
;0.35


G1 F9600
G1 X132.253 Y96.437 E-0.17542 ; wipe and retract
G1 F9600
G1 X131.717 Y96.437 E-0.11142 ; wipe and retract
G1 F9600
G1 X132.680 Y97.400 E-0.28312 ; wipe and retract
G1 F9600
G1 X132.680 Y97.936 E-0.11142 ; wipe and retract
G1 F9600
G1 X132.413 Y97.669 E-0.07863 ; wipe and retract
G1 E-0.04000 F2100.00000 ; retract
G1 Z0.800 F12000.000 ; lift Z
;AFTER_LAYER_CHANGE
;0.35
M104 S210 ; set temperature
G1 X136.263 Y94.710 F12000.000 ; move to first skirt point
G1 Z0.350 F12000.000 ; restore layer Z
G1 E0.80000 F2100.00000 ; unretract
G1 F1100
G1 X136.300 Y109.963 E0.36890 ; skirt
G1 X136.214 Y110.513 E0.01346 ; skirt
G1 X136.018 Y111.038 E0.01356 ; skirt
G1 X135.722 Y111.509 E0.01346 ; skirt
G1 X135.334 Y111.914 E0.01356 ; skirt
G1 X134.533 Y112.388 E0.02250 ; skirt
G1 X133.625 Y112.569 E0.02240 ; skirt
G1 X111.418 Y112.570 E0.53706 ; skirt
G1 X110.833 Y112.500 E0.01425 ; skirt
G1 X110.280 Y112.309 E0.01415 ; skirt
G1 X109.776 Y112.003 E0.01425 ; skirt
G1 X109.349 Y111.597 E0.01425 ; skirt
G1 X108.883 Y110.815 E0.02201 ; skirt
G1 X108.698 Y109.924 E0.02201 ; skirt
G1 X108.696 Y95.139 E0.35756 ; skirt
G1 X108.767 Y94.563 E0.01405 ; skirt
G1 X108.959 Y94.010 E0.01415 ; skirt
G1 X109.263 Y93.510 E0.01415 ; skirt
G1 X109.666 Y93.086 E0.01415 ; skirt
G1 X110.459 Y92.615 E0.02230 ; skirt
G1 X111.367 Y92.432 E0.02240 ; skirt
G1 X131.934 Y92.428 E0.49741 ; skirt
G1 X133.852 Y92.447 E0.04638 ; skirt
G1 X134.834 Y92.748 E0.02484 ; skirt
G1 X135.351 Y93.101 E0.01514 ; skirt
G1 X135.775 Y93.561 E0.01514 ; skirt
G1 X136.084 Y94.106 E0.01514 ; skirt
G1 X136.246 Y94.652 E0.01379 ; skirt
G1 F9600
G1 X136.259 Y98.309 E-0.76000 ; wipe and retract
G1 E-0.04000 F2100.00000 ; retract
G1 Z0.950 F12000.000 ; lift Z
G1 X132.907 Y95.957 F12000.000 ; move to first perimeter point
G1 Z0.350 F12000.000 ; restore layer Z
G1 E0.80000 F2100.00000 ; unretract
M204 S800 ; adjust acceleration
G1 F990
G1 X132.907 Y109.043 E0.34096 ; perimeter
G1 X112.093 Y109.043 E0.54233 ; perimeter
G1 X112.093 Y95.957 E0.34096 ; perimeter
G1 X132.847 Y95.957 E0.54077 ; perimeter
M204 S1000 ; adjust acceleration
G1 X133.325 Y95.539 F12000.000 ; move to first perimeter point
M204 S800 ; adjust acceleration
G1 F2100
G1 X133.325 Y109.461 E0.36273 ; perimeter
G1 X111.675 Y109.461 E0.56411 ; perimeter
G1 X111.675 Y95.539 E0.36273 ; perimeter
G1 X133.265 Y95.539 E0.56254 ; perimeter
M204 S1000 ; adjust acceleration
G1 X133.194 Y95.917 F12000.000 ; move inwards before travel
G1 F9600
G1 X133.281 Y99.196 E-0.76000 ; wipe and retract
G1 E-0.04000 F2100.00000 ; retract
G1 Z0.950 F12000.000 ; lift Z
G1 X131.927 Y108.917 F12000.000 ; move to first infill point
G1 Z0.350 F12000.000 ; restore layer Z
G1 E0.80000 F2100.00000 ; unretract
M204 S1500 ; adjust acceleration
G1 F4399
G1 X132.594 Y108.250 E0.02487 ; infill
G1 X132.594 Y107.652 E0.01576 ; infill
G1 X131.517 Y108.729 E0.04016 ; infill
G1 X130.919 Y108.729 E0.01576 ; infill
G1 X132.594 Y107.055 E0.06245 ; infill
G1 X132.594 Y106.457 E0.01576 ; infill
G1 X130.321 Y108.729 E0.08474 ; infill
G1 X129.723 Y108.729 E0.01576 ; infill
G1 X132.594 Y105.859 E0.10704 ; infill
G1 X132.594 Y105.261 E0.01576 ; infill
G1 X129.125 Y108.729 E0.12933 ; infill
G1 X128.527 Y108.729 E0.01576 ; infill
G1 X132.594 Y104.663 E0.15162 ; infill
G1 X132.594 Y104.065 E0.01576 ; infill
G1 X127.929 Y108.729 E0.17392 ; infill
G1 X127.332 Y108.729 E0.01576 ; infill
G1 X132.594 Y103.467 E0.19621 ; infill
G1 X132.594 Y102.869 E0.01576 ; infill
G1 X126.734 Y108.729 E0.21850 ; infill
G1 X126.136 Y108.729 E0.01576 ; infill
G1 X132.594 Y102.271 E0.24080 ; infill
G1 X132.594 Y101.674 E0.01576 ; infill
G1 X125.538 Y108.729 E0.26309 ; infill
G1 X124.940 Y108.729 E0.01576 ; infill
G1 X132.594 Y101.076 E0.28538 ; infill
G1 X132.594 Y100.478 E0.01576 ; infill
G1 X124.342 Y108.729 E0.30768 ; infill
G1 X123.744 Y108.729 E0.01576 ; infill
G1 X132.594 Y99.880 E0.32997 ; infill
G1 X132.594 Y99.282 E0.01576 ; infill
G1 X123.146 Y108.729 E0.35226 ; infill
G1 X122.548 Y108.729 E0.01576 ; infill
G1 X132.594 Y98.684 E0.37456 ; infill
G1 X132.594 Y98.086 E0.01576 ; infill
G1 X121.951 Y108.729 E0.39685 ; infill
G1 X121.353 Y108.729 E0.01576 ; infill
G1 X132.594 Y97.488 E0.41914 ; infill
G1 X132.594 Y96.890 E0.01576 ; infill
G1 X120.755 Y108.729 E0.44144 ; infill
G1 X120.157 Y108.729 E0.01576 ; infill
G1 X132.594 Y96.292 E0.46373 ; infill
G1 X132.594 Y96.271 E0.00058 ; infill
G1 X132.018 Y96.271 E0.01519 ; infill
G1 X119.559 Y108.729 E0.46455 ; infill
G1 X118.961 Y108.729 E0.01576 ; infill
G1 X131.420 Y96.271 E0.46455 ; infill
G1 X130.822 Y96.271 E0.01576 ; infill
G1 X118.363 Y108.729 E0.46455 ; infill
G1 X117.765 Y108.729 E0.01576 ; infill
G1 X130.224 Y96.271 E0.46455 ; infill
G1 X129.626 Y96.271 E0.01576 ; infill
G1 X117.167 Y108.729 E0.46455 ; infill
G1 X116.569 Y108.729 E0.01576 ; infill
G1 X129.028 Y96.271 E0.46455 ; infill
G1 X128.430 Y96.271 E0.01576 ; infill
G1 X115.972 Y108.729 E0.46455 ; infill
G1 X115.374 Y108.729 E0.01576 ; infill
G1 X127.833 Y96.271 E0.46455 ; infill
G1 X127.235 Y96.271 E0.01576 ; infill
G1 X114.776 Y108.729 E0.46455 ; infill
G1 X114.178 Y108.729 E0.01576 ; infill
G1 X126.637 Y96.271 E0.46455 ; infill
G1 X126.039 Y96.271 E0.01576 ; infill
G1 X113.580 Y108.729 E0.46455 ; infill
G1 X112.982 Y108.729 E0.01576 ; infill
G1 X125.441 Y96.271 E0.46455 ; infill
G1 X124.843 Y96.271 E0.01576 ; infill
G1 X112.406 Y108.707 E0.46373 ; infill
G1 X112.406 Y108.110 E0.01576 ; infill
G1 X124.245 Y96.271 E0.44144 ; infill
G1 X123.647 Y96.271 E0.01576 ; infill
G1 X112.406 Y107.512 E0.41914 ; infill
G1 X112.406 Y106.914 E0.01576 ; infill
G1 X123.049 Y96.271 E0.39685 ; infill
G1 X122.452 Y96.271 E0.01576 ; infill
G1 X112.406 Y106.316 E0.37456 ; infill
G1 X112.406 Y105.718 E0.01576 ; infill
G1 X121.854 Y96.271 E0.35226 ; infill
G1 X121.256 Y96.271 E0.01576 ; infill
G1 X112.406 Y105.120 E0.32997 ; infill
G1 X112.406 Y104.522 E0.01576 ; infill
G1 X120.658 Y96.271 E0.30768 ; infill
G1 X120.060 Y96.271 E0.01576 ; infill
G1 X112.406 Y103.924 E0.28538 ; infill
G1 X112.406 Y103.326 E0.01576 ; infill
G1 X119.462 Y96.271 E0.26309 ; infill
G1 X118.864 Y96.271 E0.01576 ; infill
G1 X112.406 Y102.729 E0.24080 ; infill
G1 X112.406 Y102.131 E0.01576 ; infill
G1 X118.266 Y96.271 E0.21850 ; infill
G1 X117.668 Y96.271 E0.01576 ; infill
G1 X112.406 Y101.533 E0.19621 ; infill
G1 X112.406 Y100.935 E0.01576 ; infill
G1 X117.070 Y96.271 E0.17392 ; infill
G1 X116.473 Y96.271 E0.01576 ; infill
G1 X112.406 Y100.337 E0.15162 ; infill
G1 X112.406 Y99.739 E0.01576 ; infill
G1 X115.875 Y96.271 E0.12933 ; infill
G1 X115.277 Y96.271 E0.01576 ; infill
G1 X112.406 Y99.141 E0.10703 ; infill
G1 X112.406 Y98.543 E0.01576 ; infill
G1 X114.679 Y96.271 E0.08474 ; infill
G1 X114.081 Y96.271 E0.01576 ; infill
G1 X112.406 Y97.945 E0.06245 ; infill
G1 X112.406 Y97.347 E0.01576 ; infill
G1 X113.483 Y96.271 E0.04015 ; infill
G1 X112.885 Y96.271 E0.01576 ; infill
G1 X112.218 Y96.938 E0.02487 ; infill
M204 S1000 ; adjust acceleration
;BEFORE_LAYER_CHANGE
;0.5
