; generated by Slic3r 1.37.2.1-prusa3d on 2018-08-22 at 22:20:06

; 

; external perimeters extrusion width = 0.30mm
; perimeters extrusion width = 0.35mm
; infill extrusion width = 0.50mm
; solid infill extrusion width = 0.35mm
; top infill extrusion width = 0.30mm
; first layer extrusion width = 0.42mm

M107 ; disable fan
M115 U3.1.1-RC5 ; tell printer latest fw version
M83  ; extruder relative mode
M104 S215 ; set extruder temp
M140 S60 ; set bed temp
M190 S60 ; wait for bed temp
M109 S215 ; wait for extruder temp
G28 W ; home all without mesh bed level
G80 ; mesh bed leveling
G1 Y-3.0 F1000.0 ; go outside print area
G92 E0.0
G1 X60.0 E9.0  F1000.0 ; intro line
G1 X100.0 E12.5  F1000.0 ; intro line
G92 E0.0
M221 S95
M900 K30
G21 ; set units to millimeters
G90 ; use absolute coordinates
M83 ; use relative distances for extrusion
;BEFORE_LAYER_CHANGE
;0.2


G1 E-0.80000 F2100.00000 ; retract
G1 Z0.600 F12000.000 ; lift Z
;AFTER_LAYER_CHANGE
;0.2
G1 X110.726 Y92.835 F12000.000 ; move to first skirt point
G1 Z0.200 F12000.000 ; restore layer Z
G1 E0.80000 F2100.00000 ; unretract
M204 S500 ; adjust acceleration
G1 F1800
G1 X112.060 Y91.426 E0.06083 ; skirt
G1 X113.124 Y90.485 E0.04455 ; skirt
G1 X114.723 Y89.313 E0.06215 ; skirt
G1 X116.398 Y88.335 E0.06083 ; skirt
G1 X118.200 Y87.522 E0.06198 ; skirt
G1 X120.046 Y86.912 E0.06096 ; skirt
G1 X121.427 Y86.590 E0.04446 ; skirt
G1 X123.348 Y86.319 E0.06083 ; skirt
G1 X125.286 Y86.248 E0.06083 ; skirt
G1 X127.263 Y86.383 E0.06211 ; skirt
G1 X128.663 Y86.607 E0.04446 ; skirt
G1 X130.544 Y87.084 E0.06083 ; skirt
G1 X132.402 Y87.769 E0.06211 ; skirt
G1 X134.146 Y88.628 E0.06096 ; skirt
G1 X135.356 Y89.365 E0.04442 ; skirt
G1 X136.914 Y90.516 E0.06074 ; skirt
G1 X138.378 Y91.857 E0.06224 ; skirt
G1 X139.690 Y93.341 E0.06211 ; skirt
G1 X140.815 Y94.921 E0.06083 ; skirt
G1 X141.532 Y96.145 E0.04446 ; skirt
G1 X142.360 Y97.904 E0.06096 ; skirt
G1 X143.010 Y99.771 E0.06198 ; skirt
G1 X143.455 Y101.663 E0.06096 ; skirt
G1 X143.704 Y103.629 E0.06211 ; skirt
G1 X143.754 Y105.046 E0.04446 ; skirt
G1 X143.649 Y106.987 E0.06096 ; skirt
G1 X143.335 Y108.943 E0.06211 ; skirt
G1 X142.817 Y110.855 E0.06211 ; skirt
G1 X142.116 Y112.664 E0.06083 ; skirt
G1 X141.487 Y113.938 E0.04455 ; skirt
G1 X140.454 Y115.625 E0.06202 ; skirt
G1 X139.271 Y117.168 E0.06096 ; skirt
G1 X137.938 Y118.577 E0.06083 ; skirt
G1 X136.433 Y119.866 E0.06211 ; skirt
G1 X135.277 Y120.687 E0.04446 ; skirt
G1 X133.602 Y121.665 E0.06083 ; skirt
G1 X131.796 Y122.479 E0.06211 ; skirt
G1 X129.950 Y123.089 E0.06096 ; skirt
G1 X128.570 Y123.411 E0.04442 ; skirt
G1 X126.652 Y123.681 E0.06074 ; skirt
G1 X124.673 Y123.751 E0.06211 ; skirt
G1 X122.733 Y123.616 E0.06096 ; skirt
G1 X121.334 Y123.392 E0.04442 ; skirt
G1 X119.453 Y122.915 E0.06087 ; skirt
G1 X117.594 Y122.230 E0.06211 ; skirt
G1 X115.818 Y121.352 E0.06211 ; skirt
G1 X114.178 Y120.316 E0.06083 ; skirt
G1 X113.051 Y119.455 E0.04446 ; skirt
G1 X111.619 Y118.140 E0.06096 ; skirt
G1 X110.310 Y116.659 E0.06198 ; skirt
G1 X109.185 Y115.079 E0.06083 ; skirt
G1 X108.468 Y113.855 E0.04446 ; skirt
G1 X107.640 Y112.096 E0.06096 ; skirt
G1 X106.990 Y110.229 E0.06198 ; skirt
G1 X106.545 Y108.337 E0.06096 ; skirt
G1 X106.296 Y106.371 E0.06211 ; skirt
G1 X106.246 Y104.954 E0.04446 ; skirt
G1 X106.351 Y103.017 E0.06083 ; skirt
G1 X106.657 Y101.097 E0.06096 ; skirt
G1 X107.170 Y99.188 E0.06198 ; skirt
G1 X107.661 Y97.855 E0.04455 ; skirt
G1 X108.492 Y96.101 E0.06087 ; skirt
G1 X109.523 Y94.409 E0.06211 ; skirt
G1 X110.690 Y92.883 E0.06023 ; skirt
G1 X110.988 Y93.110 F12000.000 ; move to first skirt point
G1 F1800
G1 X111.921 Y92.091 E0.04332 ; skirt
G1 X113.329 Y90.805 E0.05979 ; skirt
G1 X114.892 Y89.653 E0.06087 ; skirt
G1 X116.567 Y88.672 E0.06087 ; skirt
G1 X118.305 Y87.886 E0.05980 ; skirt
G1 X119.609 Y87.432 E0.04330 ; skirt
G1 X121.492 Y86.961 E0.06087 ; skirt
G1 X123.380 Y86.694 E0.05980 ; skirt
G1 X125.286 Y86.625 E0.05980 ; skirt
G1 X126.723 Y86.705 E0.04512 ; skirt
G1 X128.583 Y86.976 E0.05892 ; skirt
G1 X130.431 Y87.444 E0.05980 ; skirt
G1 X132.253 Y88.115 E0.06087 ; skirt
G1 X133.967 Y88.960 E0.05992 ; skirt
G1 X135.143 Y89.676 E0.04318 ; skirt
G1 X136.677 Y90.810 E0.05980 ; skirt
G1 X138.109 Y92.121 E0.06087 ; skirt
G1 X139.394 Y93.575 E0.06087 ; skirt
G1 X140.500 Y95.129 E0.05980 ; skirt
G1 X141.196 Y96.317 E0.04318 ; skirt
G1 X142.010 Y98.046 E0.05992 ; skirt
G1 X142.648 Y99.875 E0.06075 ; skirt
G1 X143.085 Y101.736 E0.05992 ; skirt
G1 X143.283 Y103.150 E0.04477 ; skirt
G1 X143.377 Y105.038 E0.05927 ; skirt
G1 X143.274 Y106.942 E0.05980 ; skirt
G1 X142.974 Y108.826 E0.05980 ; skirt
G1 X142.470 Y110.701 E0.06087 ; skirt
G1 X141.993 Y111.996 E0.04330 ; skirt
G1 X141.177 Y113.720 E0.05979 ; skirt
G1 X140.166 Y115.378 E0.06087 ; skirt
G1 X138.987 Y116.920 E0.06087 ; skirt
G1 X137.676 Y118.305 E0.05980 ; skirt
G1 X136.641 Y119.219 E0.04330 ; skirt
G1 X135.076 Y120.368 E0.06087 ; skirt
G1 X133.430 Y121.330 E0.05980 ; skirt
G1 X131.660 Y122.128 E0.06087 ; skirt
G1 X129.845 Y122.727 E0.05992 ; skirt
G1 X128.504 Y123.040 E0.04318 ; skirt
G1 X126.616 Y123.306 E0.05979 ; skirt
G1 X124.680 Y123.374 E0.06075 ; skirt
G1 X122.777 Y123.242 E0.05980 ; skirt
G1 X121.414 Y123.023 E0.04330 ; skirt
G1 X119.565 Y122.555 E0.05979 ; skirt
G1 X117.743 Y121.884 E0.06087 ; skirt
G1 X116.003 Y121.024 E0.06087 ; skirt
G1 X114.391 Y120.005 E0.05980 ; skirt
G1 X113.297 Y119.168 E0.04318 ; skirt
G1 X111.889 Y117.877 E0.05991 ; skirt
G1 X110.606 Y116.425 E0.06075 ; skirt
G1 X109.500 Y114.871 E0.05980 ; skirt
G1 X108.804 Y113.683 E0.04318 ; skirt
G1 X107.990 Y111.954 E0.05992 ; skirt
G1 X107.351 Y110.121 E0.06087 ; skirt
G1 X106.915 Y108.264 E0.05980 ; skirt
G1 X106.717 Y106.850 E0.04477 ; skirt
G1 X106.623 Y104.962 E0.05927 ; skirt
G1 X106.726 Y103.058 E0.05980 ; skirt
G1 X107.026 Y101.174 E0.05980 ; skirt
G1 X107.362 Y99.843 E0.04306 ; skirt
G1 X107.992 Y98.039 E0.05992 ; skirt
G1 X108.820 Y96.287 E0.06075 ; skirt
G1 X109.812 Y94.654 E0.05992 ; skirt
G1 X110.952 Y93.158 E0.05896 ; skirt
G1 F9600
G1 X111.921 Y92.091 E-0.29955 ; wipe and retract
G1 F9600
G1 X113.329 Y90.805 E-0.39631 ; wipe and retract
G1 F9600
G1 X113.577 Y90.622 E-0.06414 ; wipe and retract
G1 E-0.04000 F2100.00000 ; retract
G1 Z0.800 F12000.000 ; lift Z
G1 X113.499 Y95.330 F12000.000 ; move to first perimeter point
G1 Z0.200 F12000.000 ; restore layer Z
G1 E0.80000 F2100.00000 ; unretract
G1 F1800
G1 X113.910 Y94.848 E0.01986 ; perimeter
G1 X114.654 Y94.091 E0.03327 ; perimeter
G1 X115.455 Y93.382 E0.03354 ; perimeter
G1 X115.858 Y93.063 E0.01611 ; perimeter
G1 X116.730 Y92.444 E0.03354 ; perimeter
G1 X117.643 Y91.887 E0.03354 ; perimeter
G1 X118.103 Y91.639 E0.01637 ; perimeter
G1 X118.571 Y91.408 E0.01637 ; perimeter
G1 X119.561 Y90.983 E0.03379 ; perimeter
G1 X120.065 Y90.798 E0.01681 ; perimeter
G1 X121.074 Y90.486 E0.03312 ; perimeter
G1 X121.572 Y90.360 E0.01611 ; perimeter
G1 X122.622 Y90.154 E0.03354 ; perimeter
G1 X123.683 Y90.022 E0.03354 ; perimeter
G1 X124.195 Y89.986 E0.01609 ; perimeter
G1 X125.287 Y89.968 E0.03424 ; perimeter
G1 X126.333 Y90.024 E0.03285 ; perimeter
G1 X126.853 Y90.079 E0.01638 ; perimeter
G1 X127.370 Y90.152 E0.01637 ; perimeter
G1 X128.427 Y90.360 E0.03379 ; perimeter
G1 X128.947 Y90.492 E0.01681 ; perimeter
G1 X129.956 Y90.805 E0.03312 ; perimeter
G1 X130.438 Y90.982 E0.01611 ; perimeter
G1 X131.429 Y91.408 E0.03381 ; perimeter
G1 X131.889 Y91.636 E0.01611 ; perimeter
G1 X132.821 Y92.159 E0.03353 ; perimeter
G1 X133.726 Y92.756 E0.03398 ; perimeter
G1 X134.558 Y93.393 E0.03285 ; perimeter
G1 X135.340 Y94.085 E0.03275 ; perimeter
G1 X136.090 Y94.848 E0.03354 ; perimeter
G1 X136.784 Y95.661 E0.03352 ; perimeter
G1 X137.109 Y96.088 E0.01681 ; perimeter
G1 X137.705 Y96.960 E0.03312 ; perimeter
G1 X137.972 Y97.398 E0.01611 ; perimeter
G1 X138.484 Y98.348 E0.03381 ; perimeter
G1 X138.703 Y98.812 E0.01611 ; perimeter
G1 X139.108 Y99.802 E0.03354 ; perimeter
G1 X139.442 Y100.818 E0.03354 ; perimeter
G1 X139.579 Y101.322 E0.01637 ; perimeter
G1 X139.698 Y101.831 E0.01637 ; perimeter
G1 X139.886 Y102.884 E0.03353 ; perimeter
G1 X139.999 Y103.961 E0.03398 ; perimeter
G1 X140.036 Y105.008 E0.03285 ; perimeter
G1 X140.026 Y105.530 E0.01636 ; perimeter
G1 X139.997 Y106.074 E0.01708 ; perimeter
G1 X139.886 Y107.116 E0.03285 ; perimeter
G1 X139.698 Y108.169 E0.03355 ; perimeter
G1 X139.581 Y108.669 E0.01611 ; perimeter
G1 X139.281 Y109.705 E0.03381 ; perimeter
G1 X139.111 Y110.190 E0.01611 ; perimeter
G1 X138.703 Y111.187 E0.03379 ; perimeter
G1 X138.474 Y111.672 E0.01681 ; perimeter
G1 X137.973 Y112.601 E0.03312 ; perimeter
G1 X137.705 Y113.040 E0.01611 ; perimeter
G1 X137.101 Y113.923 E0.03354 ; perimeter
G1 X136.436 Y114.761 E0.03354 ; perimeter
G1 X136.096 Y115.146 E0.01611 ; perimeter
G1 X135.341 Y115.915 E0.03379 ; perimeter
G1 X134.945 Y116.276 E0.01681 ; perimeter
G1 X134.135 Y116.942 E0.03285 ; perimeter
G1 X133.264 Y117.561 E0.03353 ; perimeter
G1 X132.811 Y117.847 E0.01681 ; perimeter
G1 X131.889 Y118.364 E0.03312 ; perimeter
G1 X131.429 Y118.592 E0.01611 ; perimeter
G1 X130.438 Y119.018 E0.03381 ; perimeter
G1 X129.956 Y119.195 E0.01611 ; perimeter
G1 X128.926 Y119.514 E0.03381 ; perimeter
G1 X128.428 Y119.640 E0.01611 ; perimeter
G1 X127.379 Y119.846 E0.03353 ; perimeter
G1 X126.303 Y119.978 E0.03398 ; perimeter
G1 X125.257 Y120.033 E0.03285 ; perimeter
G1 X124.743 Y120.033 E0.01611 ; perimeter
G1 X123.666 Y119.976 E0.03381 ; perimeter
G1 X123.147 Y119.921 E0.01637 ; perimeter
G1 X122.630 Y119.848 E0.01637 ; perimeter
G1 X121.580 Y119.641 E0.03354 ; perimeter
G1 X120.548 Y119.361 E0.03354 ; perimeter
G1 X120.060 Y119.201 E0.01611 ; perimeter
G1 X119.055 Y118.810 E0.03381 ; perimeter
G1 X118.587 Y118.599 E0.01611 ; perimeter
G1 X117.629 Y118.105 E0.03379 ; perimeter
G1 X117.167 Y117.833 E0.01681 ; perimeter
G1 X116.285 Y117.252 E0.03312 ; perimeter
G1 X115.871 Y116.947 E0.01611 ; perimeter
G1 X115.045 Y116.268 E0.03353 ; perimeter
G1 X114.260 Y115.521 E0.03398 ; perimeter
G1 X113.553 Y114.748 E0.03285 ; perimeter
G1 X113.226 Y114.352 E0.01611 ; perimeter
G1 X112.586 Y113.484 E0.03381 ; perimeter
G1 X112.299 Y113.048 E0.01637 ; perimeter
G1 X112.028 Y112.602 E0.01637 ; perimeter
G1 X111.516 Y111.652 E0.03381 ; perimeter
G1 X111.297 Y111.188 E0.01611 ; perimeter
G1 X110.892 Y110.198 E0.03354 ; perimeter
G1 X110.560 Y109.190 E0.03327 ; perimeter
G1 X110.299 Y108.152 E0.03354 ; perimeter
G1 X110.198 Y107.640 E0.01637 ; perimeter
G1 X110.115 Y107.124 E0.01637 ; perimeter
G1 X110.001 Y106.052 E0.03381 ; perimeter
G1 X109.974 Y105.539 E0.01611 ; perimeter
G1 X109.974 Y104.470 E0.03353 ; perimeter
G1 X110.052 Y103.389 E0.03398 ; perimeter
G1 X110.199 Y102.352 E0.03285 ; perimeter
G1 X110.300 Y101.839 E0.01638 ; perimeter
G1 X110.419 Y101.331 E0.01637 ; perimeter
G1 X110.719 Y100.295 E0.03381 ; perimeter
G1 X110.889 Y99.810 E0.01611 ; perimeter
G1 X111.297 Y98.812 E0.03381 ; perimeter
G1 X111.516 Y98.348 E0.01611 ; perimeter
G1 X112.027 Y97.399 E0.03379 ; perimeter
G1 X112.307 Y96.942 E0.01681 ; perimeter
G1 X112.904 Y96.070 E0.03312 ; perimeter
G1 X113.460 Y95.375 E0.02791 ; perimeter
G1 X113.173 Y95.131 F12000.000 ; move to first perimeter point
G1 F1800
G1 X113.632 Y94.593 E0.02216 ; perimeter
G1 X114.394 Y93.817 E0.03411 ; perimeter
G1 X115.213 Y93.093 E0.03427 ; perimeter
G1 X115.631 Y92.762 E0.01673 ; perimeter
G1 X116.522 Y92.129 E0.03427 ; perimeter
G1 X117.456 Y91.560 E0.03427 ; perimeter
G1 X117.930 Y91.304 E0.01690 ; perimeter
G1 X118.413 Y91.066 E0.01690 ; perimeter
G1 X119.422 Y90.632 E0.03442 ; perimeter
G1 X119.944 Y90.441 E0.01744 ; perimeter
G1 X120.972 Y90.123 E0.03374 ; perimeter
G1 X121.490 Y89.992 E0.01674 ; perimeter
G1 X122.562 Y89.781 E0.03427 ; perimeter
G1 X123.647 Y89.647 E0.03427 ; perimeter
G1 X124.179 Y89.609 E0.01672 ; perimeter
G1 X125.294 Y89.591 E0.03498 ; perimeter
G1 X126.363 Y89.648 E0.03357 ; perimeter
G1 X127.433 Y89.780 E0.03379 ; perimeter
G1 X128.510 Y89.992 E0.03442 ; perimeter
G1 X129.049 Y90.129 E0.01744 ; perimeter
G1 X130.077 Y90.447 E0.03374 ; perimeter
G1 X130.578 Y90.632 E0.01674 ; perimeter
G1 X131.587 Y91.066 E0.03443 ; perimeter
G1 X132.065 Y91.302 E0.01673 ; perimeter
G1 X133.018 Y91.837 E0.03426 ; perimeter
G1 X133.945 Y92.449 E0.03481 ; perimeter
G1 X134.795 Y93.100 E0.03357 ; perimeter
G1 X135.602 Y93.813 E0.03379 ; perimeter
G1 X136.368 Y94.593 E0.03427 ; perimeter
G1 X137.077 Y95.424 E0.03426 ; perimeter
G1 X137.415 Y95.867 E0.01744 ; perimeter
G1 X138.022 Y96.755 E0.03374 ; perimeter
G1 X138.300 Y97.211 E0.01674 ; perimeter
G1 X138.821 Y98.178 E0.03443 ; perimeter
G1 X139.048 Y98.660 E0.01673 ; perimeter
G1 X139.462 Y99.672 E0.03427 ; perimeter
G1 X139.804 Y100.710 E0.03427 ; perimeter
G1 X139.945 Y101.230 E0.01690 ; perimeter
G1 X140.067 Y101.755 E0.01690 ; perimeter
G1 X140.259 Y102.831 E0.03426 ; perimeter
G1 X140.375 Y103.935 E0.03481 ; perimeter
G1 X140.413 Y105.005 E0.03357 ; perimeter
G1 X140.403 Y105.544 E0.01689 ; perimeter
G1 X140.373 Y106.104 E0.01760 ; perimeter
G1 X140.259 Y107.169 E0.03358 ; perimeter
G1 X140.067 Y108.245 E0.03428 ; perimeter
G1 X139.946 Y108.765 E0.01673 ; perimeter
G1 X139.640 Y109.819 E0.03443 ; perimeter
G1 X139.464 Y110.323 E0.01673 ; perimeter
G1 X139.049 Y111.339 E0.03442 ; perimeter
G1 X138.810 Y111.842 E0.01744 ; perimeter
G1 X138.300 Y112.789 E0.03374 ; perimeter
G1 X138.022 Y113.245 E0.01674 ; perimeter
G1 X137.405 Y114.147 E0.03427 ; perimeter
G1 X136.725 Y115.003 E0.03427 ; perimeter
G1 X136.372 Y115.403 E0.01673 ; perimeter
G1 X135.603 Y116.186 E0.03442 ; perimeter
G1 X135.192 Y116.561 E0.01744 ; perimeter
G1 X134.365 Y117.241 E0.03358 ; perimeter
G1 X133.474 Y117.874 E0.03426 ; perimeter
G1 X133.004 Y118.171 E0.01744 ; perimeter
G1 X132.065 Y118.698 E0.03374 ; perimeter
G1 X131.587 Y118.934 E0.01674 ; perimeter
G1 X130.578 Y119.368 E0.03443 ; perimeter
G1 X130.077 Y119.553 E0.01673 ; perimeter
G1 X129.028 Y119.877 E0.03443 ; perimeter
G1 X128.510 Y120.008 E0.01673 ; perimeter
G1 X127.438 Y120.218 E0.03426 ; perimeter
G1 X126.336 Y120.354 E0.03481 ; perimeter
G1 X125.267 Y120.410 E0.03357 ; perimeter
G1 X124.733 Y120.410 E0.01674 ; perimeter
G1 X123.636 Y120.352 E0.03443 ; perimeter
G1 X123.101 Y120.295 E0.01690 ; perimeter
G1 X122.567 Y120.220 E0.01690 ; perimeter
G1 X121.495 Y120.009 E0.03427 ; perimeter
G1 X120.440 Y119.723 E0.03427 ; perimeter
G1 X119.933 Y119.556 E0.01673 ; perimeter
G1 X118.909 Y119.158 E0.03443 ; perimeter
G1 X118.423 Y118.939 E0.01673 ; perimeter
G1 X117.447 Y118.435 E0.03442 ; perimeter
G1 X116.967 Y118.154 E0.01744 ; perimeter
G1 X116.069 Y117.561 E0.03374 ; perimeter
G1 X115.639 Y117.245 E0.01674 ; perimeter
G1 X114.795 Y116.551 E0.03426 ; perimeter
G1 X113.991 Y115.786 E0.03481 ; perimeter
G1 X113.268 Y114.996 E0.03357 ; perimeter
G1 X112.929 Y114.583 E0.01674 ; perimeter
G1 X112.277 Y113.699 E0.03443 ; perimeter
G1 X111.981 Y113.249 E0.01690 ; perimeter
G1 X111.700 Y112.789 E0.01690 ; perimeter
G1 X111.179 Y111.822 E0.03443 ; perimeter
G1 X110.952 Y111.340 E0.01673 ; perimeter
G1 X110.538 Y110.328 E0.03427 ; perimeter
G1 X110.198 Y109.295 E0.03411 ; perimeter
G1 X109.931 Y108.235 E0.03427 ; perimeter
G1 X109.827 Y107.706 E0.01689 ; perimeter
G1 X109.741 Y107.174 E0.01690 ; perimeter
G1 X109.625 Y106.082 E0.03443 ; perimeter
G1 X109.597 Y105.549 E0.01673 ; perimeter
G1 X109.597 Y104.456 E0.03426 ; perimeter
G1 X109.677 Y103.349 E0.03481 ; perimeter
G1 X109.828 Y102.289 E0.03357 ; perimeter
G1 X109.932 Y101.760 E0.01690 ; perimeter
G1 X110.054 Y101.235 E0.01690 ; perimeter
G1 X110.360 Y100.181 E0.03443 ; perimeter
G1 X110.536 Y99.677 E0.01673 ; perimeter
G1 X110.952 Y98.660 E0.03443 ; perimeter
G1 X111.179 Y98.178 E0.01673 ; perimeter
G1 X111.700 Y97.211 E0.03442 ; perimeter
G1 X111.990 Y96.737 E0.01744 ; perimeter
G1 X112.598 Y95.849 E0.03374 ; perimeter
G1 X113.134 Y95.176 E0.02696 ; perimeter
G1 X112.847 Y94.932 F12000.000 ; move to first perimeter point
G1 F1800
G1 X113.353 Y94.338 E0.02445 ; perimeter
G1 X114.134 Y93.543 E0.03494 ; perimeter
