; generated by Slic3r 1.37.2.1-prusa3d on 2018-06-14 at 22:08:53

; 

; external perimeters extrusion width = 0.45mm
; perimeters extrusion width = 0.45mm
; infill extrusion width = 0.45mm
; solid infill extrusion width = 0.45mm
; top infill extrusion width = 0.40mm
; first layer extrusion width = 0.42mm

M107 ; disable fan
M115 U3.1.1-RC5 ; tell printer latest fw version
M83  ; extruder relative mode
M104 S215 ; set extruder temp
M140 S60 ; set bed temp
M190 S60 ; wait for bed temp
M109 S215 ; wait for extruder temp
G28 W ; home all without mesh bed level
G80 ; mesh bed leveling
G1 Y-3.0 F1000.0 ; go outside print area
G92 E0.0
G1 X60.0 E9.0  F1000.0 ; intro line
G1 X100.0 E12.5  F1000.0 ; intro line
G92 E0.0
M221 S95
M900 K30
G21 ; set units to millimeters
G90 ; use absolute coordinates
M83 ; use relative distances for extrusion
;BEFORE_LAYER_CHANGE
;0.2


G1 E-0.80000 F2100.00000 ; retract
G1 Z0.600 F12000.000 ; lift Z
;AFTER_LAYER_CHANGE
;0.2
G1 X109.103 Y67.621 F12000.000 ; move to first skirt point
G1 Z0.200 F12000.000 ; restore layer Z
G1 E0.80000 F2100.00000 ; unretract
M204 S1000 ; adjust acceleration
G1 F1800
G1 X109.298 Y66.990 E0.02071 ; skirt
G1 X113.479 Y58.291 E0.30260 ; skirt
G1 X113.913 Y57.754 E0.02166 ; skirt
G1 X115.957 Y56.000 E0.08445 ; skirt
G1 X116.536 Y55.730 E0.02000 ; skirt
G1 X117.165 Y55.624 E0.02000 ; skirt
G1 X127.761 Y55.623 E0.33225 ; skirt
G1 X128.467 Y55.731 E0.02237 ; skirt
G1 X129.111 Y56.046 E0.02249 ; skirt
G1 X131.077 Y57.744 E0.08144 ; skirt
G1 X131.449 Y58.176 E0.01787 ; skirt
G1 X135.705 Y66.996 E0.30708 ; skirt
G1 X135.918 Y67.791 E0.02579 ; skirt
G1 X135.744 Y145.021 E2.42151 ; skirt
G1 X135.688 Y145.785 E0.02401 ; skirt
G1 X135.313 Y147.050 E0.04137 ; skirt
G1 X135.003 Y147.590 E0.01952 ; skirt
G1 X134.629 Y148.042 E0.01842 ; skirt
G1 X134.163 Y148.437 E0.01917 ; skirt
G1 X133.634 Y148.747 E0.01921 ; skirt
G1 X132.336 Y149.138 E0.04251 ; skirt
G1 X131.631 Y149.194 E0.02217 ; skirt
G1 X113.417 Y149.195 E0.57110 ; skirt
G1 X112.644 Y149.135 E0.02430 ; skirt
G1 X111.882 Y148.953 E0.02459 ; skirt
G1 X111.269 Y148.699 E0.02079 ; skirt
G1 X110.718 Y148.349 E0.02048 ; skirt
G1 X110.235 Y147.895 E0.02078 ; skirt
G1 X109.864 Y147.383 E0.01981 ; skirt
G1 X109.571 Y146.777 E0.02110 ; skirt
G1 X109.344 Y145.971 E0.02628 ; skirt
G1 X109.260 Y145.236 E0.02318 ; skirt
G1 X109.103 Y67.681 E2.43171 ; skirt
G1 F9600
G1 X109.298 Y66.990 E-0.14924 ; wipe and retract
G1 F9600
G1 X110.571 Y64.341 E-0.61076 ; wipe and retract
G1 E-0.04000 F2100.00000 ; retract
G1 Z0.800 F12000.000 ; lift Z
G1 X118.113 Y76.413 F12000.000 ; move to first perimeter point
G1 Z0.200 F12000.000 ; restore layer Z
G1 E0.80000 F2100.00000 ; unretract
G1 F1800
G1 X126.887 Y76.413 E0.27511 ; perimeter
G1 X126.887 Y140.087 E1.99646 ; perimeter
G1 X118.113 Y140.087 E0.27511 ; perimeter
G1 X118.113 Y76.473 E1.99458 ; perimeter
G1 X118.490 Y76.790 F12000.000 ; move to first perimeter point
G1 F1800
G1 X126.510 Y76.790 E0.25146 ; perimeter
G1 X126.510 Y139.710 E1.97281 ; perimeter
G1 X118.490 Y139.710 E0.25146 ; perimeter
G1 X118.490 Y76.850 E1.97093 ; perimeter
G1 X118.473 Y76.390 F12000.000 ; move inwards before travel
G1 F9600
G1 X122.147 Y76.823 E-0.76000 ; wipe and retract
G1 E-0.04000 F2100.00000 ; retract
G1 Z0.800 F12000.000 ; lift Z
G1 X128.720 Y68.587 F12000.000 ; move to first perimeter point
G1 Z0.200 F12000.000 ; restore layer Z
G1 E0.80000 F2100.00000 ; unretract
G1 F1800
G1 X132.963 Y68.587 E0.13302 ; perimeter
G1 X132.963 Y72.413 E0.11996 ; perimeter
G1 X132.394 Y72.413 E0.01784 ; perimeter
G1 X132.397 Y145.035 E2.27702 ; perimeter
G1 X132.384 Y145.182 E0.00462 ; perimeter
G1 X132.350 Y145.319 E0.00442 ; perimeter
G1 X132.283 Y145.465 E0.00504 ; perimeter
G1 X132.139 Y145.644 E0.00719 ; perimeter
G1 X131.939 Y145.771 E0.00745 ; perimeter
G1 X131.823 Y145.814 E0.00386 ; perimeter
G1 X131.644 Y145.841 E0.00569 ; perimeter
G1 X113.436 Y145.847 E0.57089 ; perimeter
G1 X113.260 Y145.833 E0.00555 ; perimeter
G1 X113.022 Y145.752 E0.00788 ; perimeter
G1 X112.900 Y145.677 E0.00449 ; perimeter
G1 X112.807 Y145.590 E0.00401 ; perimeter
G1 X112.727 Y145.481 E0.00423 ; perimeter
G1 X112.658 Y145.337 E0.00501 ; perimeter
G1 X112.604 Y145.062 E0.00877 ; perimeter
G1 X112.606 Y72.413 E2.27787 ; perimeter
G1 X112.037 Y72.413 E0.01784 ; perimeter
G1 X112.037 Y68.587 E0.11996 ; perimeter
G1 X116.280 Y68.587 E0.13302 ; perimeter
G1 X116.280 Y59.769 E0.27649 ; perimeter
G1 X117.676 Y58.587 E0.05736 ; perimeter
G1 X127.327 Y58.587 E0.30261 ; perimeter
G1 X128.720 Y59.771 E0.05732 ; perimeter
G1 X128.720 Y68.527 E0.27455 ; perimeter
G1 X129.098 Y68.210 F12000.000 ; move to first perimeter point
G1 F1800
G1 X133.340 Y68.210 E0.13302 ; perimeter
G1 X133.340 Y72.790 E0.14360 ; perimeter
G1 X132.771 Y72.790 E0.01784 ; perimeter
G1 X132.774 Y145.052 E2.26572 ; perimeter
G1 X132.757 Y145.245 E0.00609 ; perimeter
G1 X132.707 Y145.444 E0.00642 ; perimeter
G1 X132.613 Y145.652 E0.00716 ; perimeter
G1 X132.498 Y145.818 E0.00633 ; perimeter
G1 X132.388 Y145.929 E0.00490 ; perimeter
G1 X132.255 Y146.029 E0.00522 ; perimeter
G1 X132.095 Y146.115 E0.00570 ; perimeter
G1 X131.918 Y146.181 E0.00590 ; perimeter
G1 X131.673 Y146.218 E0.00778 ; perimeter
G1 X113.422 Y146.224 E0.57224 ; perimeter
G1 X113.205 Y146.207 E0.00683 ; perimeter
G1 X112.853 Y146.092 E0.01161 ; perimeter
G1 X112.670 Y145.977 E0.00675 ; perimeter
G1 X112.524 Y145.842 E0.00626 ; perimeter
G1 X112.402 Y145.675 E0.00648 ; perimeter
G1 X112.301 Y145.465 E0.00731 ; perimeter
G1 X112.238 Y145.212 E0.00819 ; perimeter
G1 X112.227 Y145.078 E0.00420 ; perimeter
G1 X112.229 Y72.790 E2.26654 ; perimeter
G1 X111.660 Y72.790 E0.01784 ; perimeter
G1 X111.660 Y68.210 E0.14360 ; perimeter
G1 X115.902 Y68.210 E0.13302 ; perimeter
G1 X115.902 Y59.596 E0.27008 ; perimeter
G1 X117.541 Y58.210 E0.06729 ; perimeter
G1 X127.460 Y58.210 E0.31102 ; perimeter
G1 X129.098 Y59.597 E0.06728 ; perimeter
G1 X129.098 Y68.150 E0.26818 ; perimeter
G1 X129.119 Y68.609 F12000.000 ; move inwards before travel
G1 F9600
G1 X132.754 Y68.202 E-0.76000 ; wipe and retract
G1 E-0.04000 F2100.00000 ; retract
G1 Z0.800 F12000.000 ; lift Z
G1 X132.439 Y68.700 F12000.000 ; move to first infill point
G1 Z0.200 F12000.000 ; restore layer Z
G1 E0.80000 F2100.00000 ; unretract
G1 F1800
G1 X132.680 Y68.941 E0.01071 ; infill
G1 X132.680 Y69.475 E0.01677 ; infill
G1 X132.075 Y68.870 E0.02688 ; infill
G1 X131.541 Y68.870 E0.01677 ; infill
G1 X132.680 Y70.009 E0.05060 ; infill
G1 X132.680 Y70.543 E0.01677 ; infill
G1 X131.007 Y68.870 E0.07431 ; infill
G1 X130.473 Y68.870 E0.01677 ; infill
G1 X132.680 Y71.077 E0.09802 ; infill
G1 X132.680 Y71.611 E0.01677 ; infill
G1 X129.939 Y68.870 E0.12173 ; infill
G1 X129.405 Y68.870 E0.01677 ; infill
G1 X132.665 Y72.130 E0.14477 ; infill
G1 X132.131 Y72.130 E0.01677 ; infill
G1 X128.871 Y68.870 E0.14477 ; infill
G1 X128.438 Y68.870 E0.01359 ; infill
G1 X128.438 Y68.437 E0.01359 ; infill
G1 X118.871 Y58.870 E0.42480 ; infill
G1 X119.405 Y58.870 E0.01677 ; infill
G1 X128.438 Y67.903 E0.40109 ; infill
G1 X128.438 Y67.369 E0.01677 ; infill
G1 X119.939 Y58.870 E0.37738 ; infill
G1 X120.473 Y58.870 E0.01677 ; infill
G1 X128.438 Y66.835 E0.35367 ; infill
G1 X128.438 Y66.301 E0.01677 ; infill
G1 X121.007 Y58.870 E0.32996 ; infill
G1 X121.541 Y58.870 E0.01677 ; infill
G1 X128.438 Y65.767 E0.30625 ; infill
G1 X128.438 Y65.233 E0.01677 ; infill
G1 X122.075 Y58.870 E0.28253 ; infill
G1 X122.609 Y58.870 E0.01677 ; infill
G1 X128.438 Y64.699 E0.25882 ; infill
G1 X128.438 Y64.165 E0.01677 ; infill
G1 X123.143 Y58.870 E0.23511 ; infill
G1 X123.677 Y58.870 E0.01677 ; infill
G1 X128.438 Y63.631 E0.21140 ; infill
G1 X128.438 Y63.097 E0.01677 ; infill
G1 X124.211 Y58.870 E0.18769 ; infill
G1 X124.745 Y58.870 E0.01677 ; infill
G1 X128.438 Y62.563 E0.16398 ; infill
G1 X128.438 Y62.029 E0.01677 ; infill
G1 X125.279 Y58.870 E0.14027 ; infill
G1 X125.813 Y58.870 E0.01677 ; infill
G1 X128.438 Y61.495 E0.11655 ; infill
G1 X128.438 Y60.961 E0.01677 ; infill
G1 X126.347 Y58.870 E0.09284 ; infill
G1 X126.881 Y58.870 E0.01677 ; infill
G1 X128.607 Y60.596 E0.07667 ; infill
G1 F9600
G1 X126.881 Y58.870 E-0.50744 ; wipe and retract
G1 F9600
G1 X126.347 Y58.870 E-0.11097 ; wipe and retract
G1 F9600
G1 X126.828 Y59.352 E-0.14159 ; wipe and retract
G1 E-0.04000 F2100.00000 ; retract
G1 Z0.800 F12000.000 ; lift Z
G1 X132.281 Y72.814 F12000.000 ; move to first infill point
G1 Z0.200 F12000.000 ; restore layer Z
G1 E0.80000 F2100.00000 ; unretract
G1 F1800
G1 X118.337 Y58.870 E0.61916 ; infill
G1 X117.803 Y58.870 E0.01677 ; infill
G1 X132.111 Y73.178 E0.63534 ; infill
G1 X132.111 Y73.713 E0.01677 ; infill
G1 X117.503 Y59.104 E0.64866 ; infill
G1 X117.214 Y59.349 E0.01190 ; infill
G1 X132.111 Y74.247 E0.66150 ; infill
G1 X132.111 Y74.781 E0.01677 ; infill
G1 X116.924 Y59.594 E0.67434 ; infill
G1 X116.635 Y59.838 E0.01190 ; infill
G1 X132.111 Y75.315 E0.68718 ; infill
G1 X132.111 Y75.849 E0.01677 ; infill
G1 X116.562 Y60.300 E0.69042 ; infill
G1 X116.562 Y60.834 E0.01677 ; infill
G1 X132.111 Y76.383 E0.69042 ; infill
G1 X132.111 Y76.917 E0.01677 ; infill
G1 X116.562 Y61.368 E0.69042 ; infill
G1 X116.562 Y61.902 E0.01677 ; infill
G1 X132.111 Y77.451 E0.69042 ; infill
G1 X132.111 Y77.985 E0.01677 ; infill
G1 X116.562 Y62.436 E0.69042 ; infill
G1 X116.562 Y62.970 E0.01677 ; infill
G1 X132.111 Y78.519 E0.69043 ; infill
G1 X132.112 Y79.053 E0.01677 ; infill
G1 X116.562 Y63.504 E0.69043 ; infill
G1 X116.562 Y64.038 E0.01677 ; infill
G1 X132.112 Y79.587 E0.69043 ; infill
G1 X132.112 Y80.121 E0.01677 ; infill
G1 X116.562 Y64.572 E0.69043 ; infill
G1 X116.562 Y65.106 E0.01677 ; infill
G1 X132.112 Y80.655 E0.69043 ; infill
G1 X132.112 Y81.189 E0.01677 ; infill
G1 X116.562 Y65.640 E0.69043 ; infill
G1 X116.562 Y66.174 E0.01677 ; infill
G1 X126.519 Y76.130 E0.44209 ; infill
G1 X125.985 Y76.130 E0.01677 ; infill
G1 X116.562 Y66.708 E0.41838 ; infill
G1 X116.562 Y67.242 E0.01677 ; infill
G1 X125.451 Y76.130 E0.39467 ; infill
G1 X124.917 Y76.130 E0.01677 ; infill
G1 X116.562 Y67.776 E0.37096 ; infill
G1 X116.562 Y68.310 E0.01677 ; infill
G1 X124.383 Y76.130 E0.34725 ; infill
G1 X123.849 Y76.130 E0.01677 ; infill
G1 X116.562 Y68.844 E0.32354 ; infill
G1 X116.562 Y68.870 E0.00082 ; infill
G1 X116.055 Y68.870 E0.01594 ; infill
G1 X123.315 Y76.130 E0.32238 ; infill
G1 X122.781 Y76.130 E0.01677 ; infill
G1 X115.521 Y68.870 E0.32238 ; infill
G1 X114.986 Y68.870 E0.01677 ; infill
G1 X122.247 Y76.130 E0.32238 ; infill
G1 X121.713 Y76.130 E0.01677 ; infill
G1 X114.452 Y68.870 E0.32238 ; infill
G1 X113.918 Y68.870 E0.01677 ; infill
G1 X121.179 Y76.130 E0.32238 ; infill
G1 X120.645 Y76.130 E0.01677 ; infill
G1 X113.384 Y68.870 E0.32238 ; infill
G1 X112.850 Y68.870 E0.01677 ; infill
G1 X120.111 Y76.130 E0.32238 ; infill
G1 X119.577 Y76.130 E0.01677 ; infill
G1 X112.320 Y68.873 E0.32223 ; infill
G1 X112.320 Y69.407 E0.01677 ; infill
G1 X119.043 Y76.130 E0.29851 ; infill
G1 X118.509 Y76.130 E0.01677 ; infill
G1 X112.320 Y69.941 E0.27480 ; infill
G1 X112.320 Y70.475 E0.01677 ; infill
G1 X117.975 Y76.130 E0.25109 ; infill
G1 X117.830 Y76.130 E0.00454 ; infill
G1 X117.830 Y76.520 E0.01223 ; infill
G1 X112.320 Y71.009 E0.24467 ; infill
G1 X112.320 Y71.543 E0.01677 ; infill
G1 X117.830 Y77.054 E0.24467 ; infill
G1 X117.830 Y77.588 E0.01677 ; infill
G1 X112.889 Y72.646 E0.21941 ; infill
G1 X112.889 Y73.180 E0.01677 ; infill
G1 X117.830 Y78.122 E0.21941 ; infill
G1 X117.830 Y78.656 E0.01677 ; infill
G1 X112.889 Y73.714 E0.21941 ; infill
G1 X112.889 Y74.248 E0.01677 ; infill
G1 X117.830 Y79.190 E0.21941 ; infill
G1 X117.830 Y79.724 E0.01677 ; infill
G1 X112.889 Y74.782 E0.21941 ; infill
G1 X112.889 Y75.316 E0.01677 ; infill
G1 X117.830 Y80.258 E0.21941 ; infill
G1 X117.830 Y80.792 E0.01677 ; infill
G1 X112.889 Y75.850 E0.21941 ; infill
G1 X112.889 Y76.384 E0.01677 ; infill
G1 X117.830 Y81.326 E0.21942 ; infill
G1 X117.830 Y81.860 E0.01677 ; infill
G1 X112.889 Y76.918 E0.21942 ; infill
G1 X112.889 Y77.452 E0.01677 ; infill
G1 X117.830 Y82.394 E0.21942 ; infill
G1 X117.830 Y82.928 E0.01677 ; infill
G1 X112.889 Y77.986 E0.21942 ; infill
G1 X112.889 Y78.520 E0.01677 ; infill
G1 X117.830 Y83.462 E0.21942 ; infill
G1 X117.830 Y83.996 E0.01677 ; infill
G1 X112.889 Y79.054 E0.21942 ; infill
G1 X112.889 Y79.588 E0.01677 ; infill
G1 X117.830 Y84.530 E0.21942 ; infill
G1 X117.830 Y85.064 E0.01677 ; infill
G1 X112.889 Y80.122 E0.21942 ; infill
G1 X112.889 Y80.656 E0.01677 ; infill
G1 X117.830 Y85.598 E0.21942 ; infill
G1 X117.830 Y86.132 E0.01677 ; infill
G1 X112.889 Y81.190 E0.21942 ; infill
G1 X112.888 Y81.724 E0.01677 ; infill
G1 X117.830 Y86.666 E0.21942 ; infill
G1 X117.830 Y87.200 E0.01677 ; infill
G1 X112.888 Y82.258 E0.21942 ; infill
G1 X112.888 Y82.792 E0.01677 ; infill
G1 X117.830 Y87.734 E0.21942 ; infill
G1 X117.830 Y88.268 E0.01677 ; infill
G1 X112.888 Y83.326 E0.21942 ; infill
G1 X112.888 Y83.860 E0.01677 ; infill
G1 X117.830 Y88.802 E0.21943 ; infill
G1 X117.830 Y89.336 E0.01677 ; infill
G1 X112.888 Y84.394 E0.21943 ; infill
G1 X112.888 Y84.928 E0.01677 ; infill
G1 X117.830 Y89.870 E0.21943 ; infill
G1 X117.830 Y90.404 E0.01677 ; infill
G1 X112.888 Y85.462 E0.21943 ; infill
G1 X112.888 Y85.996 E0.01677 ; infill
G1 X117.830 Y90.938 E0.21943 ; infill
G1 X117.830 Y91.472 E0.01677 ; infill
G1 X112.888 Y86.530 E0.21943 ; infill
G1 X112.888 Y87.064 E0.01677 ; infill
G1 X117.830 Y92.006 E0.21943 ; infill
G1 X117.830 Y92.540 E0.01677 ; infill
G1 X112.888 Y87.598 E0.21943 ; infill
G1 X112.888 Y88.132 E0.01677 ; infill
G1 X117.830 Y93.074 E0.21943 ; infill
G1 X117.830 Y93.608 E0.01677 ; infill
G1 X112.888 Y88.666 E0.21943 ; infill
G1 X112.888 Y89.200 E0.01677 ; infill
G1 X117.830 Y94.142 E0.21943 ; infill
G1 X117.830 Y94.676 E0.01677 ; infill
G1 X112.888 Y89.734 E0.21943 ; infill
G1 X112.888 Y90.268 E0.01677 ; infill
G1 X117.830 Y95.210 E0.21943 ; infill
G1 X117.830 Y95.744 E0.01677 ; infill
G1 X112.888 Y90.802 E0.21944 ; infill
G1 X112.888 Y91.336 E0.01677 ; infill
G1 X117.830 Y96.278 E0.21944 ; infill
G1 X117.830 Y96.812 E0.01677 ; infill
G1 X112.888 Y91.870 E0.21944 ; infill
G1 X112.888 Y92.404 E0.01677 ; infill
G1 X117.830 Y97.346 E0.21944 ; infill
G1 X117.830 Y97.880 E0.01677 ; infill
G1 X112.888 Y92.938 E0.21944 ; infill
G1 X112.888 Y93.472 E0.01677 ; infill
G1 X117.830 Y98.414 E0.21944 ; infill
G1 X117.830 Y98.948 E0.01677 ; infill
G1 X112.888 Y94.006 E0.21944 ; infill
G1 X112.888 Y94.540 E0.01677 ; infill
G1 X117.830 Y99.482 E0.21944 ; infill
G1 X117.830 Y100.016 E0.01677 ; infill
G1 X112.888 Y95.074 E0.21944 ; infill
G1 X112.888 Y95.608 E0.01677 ; infill
G1 X117.830 Y100.550 E0.21944 ; infill
G1 X117.830 Y101.084 E0.01677 ; infill
G1 X112.888 Y96.142 E0.21944 ; infill
G1 X112.888 Y96.676 E0.01677 ; infill
G1 X117.830 Y101.618 E0.21944 ; infill
G1 X117.830 Y102.152 E0.01677 ; infill
G1 X112.888 Y97.210 E0.21944 ; infill
G1 X112.888 Y97.744 E0.01677 ; infill
G1 X117.830 Y102.686 E0.21944 ; infill
G1 X117.830 Y103.220 E0.01677 ; infill
G1 X112.888 Y98.278 E0.21945 ; infill
G1 X112.888 Y98.812 E0.01677 ; infill
G1 X117.830 Y103.754 E0.21945 ; infill
G1 X117.830 Y104.288 E0.01677 ; infill
G1 X112.888 Y99.346 E0.21945 ; infill
G1 X112.888 Y99.880 E0.01677 ; infill
G1 X117.830 Y104.822 E0.21945 ; infill
G1 X117.830 Y105.356 E0.01677 ; infill
G1 X112.888 Y100.414 E0.21945 ; infill
G1 X112.888 Y100.948 E0.01677 ; infill
G1 X117.830 Y105.890 E0.21945 ; infill
G1 X117.830 Y106.424 E0.01677 ; infill
G1 X112.888 Y101.482 E0.21945 ; infill
G1 X112.888 Y102.016 E0.01677 ; infill
G1 X117.830 Y106.958 E0.21945 ; infill
G1 X117.830 Y107.492 E0.01677 ; infill
G1 X112.888 Y102.550 E0.21945 ; infill
G1 X112.888 Y103.084 E0.01677 ; infill
G1 X117.830 Y108.026 E0.21945 ; infill
G1 X117.830 Y108.560 E0.01677 ; infill
G1 X112.888 Y103.618 E0.21945 ; infill
G1 X112.888 Y104.152 E0.01677 ; infill
G1 X117.830 Y109.094 E0.21945 ; infill
G1 X117.830 Y109.628 E0.01677 ; infill
G1 X112.888 Y104.686 E0.21945 ; infill
G1 X112.888 Y105.220 E0.01677 ; infill
