; generated by PrusaSlicer 2.0.0+ on 2019-05-21 at 08:56:34

; 

; external perimeters extrusion width = 0.45mm
; perimeters extrusion width = 0.45mm
; infill extrusion width = 0.45mm
; solid infill extrusion width = 0.45mm
; top infill extrusion width = 0.40mm
; first layer extrusion width = 0.42mm

M73 P0 R142
M73 Q0 S148
M201 X1000 Y1000 Z1000 E5000 ; sets maximum accelerations, mm/sec^2
M203 X200 Y200 Z12 E120 ; sets maximum feedrates, mm/sec
M204 P1250 R1250 T1250 ; sets acceleration (P, T) and retract acceleration (R), mm/sec^2
M205 X8.00 Y8.00 Z0.40 E1.50 ; sets the jerk limits, mm/sec
M205 S0 T0 ; sets the minimum extruding and travel feed rate, mm/sec
M107
M115 U3.7.1 ; tell printer latest fw version
G90 ; use absolute coordinates
M83 ; extruder relative mode
M104 S215 ; set extruder temp
M140 S60 ; set bed temp
M190 S60 ; wait for bed temp
M109 S215 ; wait for extruder temp
G28 W ; home all without mesh bed level
G80 ; mesh bed leveling
G1 Y-3.0 F1000.0 ; go outside print area
G92 E0.0
G1 X60.0 E9.0 F1000.0 ; intro line
M73 Q0 S148
M73 P0 R142
G1 X100.0 E12.5 F1000.0 ; intro line
G92 E0.0
M221 S95
M900 K30 ; Filament gcode
G21 ; set units to millimeters
G90 ; use absolute coordinates
M83 ; use relative distances for extrusion
;BEFORE_LAYER_CHANGE
G92 E0.0
;0.2


G1 E-0.80000 F2100.00000
G1 Z0.600 F10800.000
;AFTER_LAYER_CHANGE
;0.2
G1 X80.448 Y68.039
G1 Z0.200
G1 E0.80000 F2100.00000
M204 S1000
G1 F1200
G1 X81.747 Y66.528 E0.06248
G1 X84.415 Y63.722 E0.12143
G1 X85.860 Y62.350 E0.06248
G1 X88.799 Y59.828 E0.12143
G1 X90.376 Y58.609 E0.06248
G1 X93.555 Y56.397 E0.12143
G1 X95.246 Y55.344 E0.06248
G1 X98.633 Y53.465 E0.12143
G1 X100.422 Y52.588 E0.06248
G1 X103.948 Y51.076 E0.12028
G1 X107.706 Y49.755 E0.12491
G1 X111.403 Y48.731 E0.12028
G1 X113.384 Y48.289 E0.06362
G1 X117.166 Y47.644 E0.12028
G1 X119.143 Y47.408 E0.06245
G1 X123.008 Y47.146 E0.12145
G1 X125.003 Y47.111 E0.06257
G1 X128.871 Y47.241 E0.12134
G1 X130.856 Y47.408 E0.06245
G1 X132.834 Y47.644 E0.06248
G1 X136.652 Y48.296 E0.12143
G1 X138.597 Y48.731 E0.06248
G1 X142.328 Y49.766 E0.12143
G1 X144.219 Y50.395 E0.06248
G1 X147.794 Y51.788 E0.12028
G1 X149.631 Y52.613 E0.06314
G1 X152.188 Y53.903 E0.08981
G1 X154.766 Y55.351 E0.09271
G1 X156.476 Y56.417 E0.06317
G1 X159.624 Y58.609 E0.12028
G1 X161.200 Y59.827 E0.06245
G1 X164.140 Y62.350 E0.12145
G1 X165.610 Y63.748 E0.06362
G1 X168.253 Y66.528 E0.12028
G1 X169.552 Y68.039 E0.06245
G1 X170.797 Y69.594 E0.06248
G1 X173.062 Y72.736 E0.12143
G1 X174.144 Y74.409 E0.06248
G1 X176.079 Y77.763 E0.12143
G1 X176.986 Y79.538 E0.06248
G1 X178.572 Y83.071 E0.12143
G1 X179.295 Y84.928 E0.06248
G1 X180.516 Y88.603 E0.12143
G1 X181.047 Y90.524 E0.06248
G1 X181.890 Y94.304 E0.12143
G1 X182.224 Y96.268 E0.06248
G1 X182.679 Y100.114 E0.12143
G1 X182.813 Y102.102 E0.06248
G1 X182.878 Y105.938 E0.12028
G1 X182.809 Y107.966 E0.06363
G1 X182.482 Y111.825 E0.12143
G1 X182.212 Y113.799 E0.06248
G1 X181.504 Y117.569 E0.12028
G1 X181.028 Y119.542 E0.06363
G1 X179.942 Y123.221 E0.12028
G1 X178.558 Y126.957 E0.12491
G1 X176.986 Y130.456 E0.12028
G1 X176.080 Y132.230 E0.06245
G1 X175.112 Y133.972 E0.06248
G1 X173.063 Y137.258 E0.12143
G1 X171.923 Y138.893 E0.06248
G1 X169.552 Y141.955 E0.12143
G1 X168.253 Y143.466 E0.06248
G1 X165.585 Y146.272 E0.12143
G1 X164.140 Y147.645 E0.06248
G1 X161.201 Y150.167 E0.12143
G1 X159.624 Y151.386 E0.06248
G1 X156.476 Y153.577 E0.12028
G1 X154.754 Y154.650 E0.06363
G1 X151.399 Y156.512 E0.12028
G1 X147.794 Y158.206 E0.12491
G1 X144.219 Y159.599 E0.12028
G1 X142.329 Y160.228 E0.06245
G1 X140.418 Y160.792 E0.06248
G1 X136.653 Y161.698 E0.12143
G1 X134.694 Y162.065 E0.06248
G1 X130.857 Y162.586 E0.12143
G1 X128.871 Y162.753 E0.06248
G1 X125.000 Y162.883 E0.12143
G1 X123.008 Y162.848 E0.06248
G1 X119.144 Y162.586 E0.12143
G1 X117.166 Y162.350 E0.06248
G1 X113.348 Y161.698 E0.12143
G1 X111.403 Y161.263 E0.06248
G1 X107.672 Y160.228 E0.12143
G1 X105.781 Y159.599 E0.06248
G1 X102.206 Y158.206 E0.12028
G1 X100.355 Y157.374 E0.06362
G1 X96.924 Y155.618 E0.12085
G1 X95.196 Y154.621 E0.06257
G1 X92.782 Y153.079 E0.08981
G1 X90.364 Y151.377 E0.09271
G1 X88.786 Y150.156 E0.06257
G1 X85.860 Y147.645 E0.12088
G1 X84.390 Y146.247 E0.06362
G1 X81.747 Y143.466 E0.12028
G1 X80.448 Y141.955 E0.06245
G1 X79.203 Y140.400 E0.06248
G1 X76.938 Y137.259 E0.12143
G1 X75.856 Y135.585 E0.06248
G1 X73.921 Y132.231 E0.12143
G1 X73.014 Y130.456 E0.06248
G1 X71.428 Y126.923 E0.12143
G1 X70.705 Y125.066 E0.06248
G1 X69.484 Y121.391 E0.12143
G1 X68.953 Y119.470 E0.06248
G1 X68.110 Y115.691 E0.12143
G1 X67.776 Y113.726 E0.06248
G1 X67.321 Y109.880 E0.12143
G1 X67.187 Y107.892 E0.06248
G1 X67.122 Y104.056 E0.12028
G1 X67.191 Y102.028 E0.06362
G1 X67.516 Y98.188 E0.12085
G1 X67.785 Y96.210 E0.06257
G1 X68.298 Y93.392 E0.08981
G1 X68.957 Y90.510 E0.09271
G1 X69.489 Y88.586 E0.06257
G1 X70.705 Y84.928 E0.12088
G1 X71.442 Y83.037 E0.06362
G1 X73.014 Y79.538 E0.12028
G1 X73.920 Y77.764 E0.06245
G1 X74.888 Y76.022 E0.06248
G1 X76.937 Y72.736 E0.12143
G1 X78.077 Y71.101 E0.06248
G1 X80.411 Y68.087 E0.11955
G1 F8640
G1 X81.747 Y66.528 E-0.47396
G1 X82.600 Y65.630 E-0.28604
G1 E-0.04000 F2100.00000
G1 Z0.800 F10800.000
G1 X155.277 Y75.710
G1 Z0.200
G1 E0.80000 F2100.00000
G1 F1200
G1 X157.092 Y77.768 E0.08603
G1 X158.109 Y79.014 E0.05042
G1 X159.077 Y80.298 E0.05042
G1 X160.151 Y81.839 E0.05890
G1 X159.755 Y83.181 E0.04385
G1 X159.069 Y85.297 E0.06977
G1 X158.697 Y86.348 E0.03494
G1 X158.122 Y87.867 E0.05093
G1 X157.512 Y89.368 E0.05080
G1 X156.870 Y90.850 E0.05064
G1 X156.197 Y92.313 E0.05049
G1 X155.496 Y93.757 E0.05033
G1 X154.769 Y95.182 E0.05017
G1 X154.017 Y96.589 E0.05000
G1 X153.243 Y97.979 E0.04989
G1 X151.639 Y100.697 E0.09894
G1 X149.972 Y103.344 E0.09810
G1 X148.257 Y105.918 E0.09699
G1 X146.513 Y108.421 E0.09565
G1 X145.008 Y110.513 E0.08080
G1 X142.028 Y114.540 E0.15707
G1 X137.100 Y121.107 E0.25744
G1 X135.809 Y122.869 E0.06849
G1 X134.663 Y124.475 E0.06186
G1 X133.170 Y126.646 E0.08260
G1 X131.814 Y128.724 E0.07781
G1 X130.598 Y130.710 E0.07301
G1 X129.870 Y131.976 E0.04580
G1 X128.897 Y133.802 E0.06486
G1 X128.326 Y134.975 E0.04091
G1 X127.815 Y136.117 E0.03923
G1 X127.164 Y137.752 E0.05516
G1 X126.808 Y138.781 E0.03415
G1 X126.508 Y139.771 E0.03244
G1 X126.262 Y140.722 E0.03079
G1 X126.066 Y141.631 E0.02916
G1 X125.847 Y143.033 E0.04449
G1 X125.794 Y143.527 E0.01559
G1 X125.727 Y144.518 E0.03114
G1 X125.719 Y145.486 E0.03036
G1 X125.801 Y147.090 E0.05037
G1 X123.909 Y147.070 E0.05932
G1 X122.634 Y147.018 E0.04001
G1 X121.361 Y146.927 E0.04001
G1 X119.587 Y146.746 E0.05592
G1 X119.549 Y145.305 E0.04517
G1 X119.561 Y144.366 E0.02944
G1 X119.623 Y143.245 E0.03523
G1 X119.739 Y142.106 E0.03590
G1 X119.912 Y140.948 E0.03669
G1 X120.144 Y139.770 E0.03766
G1 X120.435 Y138.567 E0.03880
G1 X120.787 Y137.340 E0.04002
G1 X120.990 Y136.706 E0.02087
G1 X121.685 Y134.790 E0.06390
G1 X121.963 Y134.106 E0.02317
G1 X122.567 Y132.725 E0.04725
G1 X123.608 Y130.594 E0.07435
G1 X124.394 Y129.125 E0.05225
G1 X125.702 Y126.865 E0.08186
G1 X127.166 Y124.528 E0.08648
G1 X128.819 Y122.061 E0.09310
G1 X130.058 Y120.299 E0.06754
G1 X132.024 Y117.594 E0.10485
G1 X137.702 Y110.008 E0.29711
G1 X140.817 Y105.770 E0.16491
G1 X142.441 Y103.472 E0.08823
G1 X144.034 Y101.130 E0.08882
G1 X145.582 Y98.743 E0.08917
G1 X147.070 Y96.313 E0.08935
G1 X148.487 Y93.837 E0.08946
G1 X149.162 Y92.585 E0.04459
G1 X149.815 Y91.320 E0.04463
G1 X150.442 Y90.044 E0.04459
G1 X151.043 Y88.757 E0.04453
G1 X151.677 Y87.316 E0.04935
G1 X152.275 Y85.860 E0.04936
G1 X152.836 Y84.389 E0.04936
G1 X153.358 Y82.905 E0.04935
G1 X153.839 Y81.406 E0.04934
G1 X154.278 Y79.896 E0.04931
G1 X154.708 Y78.218 E0.05432
G1 X155.264 Y75.769 E0.07874
G1 X155.482 Y76.512 F10800.000
G1 F1200
G1 X156.805 Y78.012 E0.06271
G1 X157.812 Y79.247 E0.04997
G1 X158.772 Y80.519 E0.04997
G1 X159.738 Y81.906 E0.05300
G1 X159.395 Y83.069 E0.03801
G1 X158.712 Y85.176 E0.06945
G1 X158.343 Y86.218 E0.03465
G1 X157.771 Y87.729 E0.05066
G1 X157.164 Y89.222 E0.05052
G1 X156.525 Y90.696 E0.05038
G1 X155.856 Y92.152 E0.05023
G1 X155.158 Y93.589 E0.05009
G1 X154.434 Y95.008 E0.04994
G1 X153.686 Y96.408 E0.04978
G1 X152.916 Y97.791 E0.04964
G1 X151.317 Y100.500 E0.09863
G1 X149.655 Y103.139 E0.09778
G1 X147.945 Y105.706 E0.09671
G1 X146.205 Y108.203 E0.09543
G1 X144.703 Y110.291 E0.08063
G1 X141.725 Y114.314 E0.15696
G1 X136.797 Y120.883 E0.25747
G1 X135.504 Y122.648 E0.06863
G1 X134.354 Y124.259 E0.06203
G1 X132.857 Y126.436 E0.08285
G1 X131.496 Y128.523 E0.07812
G1 X130.274 Y130.517 E0.07334
G1 X129.540 Y131.793 E0.04615
G1 X128.561 Y133.630 E0.06527
G1 X127.984 Y134.816 E0.04132
G1 X127.467 Y135.970 E0.03967
G1 X126.811 Y137.620 E0.05568
G1 X126.450 Y138.665 E0.03465
G1 X126.145 Y139.669 E0.03291
G1 X125.895 Y140.635 E0.03128
G1 X125.695 Y141.562 E0.02975
G1 X125.473 Y142.983 E0.04510
G1 X125.418 Y143.494 E0.01611
G1 X125.350 Y144.504 E0.03172
G1 X125.342 Y145.494 E0.03106
G1 X125.404 Y146.709 E0.03814
G1 X123.919 Y146.693 E0.04656
G1 X122.655 Y146.641 E0.03966
G1 X121.394 Y146.551 E0.03966
G1 X119.955 Y146.404 E0.04535
G1 X119.926 Y145.303 E0.03455
G1 X119.938 Y144.379 E0.02895
G1 X119.999 Y143.274 E0.03470
G1 X120.114 Y142.153 E0.03535
G1 X120.284 Y141.013 E0.03615
G1 X120.512 Y139.850 E0.03713
G1 X120.799 Y138.663 E0.03829
G1 X121.148 Y137.450 E0.03959
G1 X121.347 Y136.828 E0.02046
G1 X122.037 Y134.926 E0.06346
G1 X122.310 Y134.252 E0.02279
G1 X122.909 Y132.883 E0.04684
G1 X123.943 Y130.766 E0.07389
G1 X124.724 Y129.308 E0.05184
G1 X126.025 Y127.060 E0.08146
G1 X127.482 Y124.733 E0.08609
G1 X129.130 Y122.275 E0.09278
G1 X130.364 Y120.518 E0.06731
G1 X132.327 Y117.818 E0.10468
G1 X138.005 Y110.232 E0.29708
G1 X141.123 Y105.990 E0.16507
G1 X142.751 Y103.687 E0.08845
G1 X144.348 Y101.338 E0.08906
G1 X145.901 Y98.944 E0.08946
G1 X147.395 Y96.505 E0.08968
G1 X148.817 Y94.020 E0.08978
G1 X149.495 Y92.761 E0.04484
G1 X150.151 Y91.490 E0.04485
G1 X150.782 Y90.207 E0.04482
G1 X151.387 Y88.913 E0.04478
G1 X152.024 Y87.464 E0.04963
G1 X152.626 Y85.999 E0.04965
G1 X153.190 Y84.519 E0.04966
G1 X153.715 Y83.025 E0.04967
G1 X154.200 Y81.516 E0.04967
G1 X154.642 Y79.995 E0.04966
G1 X155.074 Y78.306 E0.05467
G1 X155.469 Y76.571 E0.05580
G1 X155.722 Y76.192 F10800.000
G1 F8640
G1 X156.805 Y78.012 E-0.45382
G1 X157.643 Y79.039 E-0.30618
G1 E-0.04000 F2100.00000
G1 Z0.800 F10800.000
G1 X160.417 Y82.181
G1 Z0.200
G1 E0.80000 F2100.00000
G1 F1200
G1 X161.790 Y84.557 E0.08606
G1 X162.461 Y85.814 E0.04465
G1 X163.088 Y87.092 E0.04465
G1 X163.672 Y88.391 E0.04465
G1 X164.299 Y89.921 E0.05183
G1 X163.553 Y91.764 E0.06236
G1 X162.862 Y93.367 E0.05474
G1 X162.140 Y94.945 E0.05440
G1 X161.390 Y96.497 E0.05405
G1 X160.615 Y98.024 E0.05370
G1 X159.817 Y99.526 E0.05333
G1 X158.998 Y101.004 E0.05296
G1 X158.161 Y102.456 E0.05256
G1 X157.307 Y103.885 E0.05221
G1 X155.564 Y106.665 E0.10288
G1 X153.784 Y109.349 E0.10098
G1 X151.988 Y111.937 E0.09878
G1 X149.654 Y115.170 E0.12502
G1 X147.539 Y118.023 E0.11133
G1 X142.927 Y124.163 E0.24078
G1 X140.592 Y127.351 E0.12390
G1 X139.167 Y129.385 E0.07787
G1 X137.882 Y131.305 E0.07244
G1 X136.739 Y133.110 E0.06699
G1 X136.060 Y134.244 E0.04145
G1 X135.157 Y135.851 E0.05778
G1 X134.639 Y136.850 E0.03529
G1 X134.189 Y137.782 E0.03244
G1 X133.618 Y139.086 E0.04465
G1 X133.305 Y139.886 E0.02692
G1 X133.041 Y140.635 E0.02491
G1 X132.725 Y141.677 E0.03415
G1 X132.567 Y142.304 E0.02027
G1 X132.366 Y143.330 E0.03278
G1 X132.308 Y143.725 E0.01251
G1 X132.234 Y144.489 E0.02406
G1 X132.216 Y145.205 E0.02247
G1 X132.277 Y146.462 E0.03945
G1 X130.503 Y146.723 E0.05621
G1 X129.242 Y146.870 E0.03980
G1 X127.977 Y146.979 E0.03980
G1 X126.133 Y147.082 E0.05794
G1 X126.044 Y145.487 E0.05009
G1 X126.041 Y144.964 E0.01638
G1 X126.055 Y144.439 E0.01648
G1 X126.134 Y143.385 E0.03313
G1 X126.280 Y142.292 E0.03459
G1 X126.438 Y141.433 E0.02737
G1 X126.641 Y140.540 E0.02872
G1 X126.894 Y139.609 E0.03024
G1 X127.198 Y138.639 E0.03189
G1 X127.559 Y137.625 E0.03374
G1 X128.207 Y136.029 E0.05400
G1 X128.997 Y134.329 E0.05880
G1 X129.920 Y132.558 E0.06261
G1 X130.619 Y131.319 E0.04459
G1 X131.782 Y129.387 E0.07070
G1 X133.087 Y127.360 E0.07560
G1 X134.526 Y125.239 E0.08037
G1 X135.561 Y123.772 E0.05627
G1 X136.801 Y122.061 E0.06627
G1 X143.747 Y112.780 E0.36348
G1 X146.703 Y108.716 E0.15756
G1 X148.537 Y106.086 E0.10054
G1 X149.441 Y104.744 E0.05073
G1 X151.222 Y101.990 E0.10282
G1 X152.088 Y100.586 E0.05174
G1 X152.938 Y99.159 E0.05206
G1 X153.767 Y97.712 E0.05230
G1 X154.574 Y96.244 E0.05252
G1 X155.356 Y94.755 E0.05273
G1 X156.110 Y93.245 E0.05292
G1 X156.835 Y91.714 E0.05311
G1 X157.527 Y90.162 E0.05329
G1 X158.185 Y88.589 E0.05347
G1 X158.805 Y86.994 E0.05365
G1 X159.386 Y85.377 E0.05389
G1 X160.399 Y82.238 E0.10341
G1 X160.518 Y83.109 F10800.000
G1 F1200
G1 X161.461 Y84.740 E0.05906
G1 X162.125 Y85.985 E0.04425
G1 X162.747 Y87.252 E0.04425
G1 X163.326 Y88.540 E0.04425
G1 X163.892 Y89.922 E0.04682
G1 X163.205 Y91.619 E0.05741
G1 X162.517 Y93.214 E0.05447
G1 X161.799 Y94.784 E0.05414
G1 X161.052 Y96.330 E0.05381
G1 X160.281 Y97.850 E0.05347
G1 X159.486 Y99.347 E0.05312
G1 X158.670 Y100.818 E0.05275
G1 X157.836 Y102.265 E0.05237
G1 X156.985 Y103.688 E0.05199
G1 X155.247 Y106.461 E0.10260
G1 X153.472 Y109.138 E0.10071
G1 X151.680 Y111.720 E0.09855
G1 X149.349 Y114.948 E0.12484
G1 X147.237 Y117.797 E0.11122
G1 X142.624 Y123.938 E0.24081
G1 X140.286 Y127.131 E0.12410
G1 X138.856 Y129.172 E0.07812
G1 X137.566 Y131.099 E0.07272
G1 X136.418 Y132.912 E0.06728
G1 X135.734 Y134.055 E0.04176
G1 X134.826 Y135.672 E0.05814
G1 X134.302 Y136.681 E0.03566
G1 X133.847 Y137.624 E0.03283
G1 X133.270 Y138.942 E0.04510
G1 X132.952 Y139.754 E0.02736
G1 X132.683 Y140.518 E0.02537
G1 X132.362 Y141.576 E0.03469
G1 X132.199 Y142.222 E0.02086
G1 X131.994 Y143.266 E0.03338
G1 X131.934 Y143.679 E0.01309
G1 X131.857 Y144.466 E0.02477
G1 X131.838 Y145.209 E0.02333
G1 X131.883 Y146.139 E0.02916
G1 X130.454 Y146.349 E0.04531
G1 X129.204 Y146.495 E0.03944
G1 X127.951 Y146.603 E0.03944
G1 X126.488 Y146.684 E0.04593
G1 X126.421 Y145.475 E0.03797
G1 X126.418 Y144.968 E0.01589
G1 X126.432 Y144.458 E0.01600
G1 X126.509 Y143.424 E0.03250
G1 X126.653 Y142.351 E0.03396
G1 X126.807 Y141.509 E0.02683
G1 X127.007 Y140.631 E0.02823
G1 X127.256 Y139.715 E0.02977
G1 X127.556 Y138.758 E0.03143
G1 X127.911 Y137.759 E0.03325
G1 X128.553 Y136.180 E0.05345
G1 X129.336 Y134.495 E0.05824
G1 X130.251 Y132.737 E0.06214
G1 X130.944 Y131.509 E0.04423
G1 X132.102 Y129.587 E0.07036
G1 X133.401 Y127.568 E0.07528
G1 X134.836 Y125.454 E0.08011
G1 X135.867 Y123.992 E0.05609
G1 X137.105 Y122.285 E0.06610
G1 X144.050 Y113.003 E0.36347
G1 X147.010 Y108.935 E0.15776
G1 X148.848 Y106.299 E0.10075
G1 X149.756 Y104.952 E0.05094
G1 X151.540 Y102.191 E0.10306
G1 X152.410 Y100.781 E0.05195
G1 X153.263 Y99.349 E0.05225
G1 X154.096 Y97.897 E0.05251
G1 X154.906 Y96.422 E0.05274
G1 X155.691 Y94.927 E0.05296
G1 X156.449 Y93.410 E0.05317
G1 X157.177 Y91.872 E0.05337
G1 X157.873 Y90.312 E0.05356
G1 X158.534 Y88.730 E0.05375
G1 X159.158 Y87.126 E0.05395
G1 X159.743 Y85.500 E0.05418
G1 X160.500 Y83.166 E0.07692
G1 X160.807 Y82.833 F10800.000
G1 F8640
G1 X161.461 Y84.740 E-0.42574
G1 X162.125 Y85.985 E-0.32589
G1 X162.141 Y86.018 E-0.00837
G1 E-0.04000 F2100.00000
G1 Z0.800 F10800.000
G1 X164.514 Y90.346
G1 Z0.200
G1 E0.80000 F2100.00000
G1 F1200
G1 X165.398 Y93.193 E0.09346
G1 X165.767 Y94.538 E0.04375
G1 X166.091 Y95.896 E0.04375
G1 X166.370 Y97.263 E0.04375
G1 X166.604 Y98.639 E0.04375
G1 X166.816 Y100.198 E0.04934
G1 X165.479 Y102.735 E0.08992
G1 X164.184 Y105.044 E0.08301
G1 X162.612 Y107.682 E0.09629
G1 X161.008 Y110.227 E0.09431
G1 X159.386 Y112.678 E0.09216
G1 X157.761 Y115.037 E0.08984
G1 X156.144 Y117.305 E0.08732
G1 X154.551 Y119.484 E0.08463
G1 X148.559 Y127.484 E0.31340
G1 X146.455 Y130.345 E0.11134
G1 X144.597 Y132.960 E0.10058
G1 X143.773 Y134.171 E0.04591
G1 X143.010 Y135.335 E0.04365
G1 X142.314 Y136.446 E0.04113
G1 X141.406 Y137.986 E0.05603
G1 X140.658 Y139.365 E0.04921
